(.../pcb-gcode-3.6.0.4/pcb-gcode.ulp)
(Copyright 2005 - 2012 by John Johnson)
(See readme.txt for licensing terms.)
(This file generated from the board:)
(.../Probatio5Pins/Probatio5Pins_v0.0.2.brd)
(Current profile is .../pcb-gcode-3.6.0.4/profiles/generic.pp  )
(This file generated 6/16/16 08:15)
(Settings from pcb-machine.h)
(  Tool Size)
(0.1778 )
(Z Axis Settings)
(  High     Up        Down     Drill)
(12.7000 	2.5400 	-0.1778 	-0.8128 )
(spindle on time = 3.0000)
(milling depth = -0.2540)
(text depth = -0.1270)
(tool change at 12.7000 15.2400 25.4000 )
(feed rate xy = F508.00 )
(feed rate z  = F254.00 )
(Settings from pcb-defaults.h)
(isolate min = 0.0254)
(isolate max = 0.5080)
(isolate step = 0.1270)
(Generated bottom outlines, bottom drill, )
(Unit of measure: mm)
( Tool|       Size       |  Min Sub |  Max Sub |   Count )
( T01  0.610mm 0.0240in 0.0000in 0.0000in )
(Metric Mode)
G21
(Absolute Coordinates)
G90
M05
G00 Z25.4000 
G00 X12.7000 Y15.2400 
M06 T01  ; 0.6096 
G01 Z0.0000 F254.00 
M06 T01  ; 0.6096 
G00 Z2.5400 
M03
G04 P3.000000
G00 Z2.540000
G00 X-35.5600 Y5.7150 
G01 Z-0.8128 F254.00 
G01 Z2.540000
(R2.5400  P1.000000)
(G00 Z2.540000)
G00 X-37.4650 Y8.2550 
G01 Z-0.812800
G01 Z2.540000
(G00 Z2.540000)
G00 X-38.7350 Y43.8150 
G01 Z-0.812800
G01 Z2.540000
(G00 Z2.540000)
G00 X-39.3700 Y21.5900 
G01 Z-0.812800
G01 Z2.540000
(G00 Z2.540000)
G00 X-39.3700 Y27.9400 
G01 Z-0.812800
G01 Z2.540000
(G00 Z2.540000)
G00 X-40.0050 Y43.8150 
G01 Z-0.812800
G01 Z2.540000
(G00 Z2.540000)
G00 X-40.6400 Y40.0050 
G01 Z-0.812800
G01 Z2.540000
(G00 Z2.540000)
G00 X-40.6400 Y6.3500 
G01 Z-0.812800
G01 Z2.540000
(G00 Z2.540000)
G00 X-41.9100 Y42.5450 
G01 Z-0.812800
G01 Z2.540000
(G00 Z2.540000)
G00 X-41.9100 Y6.3500 
G01 Z-0.812800
G01 Z2.540000
(G00 Z2.540000)
G00 X-44.4500 Y43.8150 
G01 Z-0.812800
G01 Z2.540000
(G00 Z2.540000)
G00 X-5.7150 Y27.9400 
G01 Z-0.812800
G01 Z2.540000
(G00 Z2.540000)
G00 X-8.8900 Y13.9700 
G01 Z-0.812800
G01 Z2.540000
(G00 Z2.540000)
G00 X-8.8900 Y28.5750 
G01 Z-0.812800
G01 Z2.540000
(G00 Z2.540000)
G00 X-10.1600 Y29.8450 
G01 Z-0.812800
G01 Z2.540000
(G00 Z2.540000)
G00 X-11.4300 Y13.9700 
G01 Z-0.812800
G01 Z2.540000
(G00 Z2.540000)
G00 X-12.7000 Y27.9400 
G01 Z-0.812800
G01 Z2.540000
(G00 Z2.540000)
G00 X-20.3200 Y27.3050 
G01 Z-0.812800
G01 Z2.540000
T01 
G00 Z12.7000 
M05
M02
