(.../pcb-gcode-3.6.0.4/pcb-gcode.ulp)
(Copyright 2005 - 2012 by John Johnson)
(See readme.txt for licensing terms.)
(This file generated from the board:)
(.../Probatio5Pins/Probatio5Pins_v0.0.2.brd)
(Current profile is .../pcb-gcode-3.6.0.4/profiles/generic.pp  )
(This file generated 6/16/16 08:16)
(Settings from pcb-machine.h)
(  Tool Size)
(0.1778 )
(Z Axis Settings)
(  High     Up        Down     Drill)
(12.7000 	2.5400 	-0.1778 	-0.8128 )
(spindle on time = 3.0000)
(milling depth = -0.2540)
(text depth = -0.1270)
(tool change at 12.7000 15.2400 25.4000 )
(feed rate xy = F508.00 )
(feed rate z  = F254.00 )
(Settings from pcb-defaults.h)
(isolate min = 0.0254)
(isolate max = 0.5080)
(isolate step = 0.1270)
(Generated top outlines, bottom outlines, )
(Unit of measure: mm)
(Metric Mode)
G21
(Absolute Coordinates)
G90
G00 X0.0000 Y0.0000 
M03
G04 P3.000000
G00 Z2.5400 
G00 X-35.9537 Y2.9243 
G01 Z-0.1778 F254.00 
G01 X-35.8013 Y2.9243 F508.00 
G01 X-35.8013 Y5.1414 
G01 X-35.8548 Y5.1635 
G01 X-35.9537 Y5.2296 
G01 X-35.9537 Y2.9243 
G00 Z2.5400 
G00 X-43.5737 Y8.0137 
G01 Z-0.1778 F254.00 
G01 X-43.5737 Y6.3020 F508.00 
G01 X-43.6104 Y6.2133 
G01 X-43.6783 Y6.1454 
G01 X-44.4932 Y5.3306 
G01 X-44.4857 Y5.3127 
G01 X-44.4857 Y3.7672 
G01 X-44.5031 Y3.7252 
G01 X-44.5353 Y3.6931 
G01 X-44.5773 Y3.6757 
G01 X-45.9228 Y3.6757 
G01 X-45.9648 Y3.6931 
G01 X-45.9969 Y3.7252 
G01 X-46.0143 Y3.7672 
G01 X-46.0143 Y5.3127 
G01 X-45.9969 Y5.3547 
G01 X-45.9648 Y5.3869 
G01 X-45.9228 Y5.4043 
G01 X-45.1020 Y5.4043 
G01 X-44.0563 Y6.4499 
G01 X-44.0563 Y8.3030 
G01 X-44.0196 Y8.3917 
G01 X-43.9517 Y8.4596 
G01 X-43.8630 Y8.4963 
G01 X-38.3413 Y8.4963 
G01 X-38.3413 Y41.0337 
G01 X-40.3987 Y41.0337 
G01 X-40.3987 Y40.5786 
G01 X-40.3452 Y40.5565 
G01 X-40.2433 Y40.4884 
G01 X-40.1566 Y40.4017 
G01 X-40.0885 Y40.2998 
G01 X-40.0416 Y40.1865 
G01 X-40.0177 Y40.0663 
G01 X-40.0177 Y39.9437 
G01 X-40.0416 Y39.8235 
G01 X-40.0885 Y39.7102 
G01 X-40.1566 Y39.6083 
G01 X-40.2433 Y39.5216 
G01 X-40.3452 Y39.4535 
G01 X-40.4585 Y39.4066 
G01 X-40.5787 Y39.3827 
G01 X-40.7013 Y39.3827 
G01 X-40.8215 Y39.4066 
G01 X-40.9348 Y39.4535 
G01 X-41.0367 Y39.5216 
G01 X-41.1234 Y39.6083 
G01 X-41.1915 Y39.7102 
G01 X-41.2384 Y39.8235 
G01 X-41.2623 Y39.9437 
G01 X-41.2623 Y40.0663 
G01 X-41.2384 Y40.1865 
G01 X-41.1915 Y40.2998 
G01 X-41.1234 Y40.4017 
G01 X-41.0367 Y40.4884 
G01 X-40.9348 Y40.5565 
G01 X-40.8813 Y40.5786 
G01 X-40.8813 Y41.0337 
G01 X-41.9580 Y41.0337 
G01 X-42.0467 Y41.0704 
G01 X-42.1146 Y41.1383 
G01 X-43.3846 Y42.4083 
G01 X-43.4213 Y42.4970 
G01 X-43.4213 Y44.6757 
G01 X-44.1828 Y44.6757 
G01 X-44.2248 Y44.6931 
G01 X-44.2569 Y44.7253 
G01 X-44.2743 Y44.7673 
G01 X-44.2743 Y46.3127 
G01 X-44.2569 Y46.3547 
G01 X-44.2248 Y46.3869 
G01 X-44.1828 Y46.4043 
G01 X-42.8373 Y46.4043 
G01 X-42.7953 Y46.3869 
G01 X-42.7631 Y46.3547 
G01 X-42.7457 Y46.3127 
G01 X-42.7457 Y44.7673 
G01 X-42.7631 Y44.7253 
G01 X-42.7953 Y44.6931 
G01 X-42.8373 Y44.6757 
G01 X-42.9387 Y44.6757 
G01 X-42.9387 Y42.6450 
G01 X-41.8100 Y41.5163 
G01 X-37.7063 Y41.5163 
G01 X-37.7063 Y46.2550 
G01 X-38.7907 Y47.3395 
G01 X-38.7907 Y47.2173 
G01 X-38.8081 Y47.1752 
G01 X-38.8403 Y47.1431 
G01 X-38.8823 Y47.1257 
G01 X-40.1978 Y47.1257 
G01 X-40.2398 Y47.1431 
G01 X-40.2719 Y47.1752 
G01 X-40.2893 Y47.2173 
G01 X-40.2893 Y49.8027 
G01 X-40.2719 Y49.8447 
G01 X-40.2398 Y49.8769 
G01 X-40.1978 Y49.8943 
G01 X-38.8823 Y49.8943 
G01 X-38.8403 Y49.8769 
G01 X-38.8081 Y49.8447 
G01 X-38.7907 Y49.8027 
G01 X-38.7907 Y48.0220 
G01 X-37.2604 Y46.4917 
G01 X-37.2237 Y46.4030 
G01 X-37.2237 Y41.2270 
G01 X-37.2604 Y41.1383 
G01 X-37.3283 Y41.0704 
G01 X-37.4170 Y41.0337 
G01 X-37.8587 Y41.0337 
G01 X-37.8587 Y8.7404 
G01 X-37.7598 Y8.8065 
G01 X-37.6465 Y8.8534 
G01 X-37.5263 Y8.8773 
G01 X-37.4037 Y8.8773 
G01 X-37.2835 Y8.8534 
G01 X-37.1702 Y8.8065 
G01 X-37.0683 Y8.7384 
G01 X-36.9816 Y8.6517 
G01 X-36.9135 Y8.5498 
G01 X-36.8666 Y8.4365 
G01 X-36.8427 Y8.3163 
G01 X-36.8427 Y8.1937 
G01 X-36.8666 Y8.0735 
G01 X-36.9135 Y7.9602 
G01 X-36.9816 Y7.8583 
G01 X-37.0683 Y7.7716 
G01 X-37.1702 Y7.7035 
G01 X-37.2237 Y7.6814 
G01 X-37.2237 Y3.7620 
G01 X-37.2604 Y3.6733 
G01 X-38.7908 Y2.1430 
G01 X-38.7908 Y0.2473 
G01 X-38.8082 Y0.2053 
G01 X-38.8403 Y0.1731 
G01 X-38.8823 Y0.1557 
G01 X-40.1978 Y0.1557 
G01 X-40.2398 Y0.1731 
G01 X-40.2720 Y0.2053 
G01 X-40.2894 Y0.2473 
G01 X-40.2894 Y2.8327 
G01 X-40.2720 Y2.8747 
G01 X-40.2398 Y2.9069 
G01 X-40.1978 Y2.9243 
G01 X-38.8823 Y2.9243 
G01 X-38.8403 Y2.9069 
G01 X-38.8082 Y2.8747 
G01 X-38.7908 Y2.8327 
G01 X-38.7908 Y2.8255 
G01 X-37.7063 Y3.9100 
G01 X-37.7063 Y7.6814 
G01 X-37.7598 Y7.7035 
G01 X-37.8617 Y7.7716 
G01 X-37.9484 Y7.8583 
G01 X-38.0165 Y7.9602 
G01 X-38.0386 Y8.0137 
G01 X-38.1480 Y8.0137 
G01 X-43.5737 Y8.0137 
G00 Z2.5400 
G00 X-14.4177 Y2.9943 
G01 Z-0.1778 F254.00 
G01 X-14.2113 Y2.9943 F508.00 
G01 X-14.2113 Y27.0637 
G01 X-19.7464 Y27.0637 
G01 X-19.7685 Y27.0102 
G01 X-19.8366 Y26.9083 
G01 X-19.9233 Y26.8216 
G01 X-20.0252 Y26.7535 
G01 X-20.1385 Y26.7066 
G01 X-20.2587 Y26.6827 
G01 X-20.3813 Y26.6827 
G01 X-20.5015 Y26.7066 
G01 X-20.6148 Y26.7535 
G01 X-20.7167 Y26.8216 
G01 X-20.8034 Y26.9083 
G01 X-20.8715 Y27.0102 
G01 X-20.9184 Y27.1235 
G01 X-20.9423 Y27.2437 
G01 X-20.9423 Y27.3663 
G01 X-20.9184 Y27.4865 
G01 X-20.8715 Y27.5998 
G01 X-20.8034 Y27.7017 
G01 X-20.7167 Y27.7884 
G01 X-20.6148 Y27.8565 
G01 X-20.5015 Y27.9034 
G01 X-20.3813 Y27.9273 
G01 X-20.2587 Y27.9273 
G01 X-20.1385 Y27.9034 
G01 X-20.0252 Y27.8565 
G01 X-19.9233 Y27.7884 
G01 X-19.8366 Y27.7017 
G01 X-19.7685 Y27.5998 
G01 X-19.7464 Y27.5463 
G01 X-14.2113 Y27.5463 
G01 X-14.2113 Y47.1257 
G01 X-14.3277 Y47.1257 
G01 X-14.3697 Y47.1431 
G01 X-14.4019 Y47.1753 
G01 X-14.4193 Y47.2173 
G01 X-14.4193 Y49.8027 
G01 X-14.4019 Y49.8447 
G01 X-14.3697 Y49.8769 
G01 X-14.3277 Y49.8943 
G01 X-13.0123 Y49.8943 
G01 X-12.9703 Y49.8769 
G01 X-12.9381 Y49.8447 
G01 X-12.9207 Y49.8027 
G01 X-12.9207 Y47.2173 
G01 X-12.9381 Y47.1753 
G01 X-12.9703 Y47.1431 
G01 X-13.0123 Y47.1257 
G01 X-13.7287 Y47.1257 
G01 X-13.7287 Y2.9943 
G01 X-13.1023 Y2.9943 
G01 X-13.0603 Y2.9769 
G01 X-13.0281 Y2.9447 
G01 X-13.0107 Y2.9027 
G01 X-13.0107 Y0.3172 
G01 X-13.0281 Y0.2752 
G01 X-13.0603 Y0.2431 
G01 X-13.1023 Y0.2257 
G01 X-14.4177 Y0.2257 
G01 X-14.4598 Y0.2431 
G01 X-14.4919 Y0.2752 
G01 X-14.5093 Y0.3172 
G01 X-14.5093 Y2.9027 
G01 X-14.4919 Y2.9447 
G01 X-14.4598 Y2.9769 
G01 X-14.4177 Y2.9943 
G00 Z2.5400 
G00 X-4.5177 Y49.8943 
G01 Z-0.1778 F254.00 
G01 X-3.2023 Y49.8943 F508.00 
G01 X-3.1603 Y49.8769 
G01 X-3.1281 Y49.8447 
G01 X-3.1107 Y49.8027 
G01 X-3.1107 Y47.2173 
G01 X-3.1281 Y47.1753 
G01 X-3.1603 Y47.1431 
G01 X-3.2023 Y47.1257 
G01 X-3.6045 Y47.1257 
G01 X-2.9704 Y46.4917 
G01 X-2.9337 Y46.4030 
G01 X-2.9337 Y6.3020 
G01 X-2.9704 Y6.2133 
G01 X-3.0383 Y6.1454 
G01 X-3.9457 Y5.2380 
G01 X-3.9457 Y3.9672 
G01 X-3.9631 Y3.9252 
G01 X-3.9953 Y3.8931 
G01 X-4.0373 Y3.8757 
G01 X-4.2037 Y3.8757 
G01 X-4.2037 Y2.9943 
G01 X-3.2923 Y2.9943 
G01 X-3.2503 Y2.9769 
G01 X-3.2181 Y2.9447 
G01 X-3.2007 Y2.9027 
G01 X-3.2007 Y0.3172 
G01 X-3.2181 Y0.2752 
G01 X-3.2503 Y0.2431 
G01 X-3.2923 Y0.2257 
G01 X-4.6078 Y0.2257 
G01 X-4.6498 Y0.2431 
G01 X-4.6819 Y0.2752 
G01 X-4.6993 Y0.3172 
G01 X-4.6993 Y2.9027 
G01 X-4.6863 Y2.9341 
G01 X-4.6863 Y3.8757 
G01 X-5.3828 Y3.8757 
G01 X-5.4248 Y3.8931 
G01 X-5.4569 Y3.9252 
G01 X-5.4743 Y3.9672 
G01 X-5.4743 Y5.5127 
G01 X-5.4569 Y5.5547 
G01 X-5.4248 Y5.5869 
G01 X-5.3828 Y5.6043 
G01 X-4.2620 Y5.6043 
G01 X-3.4163 Y6.4500 
G01 X-3.4163 Y27.6987 
G01 X-5.1414 Y27.6987 
G01 X-5.1635 Y27.6452 
G01 X-5.2316 Y27.5433 
G01 X-5.3183 Y27.4566 
G01 X-5.4202 Y27.3885 
G01 X-5.5335 Y27.3416 
G01 X-5.6537 Y27.3177 
G01 X-5.7763 Y27.3177 
G01 X-5.8965 Y27.3416 
G01 X-6.0098 Y27.3885 
G01 X-6.1117 Y27.4566 
G01 X-6.1984 Y27.5433 
G01 X-6.2665 Y27.6452 
G01 X-6.3134 Y27.7585 
G01 X-6.3373 Y27.8787 
G01 X-6.3373 Y28.0013 
G01 X-6.3134 Y28.1215 
G01 X-6.2665 Y28.2348 
G01 X-6.1984 Y28.3367 
G01 X-6.1117 Y28.4234 
G01 X-6.0098 Y28.4915 
G01 X-5.8965 Y28.5384 
G01 X-5.7763 Y28.5623 
G01 X-5.6537 Y28.5623 
G01 X-5.5335 Y28.5384 
G01 X-5.4202 Y28.4915 
G01 X-5.3183 Y28.4234 
G01 X-5.2316 Y28.3367 
G01 X-5.1635 Y28.2348 
G01 X-5.1414 Y28.1813 
G01 X-3.4163 Y28.1813 
G01 X-3.4163 Y46.2550 
G01 X-4.2869 Y47.1257 
G01 X-4.5177 Y47.1257 
G01 X-4.5598 Y47.1431 
G01 X-4.5727 Y47.1561 
G01 X-5.7857 Y45.9430 
G01 X-5.7857 Y44.6673 
G01 X-5.8031 Y44.6253 
G01 X-5.8353 Y44.5931 
G01 X-5.8773 Y44.5757 
G01 X-7.2228 Y44.5757 
G01 X-7.2648 Y44.5931 
G01 X-7.2969 Y44.6253 
G01 X-7.3143 Y44.6673 
G01 X-7.3143 Y46.2127 
G01 X-7.2969 Y46.2547 
G01 X-7.2648 Y46.2869 
G01 X-7.2228 Y46.3043 
G01 X-6.1070 Y46.3043 
G01 X-4.6863 Y47.7249 
G01 X-4.6863 Y48.2586 
G01 X-4.6868 Y48.3053 
G01 X-4.6863 Y48.3080 
G01 X-4.6685 Y48.3511 
G01 X-4.6511 Y48.3944 
G01 X-4.6166 Y48.4296 
G01 X-4.6093 Y48.4371 
G01 X-4.6093 Y49.8027 
G01 X-4.5919 Y49.8447 
G01 X-4.5598 Y49.8769 
G01 X-4.5177 Y49.8943 
G00 Z2.5400 
G00 X-43.4678 Y49.8943 
G01 Z-0.1778 F254.00 
G01 X-42.1523 Y49.8943 F508.00 
G01 X-42.1103 Y49.8769 
G01 X-42.0781 Y49.8447 
G01 X-42.0607 Y49.8027 
G01 X-42.0607 Y48.1170 
G01 X-41.7733 Y47.8296 
G01 X-41.7054 Y47.7617 
G01 X-41.6687 Y47.6730 
G01 X-41.6687 Y43.1186 
G01 X-41.6152 Y43.0965 
G01 X-41.5133 Y43.0284 
G01 X-41.4266 Y42.9417 
G01 X-41.3585 Y42.8398 
G01 X-41.3116 Y42.7265 
G01 X-41.2877 Y42.6063 
G01 X-41.2877 Y42.4837 
G01 X-41.3116 Y42.3635 
G01 X-41.3585 Y42.2502 
G01 X-41.4266 Y42.1483 
G01 X-41.5133 Y42.0616 
G01 X-41.6152 Y41.9935 
G01 X-41.7285 Y41.9466 
G01 X-41.8487 Y41.9227 
G01 X-41.9713 Y41.9227 
G01 X-42.0915 Y41.9466 
G01 X-42.2048 Y41.9935 
G01 X-42.3067 Y42.0616 
G01 X-42.3934 Y42.1483 
G01 X-42.4615 Y42.2502 
G01 X-42.5084 Y42.3635 
G01 X-42.5323 Y42.4837 
G01 X-42.5323 Y42.6063 
G01 X-42.5084 Y42.7265 
G01 X-42.4615 Y42.8398 
G01 X-42.3934 Y42.9417 
G01 X-42.3067 Y43.0284 
G01 X-42.2048 Y43.0965 
G01 X-42.1513 Y43.1186 
G01 X-42.1513 Y47.1261 
G01 X-43.4678 Y47.1257 
G01 X-43.5098 Y47.1431 
G01 X-43.5419 Y47.1752 
G01 X-43.5593 Y47.2173 
G01 X-43.5593 Y49.8027 
G01 X-43.5419 Y49.8447 
G01 X-43.5098 Y49.8769 
G01 X-43.4678 Y49.8943 
G00 Z2.5400 
G00 X-36.9278 Y2.9243 
G01 Z-0.1778 F254.00 
G01 X-36.4363 Y2.9243 F508.00 
G01 X-36.4363 Y47.1257 
G01 X-36.9278 Y47.1257 
G01 X-36.9698 Y47.1431 
G01 X-37.0019 Y47.1752 
G01 X-37.0193 Y47.2173 
G01 X-37.0193 Y49.8027 
G01 X-37.0019 Y49.8447 
G01 X-36.9698 Y49.8769 
G01 X-36.9278 Y49.8943 
G01 X-35.6123 Y49.8943 
G01 X-35.5703 Y49.8769 
G01 X-35.5381 Y49.8447 
G01 X-35.5207 Y49.8027 
G01 X-35.5207 Y47.2173 
G01 X-35.5381 Y47.1752 
G01 X-35.5703 Y47.1431 
G01 X-35.6123 Y47.1257 
G01 X-35.9537 Y47.1257 
G01 X-35.9537 Y6.2004 
G01 X-35.8548 Y6.2665 
G01 X-35.7415 Y6.3134 
G01 X-35.6213 Y6.3373 
G01 X-35.4987 Y6.3373 
G01 X-35.3785 Y6.3134 
G01 X-35.2652 Y6.2665 
G01 X-35.1633 Y6.1984 
G01 X-35.0766 Y6.1117 
G01 X-35.0085 Y6.0098 
G01 X-34.9616 Y5.8965 
G01 X-34.9377 Y5.7763 
G01 X-34.9377 Y5.6537 
G01 X-34.9616 Y5.5335 
G01 X-35.0085 Y5.4202 
G01 X-35.0766 Y5.3183 
G01 X-35.1633 Y5.2316 
G01 X-35.2652 Y5.1635 
G01 X-35.3187 Y5.1414 
G01 X-35.3187 Y2.4920 
G01 X-35.3554 Y2.4033 
G01 X-35.4233 Y2.3354 
G01 X-35.5208 Y2.2380 
G01 X-35.5208 Y0.2473 
G01 X-35.5382 Y0.2053 
G01 X-35.5703 Y0.1731 
G01 X-35.6123 Y0.1557 
G01 X-36.9278 Y0.1557 
G01 X-36.9698 Y0.1731 
G01 X-37.0020 Y0.2053 
G01 X-37.0194 Y0.2473 
G01 X-37.0194 Y2.8327 
G01 X-37.0020 Y2.8747 
G01 X-36.9698 Y2.9069 
G01 X-36.9278 Y2.9243 
G00 Z2.5400 
G00 X-46.7378 Y2.9243 
G01 Z-0.1778 F254.00 
G01 X-45.4223 Y2.9243 F508.00 
G01 X-45.3803 Y2.9069 
G01 X-45.3482 Y2.8747 
G01 X-45.3308 Y2.8327 
G01 X-45.3308 Y0.2473 
G01 X-45.3482 Y0.2053 
G01 X-45.3803 Y0.1731 
G01 X-45.4223 Y0.1557 
G01 X-46.7378 Y0.1557 
G01 X-46.7798 Y0.1731 
G01 X-46.8120 Y0.2053 
G01 X-46.8294 Y0.2473 
G01 X-46.8294 Y2.0381 
G01 X-47.1267 Y2.3354 
G01 X-47.1946 Y2.4033 
G01 X-47.2313 Y2.4920 
G01 X-47.2313 Y47.6730 
G01 X-47.1946 Y47.7617 
G01 X-46.8293 Y48.1269 
G01 X-46.8293 Y49.8027 
G01 X-46.8119 Y49.8447 
G01 X-46.7798 Y49.8769 
G01 X-46.7378 Y49.8943 
G01 X-45.4223 Y49.8943 
G01 X-45.3803 Y49.8769 
G01 X-45.3481 Y49.8447 
G01 X-45.3307 Y49.8027 
G01 X-45.3307 Y47.2173 
G01 X-45.3481 Y47.1752 
G01 X-45.3803 Y47.1431 
G01 X-45.4223 Y47.1257 
G01 X-46.7378 Y47.1257 
G01 X-46.7487 Y47.1302 
G01 X-46.7487 Y28.1813 
G01 X-39.9436 Y28.1813 
G01 X-39.9215 Y28.2348 
G01 X-39.8534 Y28.3367 
G01 X-39.7667 Y28.4234 
G01 X-39.6648 Y28.4915 
G01 X-39.5515 Y28.5384 
G01 X-39.4313 Y28.5623 
G01 X-39.3087 Y28.5623 
G01 X-39.1885 Y28.5384 
G01 X-39.0752 Y28.4915 
G01 X-38.9733 Y28.4234 
G01 X-38.8866 Y28.3367 
G01 X-38.8185 Y28.2348 
G01 X-38.7716 Y28.1215 
G01 X-38.7477 Y28.0013 
G01 X-38.7477 Y27.8787 
G01 X-38.7716 Y27.7585 
G01 X-38.8185 Y27.6452 
G01 X-38.8866 Y27.5433 
G01 X-38.9733 Y27.4566 
G01 X-39.0752 Y27.3885 
G01 X-39.1885 Y27.3416 
G01 X-39.3087 Y27.3177 
G01 X-39.4313 Y27.3177 
G01 X-39.5515 Y27.3416 
G01 X-39.6648 Y27.3885 
G01 X-39.7667 Y27.4566 
G01 X-39.8534 Y27.5433 
G01 X-39.9215 Y27.6452 
G01 X-39.9436 Y27.6987 
G01 X-46.7487 Y27.6987 
G01 X-46.7487 Y2.9198 
G01 X-46.7378 Y2.9243 
G00 Z2.5400 
G00 X-43.4678 Y2.9243 
G01 Z-0.1778 F254.00 
G01 X-42.1523 Y2.9243 F508.00 
G01 X-42.1513 Y2.9239 
G01 X-42.1513 Y5.7764 
G01 X-42.2048 Y5.7985 
G01 X-42.3067 Y5.8666 
G01 X-42.3934 Y5.9533 
G01 X-42.4615 Y6.0552 
G01 X-42.5084 Y6.1685 
G01 X-42.5323 Y6.2887 
G01 X-42.5323 Y6.4113 
G01 X-42.5084 Y6.5315 
G01 X-42.4615 Y6.6448 
G01 X-42.3934 Y6.7467 
G01 X-42.3067 Y6.8334 
G01 X-42.2048 Y6.9015 
G01 X-42.0915 Y6.9484 
G01 X-41.9713 Y6.9723 
G01 X-41.8487 Y6.9723 
G01 X-41.7285 Y6.9484 
G01 X-41.6152 Y6.9015 
G01 X-41.5133 Y6.8334 
G01 X-41.4266 Y6.7467 
G01 X-41.3585 Y6.6448 
G01 X-41.3116 Y6.5315 
G01 X-41.2877 Y6.4113 
G01 X-41.2877 Y6.2887 
G01 X-41.3116 Y6.1685 
G01 X-41.3585 Y6.0552 
G01 X-41.4266 Y5.9533 
G01 X-41.5133 Y5.8666 
G01 X-41.6152 Y5.7985 
G01 X-41.6687 Y5.7764 
G01 X-41.6687 Y2.4920 
G01 X-41.7054 Y2.4033 
G01 X-41.7733 Y2.3354 
G01 X-42.0608 Y2.0480 
G01 X-42.0608 Y0.2473 
G01 X-42.0782 Y0.2053 
G01 X-42.1103 Y0.1731 
G01 X-42.1523 Y0.1557 
G01 X-43.4678 Y0.1557 
G01 X-43.5098 Y0.1731 
G01 X-43.5420 Y0.2053 
G01 X-43.5594 Y0.2473 
G01 X-43.5594 Y2.8327 
G01 X-43.5420 Y2.8747 
G01 X-43.5098 Y2.9069 
G01 X-43.4678 Y2.9243 
G00 Z2.5400 
G00 X-3.8857 Y46.2127 
G01 Z-0.1778 F254.00 
G01 X-3.8857 Y44.6673 F508.00 
G01 X-3.9031 Y44.6253 
G01 X-3.9353 Y44.5931 
G01 X-3.9773 Y44.5757 
G01 X-4.8387 Y44.5757 
G01 X-4.8387 Y44.4020 
G01 X-4.8754 Y44.3133 
G01 X-5.5104 Y43.6783 
G01 X-5.5783 Y43.6104 
G01 X-5.6670 Y43.5737 
G01 X-8.6487 Y43.5737 
G01 X-8.6487 Y29.1486 
G01 X-8.5952 Y29.1265 
G01 X-8.4933 Y29.0584 
G01 X-8.4066 Y28.9717 
G01 X-8.3385 Y28.8698 
G01 X-8.2916 Y28.7565 
G01 X-8.2677 Y28.6363 
G01 X-8.2677 Y28.5137 
G01 X-8.2916 Y28.3935 
G01 X-8.3385 Y28.2802 
G01 X-8.4066 Y28.1783 
G01 X-8.4933 Y28.0916 
G01 X-8.5952 Y28.0235 
G01 X-8.7085 Y27.9766 
G01 X-8.8287 Y27.9527 
G01 X-8.9513 Y27.9527 
G01 X-9.0715 Y27.9766 
G01 X-9.1848 Y28.0235 
G01 X-9.2867 Y28.0916 
G01 X-9.3734 Y28.1783 
G01 X-9.4415 Y28.2802 
G01 X-9.4884 Y28.3935 
G01 X-9.5123 Y28.5137 
G01 X-9.5123 Y28.6363 
G01 X-9.4884 Y28.7565 
G01 X-9.4415 Y28.8698 
G01 X-9.3734 Y28.9717 
G01 X-9.2867 Y29.0584 
G01 X-9.1848 Y29.1265 
G01 X-9.1313 Y29.1486 
G01 X-9.1313 Y44.5757 
G01 X-9.8028 Y44.5757 
G01 X-9.8448 Y44.5931 
G01 X-9.8769 Y44.6253 
G01 X-9.8943 Y44.6673 
G01 X-9.8943 Y46.2127 
G01 X-9.8769 Y46.2547 
G01 X-9.8448 Y46.2869 
G01 X-9.8028 Y46.3043 
G01 X-8.4573 Y46.3043 
G01 X-8.4153 Y46.2869 
G01 X-8.3831 Y46.2547 
G01 X-8.3657 Y46.2127 
G01 X-8.3657 Y44.6673 
G01 X-8.3831 Y44.6253 
G01 X-8.4153 Y44.5931 
G01 X-8.4573 Y44.5757 
G01 X-8.6487 Y44.5757 
G01 X-8.6487 Y44.0563 
G01 X-5.8150 Y44.0563 
G01 X-5.3213 Y44.5500 
G01 X-5.3213 Y44.5757 
G01 X-5.3648 Y44.5931 
G01 X-5.3969 Y44.6253 
G01 X-5.4143 Y44.6673 
G01 X-5.4143 Y46.2127 
G01 X-5.3969 Y46.2547 
G01 X-5.3648 Y46.2869 
G01 X-5.3228 Y46.3043 
G01 X-3.9773 Y46.3043 
G01 X-3.9353 Y46.2869 
G01 X-3.9031 Y46.2547 
G01 X-3.8857 Y46.2127 
G00 Z2.5400 
G00 X-5.8457 Y5.5127 
G01 Z-0.1778 F254.00 
G01 X-5.8457 Y3.9672 F508.00 
G01 X-5.8631 Y3.9252 
G01 X-5.8953 Y3.8931 
G01 X-5.9373 Y3.8757 
G01 X-7.2828 Y3.8757 
G01 X-7.3248 Y3.8931 
G01 X-7.3569 Y3.9252 
G01 X-7.3743 Y3.9672 
G01 X-7.3743 Y5.1281 
G01 X-9.0267 Y6.7804 
G01 X-9.0946 Y6.8483 
G01 X-9.1313 Y6.9370 
G01 X-9.1313 Y13.3964 
G01 X-9.1848 Y13.4185 
G01 X-9.2867 Y13.4866 
G01 X-9.3734 Y13.5733 
G01 X-9.4415 Y13.6752 
G01 X-9.4884 Y13.7885 
G01 X-9.5123 Y13.9087 
G01 X-9.5123 Y14.0313 
G01 X-9.4884 Y14.1515 
G01 X-9.4415 Y14.2648 
G01 X-9.3734 Y14.3667 
G01 X-9.2867 Y14.4534 
G01 X-9.1848 Y14.5215 
G01 X-9.0715 Y14.5684 
G01 X-8.9513 Y14.5923 
G01 X-8.8287 Y14.5923 
G01 X-8.7085 Y14.5684 
G01 X-8.5952 Y14.5215 
G01 X-8.4933 Y14.4534 
G01 X-8.4066 Y14.3667 
G01 X-8.3385 Y14.2648 
G01 X-8.2916 Y14.1515 
G01 X-8.2677 Y14.0313 
G01 X-8.2677 Y13.9087 
G01 X-8.2916 Y13.7885 
G01 X-8.3385 Y13.6752 
G01 X-8.4066 Y13.5733 
G01 X-8.4933 Y13.4866 
G01 X-8.5952 Y13.4185 
G01 X-8.6487 Y13.3964 
G01 X-8.6487 Y7.0850 
G01 X-7.1680 Y5.6043 
G01 X-5.9373 Y5.6043 
G01 X-5.8953 Y5.5869 
G01 X-5.8631 Y5.5547 
G01 X-5.8457 Y5.5127 
G00 Z2.5400 
G00 X-8.7257 Y5.5127 
G01 Z-0.1778 F254.00 
G01 X-8.7257 Y4.6236 F508.00 
G01 X-8.7139 Y4.6102 
G01 X-7.4833 Y3.3796 
G01 X-7.4154 Y3.3117 
G01 X-7.3787 Y3.2230 
G01 X-7.3787 Y2.9943 
G01 X-6.5623 Y2.9943 
G01 X-6.5203 Y2.9769 
G01 X-6.4881 Y2.9447 
G01 X-6.4707 Y2.9027 
G01 X-6.4707 Y0.3172 
G01 X-6.4881 Y0.2752 
G01 X-6.5203 Y0.2431 
G01 X-6.5623 Y0.2257 
G01 X-7.8778 Y0.2257 
G01 X-7.9198 Y0.2431 
G01 X-7.9519 Y0.2752 
G01 X-7.9693 Y0.3172 
G01 X-7.9693 Y2.9027 
G01 X-7.9519 Y2.9447 
G01 X-7.9198 Y2.9769 
G01 X-7.8778 Y2.9943 
G01 X-7.8613 Y2.9943 
G01 X-7.8613 Y3.0750 
G01 X-8.7339 Y3.9476 
G01 X-8.7431 Y3.9252 
G01 X-8.7753 Y3.8931 
G01 X-8.8173 Y3.8757 
G01 X-10.1628 Y3.8757 
G01 X-10.2048 Y3.8931 
G01 X-10.2369 Y3.9252 
G01 X-10.2543 Y3.9672 
G01 X-10.2543 Y5.4681 
G01 X-10.2967 Y5.5104 
G01 X-10.3646 Y5.5783 
G01 X-10.4013 Y5.6670 
G01 X-10.4013 Y29.2714 
G01 X-10.4548 Y29.2935 
G01 X-10.5567 Y29.3616 
G01 X-10.6434 Y29.4483 
G01 X-10.7115 Y29.5502 
G01 X-10.7584 Y29.6635 
G01 X-10.7823 Y29.7837 
G01 X-10.7823 Y29.9063 
G01 X-10.7584 Y30.0265 
G01 X-10.7115 Y30.1398 
G01 X-10.6434 Y30.2417 
G01 X-10.5567 Y30.3284 
G01 X-10.4548 Y30.3965 
G01 X-10.4013 Y30.4186 
G01 X-10.4013 Y44.5757 
G01 X-11.7028 Y44.5757 
G01 X-11.7448 Y44.5931 
G01 X-11.7769 Y44.6253 
G01 X-11.7943 Y44.6673 
G01 X-11.7943 Y46.2127 
G01 X-11.7769 Y46.2547 
G01 X-11.7448 Y46.2869 
G01 X-11.7028 Y46.3043 
G01 X-10.5519 Y46.3043 
G01 X-10.3646 Y46.4917 
G01 X-10.2967 Y46.5596 
G01 X-9.7223 Y47.1340 
G01 X-9.7423 Y47.1257 
G01 X-11.0577 Y47.1257 
G01 X-11.0998 Y47.1431 
G01 X-11.1319 Y47.1753 
G01 X-11.1493 Y47.2173 
G01 X-11.1493 Y47.5644 
G01 X-12.4587 Y46.2550 
G01 X-12.4587 Y28.5136 
G01 X-12.4052 Y28.4915 
G01 X-12.3033 Y28.4234 
G01 X-12.2166 Y28.3367 
G01 X-12.1485 Y28.2348 
G01 X-12.1016 Y28.1215 
G01 X-12.0777 Y28.0013 
G01 X-12.0777 Y27.8787 
G01 X-12.1016 Y27.7585 
G01 X-12.1485 Y27.6452 
G01 X-12.2166 Y27.5433 
G01 X-12.3033 Y27.4566 
G01 X-12.4052 Y27.3885 
G01 X-12.4587 Y27.3664 
G01 X-12.4587 Y3.9099 
G01 X-11.2393 Y2.6906 
G01 X-11.2393 Y2.9027 
G01 X-11.2219 Y2.9447 
G01 X-11.1898 Y2.9769 
G01 X-11.1478 Y2.9943 
G01 X-9.8323 Y2.9943 
G01 X-9.7903 Y2.9769 
G01 X-9.7581 Y2.9447 
G01 X-9.7407 Y2.9027 
G01 X-9.7407 Y0.3172 
G01 X-9.7581 Y0.2752 
G01 X-9.7903 Y0.2431 
G01 X-9.8323 Y0.2257 
G01 X-11.1478 Y0.2257 
G01 X-11.1898 Y0.2431 
G01 X-11.2219 Y0.2752 
G01 X-11.2393 Y0.3172 
G01 X-11.2393 Y2.0081 
G01 X-12.8367 Y3.6054 
G01 X-12.9046 Y3.6733 
G01 X-12.9413 Y3.7620 
G01 X-12.9413 Y27.3664 
G01 X-12.9948 Y27.3885 
G01 X-13.0967 Y27.4566 
G01 X-13.1834 Y27.5433 
G01 X-13.2515 Y27.6452 
G01 X-13.2984 Y27.7585 
G01 X-13.3223 Y27.8787 
G01 X-13.3223 Y28.0013 
G01 X-13.2984 Y28.1215 
G01 X-13.2515 Y28.2348 
G01 X-13.1834 Y28.3367 
G01 X-13.0967 Y28.4234 
G01 X-12.9948 Y28.4915 
G01 X-12.9413 Y28.5136 
G01 X-12.9413 Y46.4030 
G01 X-12.9046 Y46.4917 
G01 X-11.1493 Y48.2469 
G01 X-11.1493 Y49.8027 
G01 X-11.1319 Y49.8447 
G01 X-11.0998 Y49.8769 
G01 X-11.0577 Y49.8943 
G01 X-9.7423 Y49.8943 
G01 X-9.7003 Y49.8769 
G01 X-9.6681 Y49.8447 
G01 X-9.6507 Y49.8027 
G01 X-9.6507 Y47.2173 
G01 X-9.6590 Y47.1973 
G01 X-8.4596 Y48.3967 
G01 X-8.3917 Y48.4646 
G01 X-8.3030 Y48.5013 
G01 X-7.8793 Y48.5013 
G01 X-7.8793 Y49.8027 
G01 X-7.8619 Y49.8447 
G01 X-7.8298 Y49.8769 
G01 X-7.7877 Y49.8943 
G01 X-6.4723 Y49.8943 
G01 X-6.4303 Y49.8769 
G01 X-6.3981 Y49.8447 
G01 X-6.3807 Y49.8027 
G01 X-6.3807 Y47.2173 
G01 X-6.3981 Y47.1753 
G01 X-6.4303 Y47.1431 
G01 X-6.4723 Y47.1257 
G01 X-7.7877 Y47.1257 
G01 X-7.8298 Y47.1431 
G01 X-7.8619 Y47.1753 
G01 X-7.8793 Y47.2173 
G01 X-7.8793 Y48.0187 
G01 X-8.1550 Y48.0187 
G01 X-9.9187 Y46.2550 
G01 X-9.9187 Y30.4186 
G01 X-9.8652 Y30.3965 
G01 X-9.7633 Y30.3284 
G01 X-9.6766 Y30.2417 
G01 X-9.6085 Y30.1398 
G01 X-9.5616 Y30.0265 
G01 X-9.5377 Y29.9063 
G01 X-9.5377 Y29.7837 
G01 X-9.5616 Y29.6635 
G01 X-9.6085 Y29.5502 
G01 X-9.6766 Y29.4483 
G01 X-9.7633 Y29.3616 
G01 X-9.8652 Y29.2935 
G01 X-9.9187 Y29.2714 
G01 X-9.9187 Y5.8150 
G01 X-9.7080 Y5.6043 
G01 X-8.8173 Y5.6043 
G01 X-8.7753 Y5.5869 
G01 X-8.7431 Y5.5547 
G01 X-8.7257 Y5.5127 
G00 Z2.5400 
G00 X-10.6257 Y5.5127 
G01 Z-0.1778 F254.00 
G01 X-10.6257 Y3.9672 F508.00 
G01 X-10.6431 Y3.9252 
G01 X-10.6753 Y3.8931 
G01 X-10.7173 Y3.8757 
G01 X-12.0628 Y3.8757 
G01 X-12.1048 Y3.8931 
G01 X-12.1369 Y3.9252 
G01 X-12.1543 Y3.9672 
G01 X-12.1543 Y5.5127 
G01 X-12.1369 Y5.5547 
G01 X-12.1048 Y5.5869 
G01 X-12.0628 Y5.6043 
G01 X-11.6713 Y5.6043 
G01 X-11.6713 Y13.3964 
G01 X-11.7248 Y13.4185 
G01 X-11.8267 Y13.4866 
G01 X-11.9134 Y13.5733 
G01 X-11.9815 Y13.6752 
G01 X-12.0284 Y13.7885 
G01 X-12.0523 Y13.9087 
G01 X-12.0523 Y14.0313 
G01 X-12.0284 Y14.1515 
G01 X-11.9815 Y14.2648 
G01 X-11.9134 Y14.3667 
G01 X-11.8267 Y14.4534 
G01 X-11.7248 Y14.5215 
G01 X-11.6115 Y14.5684 
G01 X-11.4913 Y14.5923 
G01 X-11.3687 Y14.5923 
G01 X-11.2485 Y14.5684 
G01 X-11.1352 Y14.5215 
G01 X-11.0333 Y14.4534 
G01 X-10.9466 Y14.3667 
G01 X-10.8785 Y14.2648 
G01 X-10.8316 Y14.1515 
G01 X-10.8077 Y14.0313 
G01 X-10.8077 Y13.9087 
G01 X-10.8316 Y13.7885 
G01 X-10.8785 Y13.6752 
G01 X-10.9466 Y13.5733 
G01 X-11.0333 Y13.4866 
G01 X-11.1352 Y13.4185 
G01 X-11.1887 Y13.3964 
G01 X-11.1887 Y5.6043 
G01 X-10.7173 Y5.6043 
G01 X-10.6753 Y5.5869 
G01 X-10.6431 Y5.5547 
G01 X-10.6257 Y5.5127 
G00 Z2.5400 
G00 X-37.9057 Y5.3127 
G01 Z-0.1778 F254.00 
G01 X-37.9057 Y3.7672 F508.00 
G01 X-37.9231 Y3.7252 
G01 X-37.9553 Y3.6931 
G01 X-37.9973 Y3.6757 
G01 X-39.3428 Y3.6757 
G01 X-39.3848 Y3.6931 
G01 X-39.4169 Y3.7252 
G01 X-39.4343 Y3.7672 
G01 X-39.4343 Y5.3127 
G01 X-39.4169 Y5.3547 
G01 X-39.3848 Y5.3869 
G01 X-39.5067 Y5.5104 
G01 X-39.5746 Y5.5783 
G01 X-39.6113 Y5.6670 
G01 X-39.6113 Y6.2500 
G01 X-40.7400 Y7.3787 
G01 X-42.9387 Y7.3787 
G01 X-42.9387 Y5.4043 
G01 X-42.6773 Y5.4043 
G01 X-42.6353 Y5.3869 
G01 X-42.6031 Y5.3547 
G01 X-42.5857 Y5.3127 
G01 X-42.5857 Y3.7672 
G01 X-42.6031 Y3.7252 
G01 X-42.6353 Y3.6931 
G01 X-42.6773 Y3.6757 
G01 X-43.6095 Y3.6757 
G01 X-44.2454 Y3.0383 
G01 X-44.3133 Y2.9704 
G01 X-44.4020 Y2.9337 
G01 X-46.4030 Y2.9337 
G01 X-46.4917 Y2.9704 
G01 X-46.5596 Y3.0383 
G01 X-46.5963 Y3.1270 
G01 X-46.5963 Y14.6530 
G01 X-46.5596 Y14.7417 
G01 X-39.9462 Y21.3550 
G01 X-39.9684 Y21.4085 
G01 X-39.9923 Y21.5287 
G01 X-39.9923 Y21.6513 
G01 X-39.9684 Y21.7715 
G01 X-39.9215 Y21.8848 
G01 X-39.8534 Y21.9867 
G01 X-39.7667 Y22.0734 
G01 X-39.6648 Y22.1415 
G01 X-39.5515 Y22.1884 
G01 X-39.4313 Y22.2123 
G01 X-39.3087 Y22.2123 
G01 X-39.1885 Y22.1884 
G01 X-39.0752 Y22.1415 
G01 X-38.9733 Y22.0734 
G01 X-38.8866 Y21.9867 
G01 X-38.8185 Y21.8848 
G01 X-38.7716 Y21.7715 
G01 X-38.7477 Y21.6513 
G01 X-38.7477 Y21.5287 
G01 X-38.7716 Y21.4085 
G01 X-38.8185 Y21.2952 
G01 X-38.8866 Y21.1933 
G01 X-38.9733 Y21.1066 
G01 X-39.0752 Y21.0385 
G01 X-39.1885 Y20.9916 
G01 X-39.3087 Y20.9677 
G01 X-39.4313 Y20.9677 
G01 X-39.5515 Y20.9916 
G01 X-39.6050 Y21.0138 
G01 X-46.1137 Y14.5050 
G01 X-46.1137 Y3.4163 
G01 X-44.5500 Y3.4163 
G01 X-44.1143 Y3.8519 
G01 X-44.1143 Y5.3127 
G01 X-44.0969 Y5.3547 
G01 X-44.0648 Y5.3869 
G01 X-44.0228 Y5.4043 
G01 X-43.4213 Y5.4043 
G01 X-43.4213 Y7.6680 
G01 X-43.3846 Y7.7567 
G01 X-43.3167 Y7.8246 
G01 X-43.2280 Y7.8613 
G01 X-40.5920 Y7.8613 
G01 X-40.5033 Y7.8246 
G01 X-40.4354 Y7.7567 
G01 X-39.1654 Y6.4867 
G01 X-39.1287 Y6.3980 
G01 X-39.1287 Y5.8150 
G01 X-38.7180 Y5.4043 
G01 X-37.9973 Y5.4043 
G01 X-37.9553 Y5.3869 
G01 X-37.9231 Y5.3547 
G01 X-37.9057 Y5.3127 
G00 Z2.5400 
G00 X-39.8057 Y5.3127 
G01 Z-0.1778 F254.00 
G01 X-39.8057 Y3.7672 F508.00 
G01 X-39.8231 Y3.7252 
G01 X-39.8553 Y3.6931 
G01 X-39.8973 Y3.6757 
G01 X-41.2428 Y3.6757 
G01 X-41.2848 Y3.6931 
G01 X-41.3169 Y3.7252 
G01 X-41.3343 Y3.7672 
G01 X-41.3343 Y5.3127 
G01 X-41.3169 Y5.3547 
G01 X-41.2848 Y5.3869 
G01 X-41.2428 Y5.4043 
G01 X-40.8813 Y5.4043 
G01 X-40.8813 Y5.7764 
G01 X-40.9348 Y5.7985 
G01 X-41.0367 Y5.8666 
G01 X-41.1234 Y5.9533 
G01 X-41.1915 Y6.0552 
G01 X-41.2384 Y6.1685 
G01 X-41.2623 Y6.2887 
G01 X-41.2623 Y6.4113 
G01 X-41.2384 Y6.5315 
G01 X-41.1915 Y6.6448 
G01 X-41.1234 Y6.7467 
G01 X-41.0367 Y6.8334 
G01 X-40.9348 Y6.9015 
G01 X-40.8215 Y6.9484 
G01 X-40.7013 Y6.9723 
G01 X-40.5787 Y6.9723 
G01 X-40.4585 Y6.9484 
G01 X-40.3452 Y6.9015 
G01 X-40.2433 Y6.8334 
G01 X-40.1566 Y6.7467 
G01 X-40.0885 Y6.6448 
G01 X-40.0416 Y6.5315 
G01 X-40.0177 Y6.4113 
G01 X-40.0177 Y6.2887 
G01 X-40.0416 Y6.1685 
G01 X-40.0885 Y6.0552 
G01 X-40.1566 Y5.9533 
G01 X-40.2433 Y5.8666 
G01 X-40.3452 Y5.7985 
G01 X-40.3987 Y5.7764 
G01 X-40.3987 Y5.4043 
G01 X-39.8973 Y5.4043 
G01 X-39.8553 Y5.3869 
G01 X-39.8231 Y5.3547 
G01 X-39.8057 Y5.3127 
G00 Z2.5400 
G00 X-38.0657 Y46.3127 
G01 Z-0.1778 F254.00 
G01 X-38.0657 Y44.7673 F508.00 
G01 X-38.0831 Y44.7253 
G01 X-38.1153 Y44.6931 
G01 X-38.1573 Y44.6757 
G01 X-38.4937 Y44.6757 
G01 X-38.4937 Y44.3886 
G01 X-38.4402 Y44.3665 
G01 X-38.3383 Y44.2984 
G01 X-38.2516 Y44.2117 
G01 X-38.1835 Y44.1098 
G01 X-38.1366 Y43.9965 
G01 X-38.1127 Y43.8763 
G01 X-38.1127 Y43.7537 
G01 X-38.1366 Y43.6335 
G01 X-38.1835 Y43.5202 
G01 X-38.2516 Y43.4183 
G01 X-38.3383 Y43.3316 
G01 X-38.4402 Y43.2635 
G01 X-38.5535 Y43.2166 
G01 X-38.6737 Y43.1927 
G01 X-38.7963 Y43.1927 
G01 X-38.9165 Y43.2166 
G01 X-39.0298 Y43.2635 
G01 X-39.1317 Y43.3316 
G01 X-39.2184 Y43.4183 
G01 X-39.2865 Y43.5202 
G01 X-39.3334 Y43.6335 
G01 X-39.3573 Y43.7537 
G01 X-39.3573 Y43.8763 
G01 X-39.3334 Y43.9965 
G01 X-39.2865 Y44.1098 
G01 X-39.2184 Y44.2117 
G01 X-39.1317 Y44.2984 
G01 X-39.0298 Y44.3665 
G01 X-38.9763 Y44.3886 
G01 X-38.9763 Y44.6757 
G01 X-39.5028 Y44.6757 
G01 X-39.5448 Y44.6931 
G01 X-39.5769 Y44.7253 
G01 X-39.5943 Y44.7673 
G01 X-39.5943 Y46.3127 
G01 X-39.5769 Y46.3547 
G01 X-39.5448 Y46.3869 
G01 X-39.5028 Y46.4043 
G01 X-38.1573 Y46.4043 
G01 X-38.1153 Y46.3869 
G01 X-38.0831 Y46.3547 
G01 X-38.0657 Y46.3127 
G00 Z2.5400 
G00 X-39.9657 Y46.3127 
G01 Z-0.1778 F254.00 
G01 X-39.9657 Y44.7673 F508.00 
G01 X-39.9702 Y44.7565 
G01 X-39.8683 Y44.6546 
G01 X-39.8004 Y44.5867 
G01 X-39.7637 Y44.4980 
G01 X-39.7637 Y44.3886 
G01 X-39.7102 Y44.3665 
G01 X-39.6083 Y44.2984 
G01 X-39.5216 Y44.2117 
G01 X-39.4535 Y44.1098 
G01 X-39.4066 Y43.9965 
G01 X-39.3827 Y43.8763 
G01 X-39.3827 Y43.7537 
G01 X-39.4066 Y43.6335 
G01 X-39.4535 Y43.5202 
G01 X-39.5216 Y43.4183 
G01 X-39.6083 Y43.3316 
G01 X-39.7102 Y43.2635 
G01 X-39.8235 Y43.2166 
G01 X-39.9437 Y43.1927 
G01 X-40.0663 Y43.1927 
G01 X-40.1865 Y43.2166 
G01 X-40.2998 Y43.2635 
G01 X-40.4017 Y43.3316 
G01 X-40.4884 Y43.4183 
G01 X-40.5565 Y43.5202 
G01 X-40.6034 Y43.6335 
G01 X-40.6273 Y43.7537 
G01 X-40.6273 Y43.8763 
G01 X-40.6034 Y43.9965 
G01 X-40.5565 Y44.1098 
G01 X-40.4884 Y44.2117 
G01 X-40.4017 Y44.2984 
G01 X-40.2998 Y44.3665 
G01 X-40.2736 Y44.3773 
G01 X-40.5719 Y44.6757 
G01 X-41.4028 Y44.6757 
G01 X-41.4448 Y44.6931 
G01 X-41.4769 Y44.7253 
G01 X-41.4943 Y44.7673 
G01 X-41.4943 Y46.3127 
G01 X-41.4769 Y46.3547 
G01 X-41.4448 Y46.3869 
G01 X-41.4028 Y46.4043 
G01 X-40.0573 Y46.4043 
G01 X-40.0153 Y46.3869 
G01 X-39.9831 Y46.3547 
G01 X-39.9657 Y46.3127 
G00 Z2.5400 
G00 X-44.6457 Y46.3127 
G01 Z-0.1778 F254.00 
G01 X-44.6457 Y44.9870 F508.00 
G01 X-44.3133 Y44.6546 
G01 X-44.2454 Y44.5867 
G01 X-44.2087 Y44.4980 
G01 X-44.2087 Y44.3886 
G01 X-44.1552 Y44.3665 
G01 X-44.0533 Y44.2984 
G01 X-43.9666 Y44.2117 
G01 X-43.8985 Y44.1098 
G01 X-43.8516 Y43.9965 
G01 X-43.8277 Y43.8763 
G01 X-43.8277 Y43.7537 
G01 X-43.8516 Y43.6335 
G01 X-43.8985 Y43.5202 
G01 X-43.9666 Y43.4183 
G01 X-44.0533 Y43.3316 
G01 X-44.1552 Y43.2635 
G01 X-44.2685 Y43.2166 
G01 X-44.3887 Y43.1927 
G01 X-44.5113 Y43.1927 
G01 X-44.6315 Y43.2166 
G01 X-44.7448 Y43.2635 
G01 X-44.8467 Y43.3316 
G01 X-44.9334 Y43.4183 
G01 X-45.0015 Y43.5202 
G01 X-45.0484 Y43.6335 
G01 X-45.0723 Y43.7537 
G01 X-45.0723 Y43.8763 
G01 X-45.0484 Y43.9965 
G01 X-45.0015 Y44.1098 
G01 X-44.9334 Y44.2117 
G01 X-44.8467 Y44.2984 
G01 X-44.7448 Y44.3665 
G01 X-44.7186 Y44.3773 
G01 X-45.0169 Y44.6757 
G01 X-46.0828 Y44.6757 
G01 X-46.1248 Y44.6931 
G01 X-46.1569 Y44.7253 
G01 X-46.1743 Y44.7673 
G01 X-46.1743 Y46.3127 
G01 X-46.1569 Y46.3547 
G01 X-46.1248 Y46.3869 
G01 X-46.0828 Y46.4043 
G01 X-44.7373 Y46.4043 
G01 X-44.6953 Y46.3869 
G01 X-44.6631 Y46.3547 
G01 X-44.6457 Y46.3127 
G00 Z2.5400 
G00 X-44.3587 Y3.7871 
G01 Z-0.1778 F254.00 
G01 X-44.2413 Y3.9045 F508.00 
G01 X-44.2413 Y5.3380 
G01 X-44.2046 Y5.4267 
G01 X-44.1367 Y5.4945 
G01 X-44.0480 Y5.5313 
G01 X-43.5483 Y5.5313 
G01 X-43.5483 Y6.0959 
G01 X-43.5889 Y6.0553 
G01 X-44.3587 Y5.2854 
G01 X-44.3587 Y3.7871 
G00 Z2.5400 
G00 X-44.6026 Y3.5433 
G01 Z-0.1778 F254.00 
G01 X-44.5972 Y3.5487 F508.00 
G01 X-45.9480 Y3.5487 
G01 X-45.9867 Y3.5647 
G01 X-45.9867 Y3.5433 
G01 X-44.6026 Y3.5433 
G00 Z2.5400 
G00 X-41.7574 Y41.6433 
G01 Z-0.1778 F254.00 
G01 X-37.8333 Y41.6433 F508.00 
G01 X-37.8333 Y46.2024 
G01 X-37.9387 Y46.3079 
G01 X-37.9387 Y44.7420 
G01 X-37.9755 Y44.6533 
G01 X-38.0434 Y44.5854 
G01 X-38.1320 Y44.5487 
G01 X-38.3667 Y44.5487 
G01 X-38.3667 Y44.4701 
G01 X-38.2573 Y44.3970 
G01 X-38.1530 Y44.2927 
G01 X-38.0710 Y44.1699 
G01 X-38.0145 Y44.0336 
G01 X-37.9857 Y43.8888 
G01 X-37.9857 Y43.7412 
G01 X-38.0145 Y43.5964 
G01 X-38.0710 Y43.4601 
G01 X-38.1530 Y43.3373 
G01 X-38.2573 Y43.2330 
G01 X-38.3801 Y43.1510 
G01 X-38.5164 Y43.0945 
G01 X-38.6612 Y43.0657 
G01 X-38.8088 Y43.0657 
G01 X-38.9536 Y43.0945 
G01 X-39.0899 Y43.1510 
G01 X-39.2127 Y43.2330 
G01 X-39.3170 Y43.3373 
G01 X-39.3700 Y43.4166 
G01 X-39.4230 Y43.3373 
G01 X-39.5273 Y43.2330 
G01 X-39.6501 Y43.1510 
G01 X-39.7864 Y43.0945 
G01 X-39.9312 Y43.0657 
G01 X-40.0788 Y43.0657 
G01 X-40.2236 Y43.0945 
G01 X-40.3599 Y43.1510 
G01 X-40.4826 Y43.2330 
G01 X-40.5870 Y43.3373 
G01 X-40.6690 Y43.4601 
G01 X-40.7255 Y43.5964 
G01 X-40.7543 Y43.7412 
G01 X-40.7543 Y43.8888 
G01 X-40.7255 Y44.0336 
G01 X-40.6690 Y44.1699 
G01 X-40.5870 Y44.2927 
G01 X-40.4826 Y44.3970 
G01 X-40.4768 Y44.4009 
G01 X-40.6245 Y44.5487 
G01 X-41.4280 Y44.5487 
G01 X-41.5167 Y44.5854 
G01 X-41.5417 Y44.6104 
G01 X-41.5417 Y43.2001 
G01 X-41.4323 Y43.1270 
G01 X-41.3280 Y43.0226 
G01 X-41.2460 Y42.8999 
G01 X-41.1895 Y42.7636 
G01 X-41.1607 Y42.6188 
G01 X-41.1607 Y42.4712 
G01 X-41.1895 Y42.3264 
G01 X-41.2460 Y42.1901 
G01 X-41.3280 Y42.0673 
G01 X-41.4323 Y41.9630 
G01 X-41.5551 Y41.8810 
G01 X-41.6914 Y41.8245 
G01 X-41.8362 Y41.7957 
G01 X-41.9098 Y41.7957 
G01 X-41.7574 Y41.6433 
G00 Z2.5400 
G00 X-43.4467 Y7.8741 
G01 Z-0.1778 F254.00 
G01 X-43.4341 Y7.8867 F508.00 
G01 X-43.4467 Y7.8867 
G01 X-43.4467 Y7.8741 
G00 Z2.5400 
G00 X-40.3859 Y7.8867 
G01 Z-0.1778 F254.00 
G01 X-40.3453 Y7.8461 F508.00 
G01 X-39.0753 Y6.5761 
G01 X-39.0268 Y6.4922 
G01 X-39.0017 Y6.3985 
G01 X-39.0017 Y5.8676 
G01 X-38.6654 Y5.5313 
G01 X-37.9720 Y5.5313 
G01 X-37.8834 Y5.4945 
G01 X-37.8333 Y5.4445 
G01 X-37.8333 Y7.5999 
G01 X-37.9427 Y7.6730 
G01 X-38.0470 Y7.7773 
G01 X-38.1201 Y7.8867 
G01 X-38.1485 Y7.8867 
G01 X-40.3859 Y7.8867 
G00 Z2.5400 
G00 X-14.4430 Y3.1213 
G01 Z-0.1778 F254.00 
G01 X-14.3383 Y3.1213 F508.00 
G01 X-14.3383 Y26.9367 
G01 X-19.6649 Y26.9367 
G01 X-19.7380 Y26.8273 
G01 X-19.8423 Y26.7230 
G01 X-19.9651 Y26.6410 
G01 X-20.1014 Y26.5845 
G01 X-20.2462 Y26.5557 
G01 X-20.3938 Y26.5557 
G01 X-20.5386 Y26.5845 
G01 X-20.6749 Y26.6410 
G01 X-20.7977 Y26.7230 
G01 X-20.9020 Y26.8273 
G01 X-20.9840 Y26.9501 
G01 X-21.0405 Y27.0864 
G01 X-21.0693 Y27.2312 
G01 X-21.0693 Y27.3788 
G01 X-21.0405 Y27.5236 
G01 X-20.9840 Y27.6599 
G01 X-20.9020 Y27.7827 
G01 X-20.7977 Y27.8870 
G01 X-20.6749 Y27.9690 
G01 X-20.5386 Y28.0255 
G01 X-20.3938 Y28.0543 
G01 X-20.2462 Y28.0543 
G01 X-20.1014 Y28.0255 
G01 X-19.9651 Y27.9690 
G01 X-19.8423 Y27.8870 
G01 X-19.7380 Y27.7827 
G01 X-19.6649 Y27.6733 
G01 X-14.3383 Y27.6733 
G01 X-14.3383 Y46.9987 
G01 X-14.3530 Y46.9987 
G01 X-14.4417 Y47.0354 
G01 X-14.5096 Y47.1033 
G01 X-14.5463 Y47.1920 
G01 X-14.5463 Y49.8280 
G01 X-14.5096 Y49.9167 
G01 X-14.4417 Y49.9846 
G01 X-14.3530 Y50.0213 
G01 X-12.9870 Y50.0213 
G01 X-12.8983 Y49.9846 
G01 X-12.8304 Y49.9167 
G01 X-12.7937 Y49.8280 
G01 X-12.7937 Y47.1920 
G01 X-12.8304 Y47.1033 
G01 X-12.8983 Y47.0354 
G01 X-12.9870 Y46.9987 
G01 X-13.6017 Y46.9987 
G01 X-13.6017 Y3.1213 
G01 X-13.0770 Y3.1213 
G01 X-12.9883 Y3.0845 
G01 X-12.9205 Y3.0167 
G01 X-12.8837 Y2.9280 
G01 X-12.8837 Y0.2920 
G01 X-12.9205 Y0.2033 
G01 X-12.9883 Y0.1354 
G01 X-13.0770 Y0.0987 
G01 X-14.4430 Y0.0987 
G01 X-14.5317 Y0.1354 
G01 X-14.5996 Y0.2033 
G01 X-14.6363 Y0.2920 
G01 X-14.6363 Y2.9280 
G01 X-14.5996 Y3.0167 
G01 X-14.5317 Y3.0845 
G01 X-14.4430 Y3.1213 
G00 Z2.5400 
G00 X-36.9531 Y3.0513 
G01 Z-0.1778 F254.00 
G01 X-36.5633 Y3.0513 F508.00 
G01 X-36.5633 Y46.9987 
G01 X-36.9530 Y46.9987 
G01 X-37.0417 Y47.0354 
G01 X-37.1096 Y47.1033 
G01 X-37.1463 Y47.1920 
G01 X-37.1463 Y49.8280 
G01 X-37.1096 Y49.9167 
G01 X-37.0417 Y49.9846 
G01 X-36.9530 Y50.0213 
G01 X-35.5870 Y50.0213 
G01 X-35.4983 Y49.9846 
G01 X-35.4305 Y49.9167 
G01 X-35.3937 Y49.8280 
G01 X-35.3937 Y47.1920 
G01 X-35.4305 Y47.1033 
G01 X-35.4983 Y47.0354 
G01 X-35.5870 Y46.9987 
G01 X-35.8267 Y46.9987 
G01 X-35.8267 Y6.4156 
G01 X-35.7786 Y6.4355 
G01 X-35.6338 Y6.4643 
G01 X-35.4862 Y6.4643 
G01 X-35.3414 Y6.4355 
G01 X-35.2051 Y6.3790 
G01 X-35.0823 Y6.2970 
G01 X-34.9780 Y6.1927 
G01 X-34.8960 Y6.0699 
G01 X-34.8395 Y5.9336 
G01 X-34.8107 Y5.7888 
G01 X-34.8107 Y5.6412 
G01 X-34.8395 Y5.4964 
G01 X-34.8960 Y5.3601 
G01 X-34.9780 Y5.2373 
G01 X-35.0823 Y5.1330 
G01 X-35.1917 Y5.0599 
G01 X-35.1917 Y2.4915 
G01 X-35.2168 Y2.3978 
G01 X-35.2653 Y2.3139 
G01 X-35.3339 Y2.2453 
G01 X-35.3938 Y2.1854 
G01 X-35.3938 Y0.2220 
G01 X-35.4305 Y0.1333 
G01 X-35.4984 Y0.0654 
G01 X-35.5871 Y0.0287 
G01 X-36.9531 Y0.0287 
G01 X-37.0417 Y0.0654 
G01 X-37.1096 Y0.1333 
G01 X-37.1464 Y0.2220 
G01 X-37.1464 Y2.8580 
G01 X-37.1096 Y2.9467 
G01 X-37.0417 Y3.0146 
G01 X-36.9531 Y3.0513 
G00 Z2.5400 
G00 X-43.4931 Y3.0513 
G01 Z-0.1778 F254.00 
G01 X-42.2783 Y3.0513 F508.00 
G01 X-42.2783 Y5.6949 
G01 X-42.3877 Y5.7680 
G01 X-42.4920 Y5.8723 
G01 X-42.5740 Y5.9951 
G01 X-42.6305 Y6.1314 
G01 X-42.6593 Y6.2762 
G01 X-42.6593 Y6.4238 
G01 X-42.6305 Y6.5686 
G01 X-42.5740 Y6.7049 
G01 X-42.4920 Y6.8277 
G01 X-42.3877 Y6.9320 
G01 X-42.2649 Y7.0140 
G01 X-42.1286 Y7.0705 
G01 X-41.9838 Y7.0993 
G01 X-41.8362 Y7.0993 
G01 X-41.6914 Y7.0705 
G01 X-41.5551 Y7.0140 
G01 X-41.4323 Y6.9320 
G01 X-41.3280 Y6.8277 
G01 X-41.2750 Y6.7484 
G01 X-41.2220 Y6.8277 
G01 X-41.1177 Y6.9320 
G01 X-40.9949 Y7.0140 
G01 X-40.8586 Y7.0705 
G01 X-40.7138 Y7.0993 
G01 X-40.6401 Y7.0993 
G01 X-40.7926 Y7.2517 
G01 X-42.8117 Y7.2517 
G01 X-42.8117 Y5.5313 
G01 X-42.6520 Y5.5313 
G01 X-42.5634 Y5.4945 
G01 X-42.4955 Y5.4267 
G01 X-42.4587 Y5.3380 
G01 X-42.4587 Y3.7420 
G01 X-42.4955 Y3.6533 
G01 X-42.5634 Y3.5854 
G01 X-42.6520 Y3.5487 
G01 X-43.5555 Y3.5487 
G01 X-44.1553 Y2.9489 
G01 X-44.2239 Y2.8803 
G01 X-44.3078 Y2.8318 
G01 X-44.4015 Y2.8067 
G01 X-45.2038 Y2.8067 
G01 X-45.2038 Y0.2220 
G01 X-45.2405 Y0.1333 
G01 X-45.3084 Y0.0654 
G01 X-45.3971 Y0.0287 
G01 X-46.7631 Y0.0287 
G01 X-46.8517 Y0.0654 
G01 X-46.9196 Y0.1333 
G01 X-46.9564 Y0.2220 
G01 X-46.9564 Y1.9855 
G01 X-47.2161 Y2.2453 
G01 X-47.2847 Y2.3139 
G01 X-47.3332 Y2.3978 
G01 X-47.3583 Y2.4915 
G01 X-47.3583 Y47.6735 
G01 X-47.3332 Y47.7672 
G01 X-47.2847 Y47.8511 
G01 X-46.9563 Y48.1795 
G01 X-46.9563 Y49.8280 
G01 X-46.9196 Y49.9167 
G01 X-46.8517 Y49.9846 
G01 X-46.7630 Y50.0213 
G01 X-45.3970 Y50.0213 
G01 X-45.3083 Y49.9846 
G01 X-45.2405 Y49.9167 
G01 X-45.2037 Y49.8280 
G01 X-45.2037 Y47.1920 
G01 X-45.2405 Y47.1033 
G01 X-45.3083 Y47.0354 
G01 X-45.3970 Y46.9987 
G01 X-46.6217 Y46.9987 
G01 X-46.6217 Y28.3083 
G01 X-40.0251 Y28.3083 
G01 X-39.9520 Y28.4177 
G01 X-39.8477 Y28.5220 
G01 X-39.7249 Y28.6040 
G01 X-39.5886 Y28.6605 
G01 X-39.4438 Y28.6893 
G01 X-39.2962 Y28.6893 
G01 X-39.1514 Y28.6605 
G01 X-39.0151 Y28.6040 
G01 X-38.8923 Y28.5220 
G01 X-38.7880 Y28.4177 
G01 X-38.7060 Y28.2949 
G01 X-38.6495 Y28.1586 
G01 X-38.6207 Y28.0138 
G01 X-38.6207 Y27.8662 
G01 X-38.6495 Y27.7214 
G01 X-38.7060 Y27.5851 
G01 X-38.7880 Y27.4623 
G01 X-38.8923 Y27.3580 
G01 X-39.0151 Y27.2760 
G01 X-39.1514 Y27.2195 
G01 X-39.2962 Y27.1907 
G01 X-39.4438 Y27.1907 
G01 X-39.5886 Y27.2195 
G01 X-39.7249 Y27.2760 
G01 X-39.8477 Y27.3580 
G01 X-39.9520 Y27.4623 
G01 X-40.0251 Y27.5717 
G01 X-46.6217 Y27.5717 
G01 X-46.6217 Y14.8591 
G01 X-40.0936 Y21.3872 
G01 X-40.1193 Y21.5162 
G01 X-40.1193 Y21.6638 
G01 X-40.0905 Y21.8086 
G01 X-40.0340 Y21.9449 
G01 X-39.9520 Y22.0677 
G01 X-39.8477 Y22.1720 
G01 X-39.7249 Y22.2540 
G01 X-39.5886 Y22.3105 
G01 X-39.4438 Y22.3393 
G01 X-39.2962 Y22.3393 
G01 X-39.1514 Y22.3105 
G01 X-39.0151 Y22.2540 
G01 X-38.8923 Y22.1720 
G01 X-38.7880 Y22.0677 
G01 X-38.7060 Y21.9449 
G01 X-38.6495 Y21.8086 
G01 X-38.6207 Y21.6638 
G01 X-38.6207 Y21.5162 
G01 X-38.6495 Y21.3714 
G01 X-38.7060 Y21.2351 
G01 X-38.7880 Y21.1123 
G01 X-38.8923 Y21.0080 
G01 X-39.0151 Y20.9260 
G01 X-39.1514 Y20.8695 
G01 X-39.2962 Y20.8407 
G01 X-39.4438 Y20.8407 
G01 X-39.5728 Y20.8664 
G01 X-45.9867 Y14.4524 
G01 X-45.9867 Y5.5153 
G01 X-45.9480 Y5.5313 
G01 X-45.1546 Y5.5313 
G01 X-44.1833 Y6.5026 
G01 X-44.1833 Y8.3035 
G01 X-44.1582 Y8.3972 
G01 X-44.1097 Y8.4811 
G01 X-44.0411 Y8.5497 
G01 X-43.9572 Y8.5982 
G01 X-43.8635 Y8.6233 
G01 X-38.4683 Y8.6233 
G01 X-38.4683 Y40.9067 
G01 X-40.2717 Y40.9067 
G01 X-40.2717 Y40.6601 
G01 X-40.1623 Y40.5870 
G01 X-40.0580 Y40.4826 
G01 X-39.9760 Y40.3599 
G01 X-39.9195 Y40.2236 
G01 X-39.8907 Y40.0788 
G01 X-39.8907 Y39.9312 
G01 X-39.9195 Y39.7864 
G01 X-39.9760 Y39.6501 
G01 X-40.0580 Y39.5273 
G01 X-40.1623 Y39.4230 
G01 X-40.2851 Y39.3410 
G01 X-40.4214 Y39.2845 
G01 X-40.5662 Y39.2557 
G01 X-40.7138 Y39.2557 
G01 X-40.8586 Y39.2845 
G01 X-40.9949 Y39.3410 
G01 X-41.1177 Y39.4230 
G01 X-41.2220 Y39.5273 
G01 X-41.3040 Y39.6501 
G01 X-41.3605 Y39.7864 
G01 X-41.3893 Y39.9312 
G01 X-41.3893 Y40.0788 
G01 X-41.3605 Y40.2236 
G01 X-41.3040 Y40.3599 
G01 X-41.2220 Y40.4826 
G01 X-41.1177 Y40.5870 
G01 X-41.0083 Y40.6601 
G01 X-41.0083 Y40.9067 
G01 X-41.9585 Y40.9067 
G01 X-42.0522 Y40.9318 
G01 X-42.1361 Y40.9803 
G01 X-42.2047 Y41.0489 
G01 X-43.4747 Y42.3189 
G01 X-43.5232 Y42.4028 
G01 X-43.5483 Y42.4965 
G01 X-43.5483 Y44.5487 
G01 X-44.0952 Y44.5487 
G01 X-44.0817 Y44.4985 
G01 X-44.0817 Y44.4701 
G01 X-43.9723 Y44.3970 
G01 X-43.8680 Y44.2927 
G01 X-43.7860 Y44.1699 
G01 X-43.7295 Y44.0336 
G01 X-43.7007 Y43.8888 
G01 X-43.7007 Y43.7412 
G01 X-43.7295 Y43.5964 
G01 X-43.7860 Y43.4601 
G01 X-43.8680 Y43.3373 
G01 X-43.9723 Y43.2330 
G01 X-44.0951 Y43.1510 
G01 X-44.2314 Y43.0945 
G01 X-44.3762 Y43.0657 
G01 X-44.5238 Y43.0657 
G01 X-44.6686 Y43.0945 
G01 X-44.8049 Y43.1510 
G01 X-44.9276 Y43.2330 
G01 X-45.0320 Y43.3373 
G01 X-45.1140 Y43.4601 
G01 X-45.1705 Y43.5964 
G01 X-45.1993 Y43.7412 
G01 X-45.1993 Y43.8888 
G01 X-45.1705 Y44.0336 
G01 X-45.1140 Y44.1699 
G01 X-45.0320 Y44.2927 
G01 X-44.9276 Y44.3970 
G01 X-44.9218 Y44.4009 
G01 X-45.0695 Y44.5487 
G01 X-46.1080 Y44.5487 
G01 X-46.1967 Y44.5854 
G01 X-46.2646 Y44.6533 
G01 X-46.3013 Y44.7420 
G01 X-46.3013 Y46.3380 
G01 X-46.2646 Y46.4267 
G01 X-46.1967 Y46.4946 
G01 X-46.1080 Y46.5313 
G01 X-44.7120 Y46.5313 
G01 X-44.6234 Y46.4946 
G01 X-44.5555 Y46.4267 
G01 X-44.5187 Y46.3380 
G01 X-44.5187 Y45.0396 
G01 X-44.4013 Y44.9222 
G01 X-44.4013 Y46.3380 
G01 X-44.3646 Y46.4267 
G01 X-44.2967 Y46.4946 
G01 X-44.2080 Y46.5313 
G01 X-42.8120 Y46.5313 
G01 X-42.7234 Y46.4946 
G01 X-42.6555 Y46.4267 
G01 X-42.6187 Y46.3380 
G01 X-42.6187 Y44.7420 
G01 X-42.6555 Y44.6533 
G01 X-42.7234 Y44.5854 
G01 X-42.8117 Y44.5488 
G01 X-42.8117 Y42.6976 
G01 X-42.6593 Y42.5451 
G01 X-42.6593 Y42.6188 
G01 X-42.6305 Y42.7636 
G01 X-42.5740 Y42.8999 
G01 X-42.4920 Y43.0226 
G01 X-42.3877 Y43.1270 
G01 X-42.2783 Y43.2001 
G01 X-42.2783 Y46.9987 
G01 X-43.4930 Y46.9987 
G01 X-43.5817 Y47.0354 
G01 X-43.6496 Y47.1033 
G01 X-43.6863 Y47.1920 
G01 X-43.6863 Y49.8280 
G01 X-43.6496 Y49.9167 
G01 X-43.5817 Y49.9846 
G01 X-43.4930 Y50.0213 
G01 X-42.1270 Y50.0213 
G01 X-42.0383 Y49.9846 
G01 X-41.9705 Y49.9167 
G01 X-41.9337 Y49.8280 
G01 X-41.9337 Y48.1696 
G01 X-41.6839 Y47.9197 
G01 X-41.6153 Y47.8511 
G01 X-41.5668 Y47.7672 
G01 X-41.5417 Y47.6735 
G01 X-41.5417 Y46.4696 
G01 X-41.5167 Y46.4946 
G01 X-41.4280 Y46.5313 
G01 X-40.0320 Y46.5313 
G01 X-39.9434 Y46.4946 
G01 X-39.8755 Y46.4267 
G01 X-39.8387 Y46.3380 
G01 X-39.8387 Y44.8046 
G01 X-39.7789 Y44.7447 
G01 X-39.7103 Y44.6761 
G01 X-39.6618 Y44.5922 
G01 X-39.6367 Y44.4985 
G01 X-39.6367 Y44.4701 
G01 X-39.5273 Y44.3970 
G01 X-39.4230 Y44.2927 
G01 X-39.3700 Y44.2134 
G01 X-39.3170 Y44.2927 
G01 X-39.2127 Y44.3970 
G01 X-39.1033 Y44.4701 
G01 X-39.1033 Y44.5487 
G01 X-39.5280 Y44.5487 
G01 X-39.6167 Y44.5854 
G01 X-39.6846 Y44.6533 
G01 X-39.7213 Y44.7420 
G01 X-39.7213 Y46.3380 
G01 X-39.6846 Y46.4267 
G01 X-39.6167 Y46.4946 
G01 X-39.5280 Y46.5313 
G01 X-38.1621 Y46.5313 
G01 X-38.7173 Y47.0865 
G01 X-38.7683 Y47.0354 
G01 X-38.8570 Y46.9987 
G01 X-40.2230 Y46.9987 
G01 X-40.3117 Y47.0354 
G01 X-40.3796 Y47.1033 
G01 X-40.4163 Y47.1920 
G01 X-40.4163 Y49.8280 
G01 X-40.3796 Y49.9167 
G01 X-40.3117 Y49.9846 
G01 X-40.2230 Y50.0213 
G01 X-38.8570 Y50.0213 
G01 X-38.7683 Y49.9846 
G01 X-38.7005 Y49.9167 
G01 X-38.6637 Y49.8280 
G01 X-38.6637 Y48.0746 
G01 X-37.1703 Y46.5811 
G01 X-37.1218 Y46.4972 
G01 X-37.0967 Y46.4035 
G01 X-37.0967 Y41.2265 
G01 X-37.1218 Y41.1328 
G01 X-37.1703 Y41.0489 
G01 X-37.2389 Y40.9803 
G01 X-37.3228 Y40.9318 
G01 X-37.4165 Y40.9067 
G01 X-37.7317 Y40.9067 
G01 X-37.7317 Y8.9556 
G01 X-37.6836 Y8.9755 
G01 X-37.5388 Y9.0043 
G01 X-37.3912 Y9.0043 
G01 X-37.2464 Y8.9755 
G01 X-37.1101 Y8.9190 
G01 X-36.9873 Y8.8370 
G01 X-36.8830 Y8.7326 
G01 X-36.8010 Y8.6099 
G01 X-36.7445 Y8.4736 
G01 X-36.7157 Y8.3288 
G01 X-36.7157 Y8.1812 
G01 X-36.7445 Y8.0364 
G01 X-36.8010 Y7.9001 
G01 X-36.8830 Y7.7773 
G01 X-36.9873 Y7.6730 
G01 X-37.0967 Y7.5999 
G01 X-37.0967 Y3.7615 
G01 X-37.1218 Y3.6678 
G01 X-37.1703 Y3.5839 
G01 X-38.6638 Y2.0904 
G01 X-38.6638 Y0.2220 
G01 X-38.7005 Y0.1333 
G01 X-38.7684 Y0.0654 
G01 X-38.8571 Y0.0287 
G01 X-40.2231 Y0.0287 
G01 X-40.3117 Y0.0654 
G01 X-40.3796 Y0.1333 
G01 X-40.4164 Y0.2220 
G01 X-40.4164 Y2.8580 
G01 X-40.3796 Y2.9467 
G01 X-40.3117 Y3.0146 
G01 X-40.2231 Y3.0513 
G01 X-38.8571 Y3.0513 
G01 X-38.7775 Y3.0183 
G01 X-38.2472 Y3.5487 
G01 X-39.3680 Y3.5487 
G01 X-39.4567 Y3.5854 
G01 X-39.5246 Y3.6533 
G01 X-39.5613 Y3.7420 
G01 X-39.5613 Y5.3380 
G01 X-39.5474 Y5.3716 
G01 X-39.5961 Y5.4203 
G01 X-39.6647 Y5.4889 
G01 X-39.7132 Y5.5728 
G01 X-39.7383 Y5.6665 
G01 X-39.7383 Y6.1974 
G01 X-39.8907 Y6.3498 
G01 X-39.8907 Y6.2762 
G01 X-39.9195 Y6.1314 
G01 X-39.9760 Y5.9951 
G01 X-40.0580 Y5.8723 
G01 X-40.1623 Y5.7680 
G01 X-40.2717 Y5.6949 
G01 X-40.2717 Y5.5313 
G01 X-39.8720 Y5.5313 
G01 X-39.7834 Y5.4945 
G01 X-39.7155 Y5.4267 
G01 X-39.6787 Y5.3380 
G01 X-39.6787 Y3.7420 
G01 X-39.7155 Y3.6533 
G01 X-39.7834 Y3.5854 
G01 X-39.8720 Y3.5487 
G01 X-41.2680 Y3.5487 
G01 X-41.3567 Y3.5854 
G01 X-41.4246 Y3.6533 
G01 X-41.4613 Y3.7420 
G01 X-41.4613 Y5.3380 
G01 X-41.4246 Y5.4267 
G01 X-41.3567 Y5.4945 
G01 X-41.2680 Y5.5313 
G01 X-41.0083 Y5.5313 
G01 X-41.0083 Y5.6949 
G01 X-41.1177 Y5.7680 
G01 X-41.2220 Y5.8723 
G01 X-41.2750 Y5.9516 
G01 X-41.3280 Y5.8723 
G01 X-41.4323 Y5.7680 
G01 X-41.5417 Y5.6949 
G01 X-41.5417 Y2.4915 
G01 X-41.5668 Y2.3978 
G01 X-41.6153 Y2.3139 
G01 X-41.6839 Y2.2453 
G01 X-41.9338 Y1.9954 
G01 X-41.9338 Y0.2220 
G01 X-41.9705 Y0.1333 
G01 X-42.0384 Y0.0654 
G01 X-42.1271 Y0.0287 
G01 X-43.4931 Y0.0287 
G01 X-43.5817 Y0.0654 
G01 X-43.6496 Y0.1333 
G01 X-43.6864 Y0.2220 
G01 X-43.6864 Y2.8580 
G01 X-43.6496 Y2.9467 
G01 X-43.5817 Y3.0146 
G01 X-43.4931 Y3.0513 
G00 Z2.5400 
G00 X-5.7187 Y5.5380 
G01 Z-0.1778 F254.00 
G01 X-5.7187 Y3.9420 F508.00 
G01 X-5.7555 Y3.8533 
G01 X-5.8233 Y3.7854 
G01 X-5.9120 Y3.7487 
G01 X-7.3080 Y3.7487 
G01 X-7.3967 Y3.7854 
G01 X-7.4646 Y3.8533 
G01 X-7.5013 Y3.9420 
G01 X-7.5013 Y5.0755 
G01 X-9.1161 Y6.6903 
G01 X-9.1847 Y6.7589 
G01 X-9.2332 Y6.8428 
G01 X-9.2583 Y6.9365 
G01 X-9.2583 Y13.3149 
G01 X-9.3677 Y13.3880 
G01 X-9.4720 Y13.4923 
G01 X-9.5540 Y13.6151 
G01 X-9.6105 Y13.7514 
G01 X-9.6393 Y13.8962 
G01 X-9.6393 Y14.0438 
G01 X-9.6105 Y14.1886 
G01 X-9.5540 Y14.3249 
G01 X-9.4720 Y14.4477 
G01 X-9.3677 Y14.5520 
G01 X-9.2449 Y14.6340 
G01 X-9.1086 Y14.6905 
G01 X-8.9638 Y14.7193 
G01 X-8.8162 Y14.7193 
G01 X-8.6714 Y14.6905 
G01 X-8.5351 Y14.6340 
G01 X-8.4123 Y14.5520 
G01 X-8.3080 Y14.4477 
G01 X-8.2260 Y14.3249 
G01 X-8.1695 Y14.1886 
G01 X-8.1407 Y14.0438 
G01 X-8.1407 Y13.8962 
G01 X-8.1695 Y13.7514 
G01 X-8.2260 Y13.6151 
G01 X-8.3080 Y13.4923 
G01 X-8.4123 Y13.3880 
G01 X-8.5217 Y13.3149 
G01 X-8.5217 Y7.1376 
G01 X-7.1154 Y5.7313 
G01 X-5.9120 Y5.7313 
G01 X-5.8233 Y5.6945 
G01 X-5.7555 Y5.6267 
G01 X-5.7187 Y5.5380 
G00 Z2.5400 
G00 X-8.5987 Y5.5380 
G01 Z-0.1778 F254.00 
G01 X-8.5987 Y4.6746 F508.00 
G01 X-7.3939 Y3.4697 
G01 X-7.3253 Y3.4011 
G01 X-7.2768 Y3.3172 
G01 X-7.2517 Y3.2235 
G01 X-7.2517 Y3.1213 
G01 X-6.5370 Y3.1213 
G01 X-6.4483 Y3.0845 
G01 X-6.3805 Y3.0167 
G01 X-6.3437 Y2.9280 
G01 X-6.3437 Y0.2920 
G01 X-6.3805 Y0.2033 
G01 X-6.4483 Y0.1354 
G01 X-6.5370 Y0.0987 
G01 X-7.9030 Y0.0987 
G01 X-7.9917 Y0.1354 
G01 X-8.0596 Y0.2033 
G01 X-8.0963 Y0.2920 
G01 X-8.0963 Y2.9280 
G01 X-8.0596 Y3.0167 
G01 X-8.0210 Y3.0552 
G01 X-8.7372 Y3.7714 
G01 X-8.7920 Y3.7487 
G01 X-10.1880 Y3.7487 
G01 X-10.2767 Y3.7854 
G01 X-10.3446 Y3.8533 
G01 X-10.3813 Y3.9420 
G01 X-10.3813 Y5.4155 
G01 X-10.3861 Y5.4203 
G01 X-10.4547 Y5.4889 
G01 X-10.5032 Y5.5728 
G01 X-10.5283 Y5.6665 
G01 X-10.5283 Y29.1899 
G01 X-10.6377 Y29.2630 
G01 X-10.7420 Y29.3673 
G01 X-10.8240 Y29.4901 
G01 X-10.8805 Y29.6264 
G01 X-10.9093 Y29.7712 
G01 X-10.9093 Y29.9188 
G01 X-10.8805 Y30.0636 
G01 X-10.8240 Y30.1999 
G01 X-10.7420 Y30.3227 
G01 X-10.6377 Y30.4270 
G01 X-10.5283 Y30.5001 
G01 X-10.5283 Y44.4487 
G01 X-11.7280 Y44.4487 
G01 X-11.8167 Y44.4854 
G01 X-11.8846 Y44.5533 
G01 X-11.9213 Y44.6420 
G01 X-11.9213 Y46.2380 
G01 X-11.8846 Y46.3267 
G01 X-11.8167 Y46.3946 
G01 X-11.7280 Y46.4313 
G01 X-10.6046 Y46.4313 
G01 X-10.4547 Y46.5811 
G01 X-10.3861 Y46.6497 
G01 X-10.0372 Y46.9987 
G01 X-11.0830 Y46.9987 
G01 X-11.1717 Y47.0354 
G01 X-11.2396 Y47.1033 
G01 X-11.2763 Y47.1920 
G01 X-11.2763 Y47.2578 
G01 X-12.3317 Y46.2024 
G01 X-12.3317 Y28.5951 
G01 X-12.2223 Y28.5220 
G01 X-12.1180 Y28.4177 
G01 X-12.0360 Y28.2949 
G01 X-11.9795 Y28.1586 
G01 X-11.9507 Y28.0138 
G01 X-11.9507 Y27.8662 
G01 X-11.9795 Y27.7214 
G01 X-12.0360 Y27.5851 
G01 X-12.1180 Y27.4623 
G01 X-12.2223 Y27.3580 
G01 X-12.3317 Y27.2849 
G01 X-12.3317 Y3.9626 
G01 X-12.2603 Y3.8911 
G01 X-12.2813 Y3.9420 
G01 X-12.2813 Y5.5380 
G01 X-12.2446 Y5.6267 
G01 X-12.1767 Y5.6945 
G01 X-12.0880 Y5.7313 
G01 X-11.7983 Y5.7313 
G01 X-11.7983 Y13.3149 
G01 X-11.9077 Y13.3880 
G01 X-12.0120 Y13.4923 
G01 X-12.0940 Y13.6151 
G01 X-12.1505 Y13.7514 
G01 X-12.1793 Y13.8962 
G01 X-12.1793 Y14.0438 
G01 X-12.1505 Y14.1886 
G01 X-12.0940 Y14.3249 
G01 X-12.0120 Y14.4477 
G01 X-11.9077 Y14.5520 
G01 X-11.7849 Y14.6340 
G01 X-11.6486 Y14.6905 
G01 X-11.5038 Y14.7193 
G01 X-11.3562 Y14.7193 
G01 X-11.2114 Y14.6905 
G01 X-11.0751 Y14.6340 
G01 X-10.9523 Y14.5520 
G01 X-10.8480 Y14.4477 
G01 X-10.7660 Y14.3249 
G01 X-10.7095 Y14.1886 
G01 X-10.6807 Y14.0438 
G01 X-10.6807 Y13.8962 
G01 X-10.7095 Y13.7514 
G01 X-10.7660 Y13.6151 
G01 X-10.8480 Y13.4923 
G01 X-10.9523 Y13.3880 
G01 X-11.0617 Y13.3149 
G01 X-11.0617 Y5.7313 
G01 X-10.6920 Y5.7313 
G01 X-10.6033 Y5.6945 
G01 X-10.5355 Y5.6267 
G01 X-10.4987 Y5.5380 
G01 X-10.4987 Y3.9420 
G01 X-10.5355 Y3.8533 
G01 X-10.6033 Y3.7854 
G01 X-10.6920 Y3.7487 
G01 X-12.0880 Y3.7487 
G01 X-12.1389 Y3.7697 
G01 X-11.3460 Y2.9769 
G01 X-11.3296 Y3.0167 
G01 X-11.2617 Y3.0845 
G01 X-11.1730 Y3.1213 
G01 X-9.8070 Y3.1213 
G01 X-9.7183 Y3.0845 
G01 X-9.6505 Y3.0167 
G01 X-9.6137 Y2.9280 
G01 X-9.6137 Y0.2920 
G01 X-9.6505 Y0.2033 
G01 X-9.7183 Y0.1354 
G01 X-9.8070 Y0.0987 
G01 X-11.1730 Y0.0987 
G01 X-11.2617 Y0.1354 
G01 X-11.3296 Y0.2033 
G01 X-11.3663 Y0.2920 
G01 X-11.3663 Y1.9555 
G01 X-12.9261 Y3.5153 
G01 X-12.9947 Y3.5839 
G01 X-13.0432 Y3.6678 
G01 X-13.0683 Y3.7615 
G01 X-13.0683 Y27.2849 
G01 X-13.1776 Y27.3580 
G01 X-13.2820 Y27.4623 
G01 X-13.3640 Y27.5851 
G01 X-13.4205 Y27.7214 
G01 X-13.4493 Y27.8662 
G01 X-13.4493 Y28.0138 
G01 X-13.4205 Y28.1586 
G01 X-13.3640 Y28.2949 
G01 X-13.2820 Y28.4177 
G01 X-13.1776 Y28.5220 
G01 X-13.0683 Y28.5951 
G01 X-13.0683 Y46.4035 
G01 X-13.0432 Y46.4972 
G01 X-12.9947 Y46.5811 
G01 X-11.2763 Y48.2995 
G01 X-11.2763 Y49.8280 
G01 X-11.2396 Y49.9167 
G01 X-11.1717 Y49.9846 
G01 X-11.0830 Y50.0213 
G01 X-9.7170 Y50.0213 
G01 X-9.6283 Y49.9846 
G01 X-9.5604 Y49.9167 
G01 X-9.5237 Y49.8280 
G01 X-9.5237 Y47.5121 
G01 X-8.5497 Y48.4861 
G01 X-8.4811 Y48.5547 
G01 X-8.3972 Y48.6032 
G01 X-8.3035 Y48.6283 
G01 X-8.0063 Y48.6283 
G01 X-8.0063 Y49.8280 
G01 X-7.9696 Y49.9167 
G01 X-7.9017 Y49.9846 
G01 X-7.8130 Y50.0213 
G01 X-6.4470 Y50.0213 
G01 X-6.3583 Y49.9846 
G01 X-6.2904 Y49.9167 
G01 X-6.2537 Y49.8280 
G01 X-6.2537 Y47.1920 
G01 X-6.2904 Y47.1033 
G01 X-6.3583 Y47.0354 
G01 X-6.4470 Y46.9987 
G01 X-7.8130 Y46.9987 
G01 X-7.9017 Y47.0354 
G01 X-7.9696 Y47.1033 
G01 X-8.0063 Y47.1920 
G01 X-8.0063 Y47.8917 
G01 X-8.1024 Y47.8917 
G01 X-9.5629 Y46.4313 
G01 X-8.4320 Y46.4313 
G01 X-8.3434 Y46.3946 
G01 X-8.2755 Y46.3267 
G01 X-8.2387 Y46.2380 
G01 X-8.2387 Y44.6420 
G01 X-8.2755 Y44.5533 
G01 X-8.3434 Y44.4854 
G01 X-8.4320 Y44.4487 
G01 X-8.5217 Y44.4487 
G01 X-8.5217 Y44.1833 
G01 X-5.8676 Y44.1833 
G01 X-5.5011 Y44.5498 
G01 X-5.5046 Y44.5533 
G01 X-5.5413 Y44.6420 
G01 X-5.5413 Y46.0078 
G01 X-5.6587 Y45.8904 
G01 X-5.6587 Y44.6420 
G01 X-5.6955 Y44.5533 
G01 X-5.7633 Y44.4854 
G01 X-5.8520 Y44.4487 
G01 X-7.2480 Y44.4487 
G01 X-7.3367 Y44.4854 
G01 X-7.4046 Y44.5533 
G01 X-7.4413 Y44.6420 
G01 X-7.4413 Y46.2380 
G01 X-7.4046 Y46.3267 
G01 X-7.3367 Y46.3946 
G01 X-7.2480 Y46.4313 
G01 X-6.1596 Y46.4313 
G01 X-4.8133 Y47.7776 
G01 X-4.8133 Y48.2338 
G01 X-4.8165 Y48.2559 
G01 X-4.8133 Y48.2821 
G01 X-4.8133 Y48.3085 
G01 X-4.8075 Y48.3300 
G01 X-4.8049 Y48.3521 
G01 X-4.7950 Y48.3767 
G01 X-4.7882 Y48.4022 
G01 X-4.7771 Y48.4214 
G01 X-4.7688 Y48.4421 
G01 X-4.7529 Y48.4633 
G01 X-4.7397 Y48.4861 
G01 X-4.7363 Y48.4895 
G01 X-4.7363 Y49.8280 
G01 X-4.6996 Y49.9167 
G01 X-4.6317 Y49.9846 
G01 X-4.5430 Y50.0213 
G01 X-3.1770 Y50.0213 
G01 X-3.0883 Y49.9846 
G01 X-3.0204 Y49.9167 
G01 X-2.9837 Y49.8280 
G01 X-2.9837 Y47.1920 
G01 X-3.0204 Y47.1033 
G01 X-3.0883 Y47.0354 
G01 X-3.1770 Y46.9987 
G01 X-3.2978 Y46.9987 
G01 X-2.8803 Y46.5811 
G01 X-2.8318 Y46.4972 
G01 X-2.8067 Y46.4035 
G01 X-2.8067 Y6.3015 
G01 X-2.8318 Y6.2078 
G01 X-2.8803 Y6.1239 
G01 X-2.9489 Y6.0553 
G01 X-3.8187 Y5.1854 
G01 X-3.8187 Y3.9420 
G01 X-3.8555 Y3.8533 
G01 X-3.9233 Y3.7854 
G01 X-4.0120 Y3.7487 
G01 X-4.0767 Y3.7487 
G01 X-4.0767 Y3.1213 
G01 X-3.2670 Y3.1213 
G01 X-3.1783 Y3.0845 
G01 X-3.1105 Y3.0167 
G01 X-3.0737 Y2.9280 
G01 X-3.0737 Y0.2920 
G01 X-3.1105 Y0.2033 
G01 X-3.1783 Y0.1354 
G01 X-3.2670 Y0.0987 
G01 X-4.6330 Y0.0987 
G01 X-4.7217 Y0.1354 
G01 X-4.7896 Y0.2033 
G01 X-4.8263 Y0.2920 
G01 X-4.8263 Y2.9280 
G01 X-4.8133 Y2.9594 
G01 X-4.8133 Y3.7487 
G01 X-5.4080 Y3.7487 
G01 X-5.4967 Y3.7854 
G01 X-5.5646 Y3.8533 
G01 X-5.6013 Y3.9420 
G01 X-5.6013 Y5.5380 
G01 X-5.5646 Y5.6267 
G01 X-5.4967 Y5.6945 
G01 X-5.4080 Y5.7313 
G01 X-4.3146 Y5.7313 
G01 X-3.5433 Y6.5026 
G01 X-3.5433 Y27.5717 
G01 X-5.0599 Y27.5717 
G01 X-5.1330 Y27.4623 
G01 X-5.2373 Y27.3580 
G01 X-5.3601 Y27.2760 
G01 X-5.4964 Y27.2195 
G01 X-5.6412 Y27.1907 
G01 X-5.7888 Y27.1907 
G01 X-5.9336 Y27.2195 
G01 X-6.0699 Y27.2760 
G01 X-6.1927 Y27.3580 
G01 X-6.2970 Y27.4623 
G01 X-6.3790 Y27.5851 
G01 X-6.4355 Y27.7214 
G01 X-6.4643 Y27.8662 
G01 X-6.4643 Y28.0138 
G01 X-6.4355 Y28.1586 
G01 X-6.3790 Y28.2949 
G01 X-6.2970 Y28.4177 
G01 X-6.1927 Y28.5220 
G01 X-6.0699 Y28.6040 
G01 X-5.9336 Y28.6605 
G01 X-5.7888 Y28.6893 
G01 X-5.6412 Y28.6893 
G01 X-5.4964 Y28.6605 
G01 X-5.3601 Y28.6040 
G01 X-5.2373 Y28.5220 
G01 X-5.1330 Y28.4177 
G01 X-5.0599 Y28.3083 
G01 X-3.5433 Y28.3083 
G01 X-3.5433 Y46.2024 
G01 X-4.3396 Y46.9987 
G01 X-4.5430 Y46.9987 
G01 X-4.5483 Y47.0009 
G01 X-5.1179 Y46.4313 
G01 X-3.9520 Y46.4313 
G01 X-3.8634 Y46.3946 
G01 X-3.7955 Y46.3267 
G01 X-3.7587 Y46.2380 
G01 X-3.7587 Y44.6420 
G01 X-3.7955 Y44.5533 
G01 X-3.8634 Y44.4854 
G01 X-3.9520 Y44.4487 
G01 X-4.7117 Y44.4487 
G01 X-4.7117 Y44.4015 
G01 X-4.7368 Y44.3078 
G01 X-4.7853 Y44.2239 
G01 X-5.4203 Y43.5889 
G01 X-5.4889 Y43.5203 
G01 X-5.5728 Y43.4718 
G01 X-5.6665 Y43.4467 
G01 X-8.5217 Y43.4467 
G01 X-8.5217 Y29.2301 
G01 X-8.4123 Y29.1570 
G01 X-8.3080 Y29.0526 
G01 X-8.2260 Y28.9299 
G01 X-8.1695 Y28.7936 
G01 X-8.1407 Y28.6488 
G01 X-8.1407 Y28.5012 
G01 X-8.1695 Y28.3564 
G01 X-8.2260 Y28.2201 
G01 X-8.3080 Y28.0973 
G01 X-8.4123 Y27.9930 
G01 X-8.5351 Y27.9110 
G01 X-8.6714 Y27.8545 
G01 X-8.8162 Y27.8257 
G01 X-8.9638 Y27.8257 
G01 X-9.1086 Y27.8545 
G01 X-9.2449 Y27.9110 
G01 X-9.3677 Y27.9930 
G01 X-9.4720 Y28.0973 
G01 X-9.5540 Y28.2201 
G01 X-9.6105 Y28.3564 
G01 X-9.6393 Y28.5012 
G01 X-9.6393 Y28.6488 
G01 X-9.6105 Y28.7936 
G01 X-9.5540 Y28.9299 
G01 X-9.4720 Y29.0526 
G01 X-9.3677 Y29.1570 
G01 X-9.2583 Y29.2301 
G01 X-9.2583 Y44.4487 
G01 X-9.7917 Y44.4487 
G01 X-9.7917 Y30.5001 
G01 X-9.6823 Y30.4270 
G01 X-9.5780 Y30.3227 
G01 X-9.4960 Y30.1999 
G01 X-9.4395 Y30.0636 
G01 X-9.4107 Y29.9188 
G01 X-9.4107 Y29.7712 
G01 X-9.4395 Y29.6264 
G01 X-9.4960 Y29.4901 
G01 X-9.5780 Y29.3673 
G01 X-9.6823 Y29.2630 
G01 X-9.7917 Y29.1899 
G01 X-9.7917 Y5.8676 
G01 X-9.6554 Y5.7313 
G01 X-8.7920 Y5.7313 
G01 X-8.7033 Y5.6945 
G01 X-8.6355 Y5.6267 
G01 X-8.5987 Y5.5380 
G00 Z2.5400 
G00 X-40.1447 Y40.7797 
G01 Z-0.1778 F254.00 
G01 X-40.1447 Y40.7280 F508.00 
G01 X-40.0814 Y40.6857 
G01 X-39.9593 Y40.5636 
G01 X-39.8634 Y40.4201 
G01 X-39.7974 Y40.2606 
G01 X-39.7637 Y40.0913 
G01 X-39.7637 Y39.9187 
G01 X-39.7974 Y39.7494 
G01 X-39.8634 Y39.5899 
G01 X-39.9593 Y39.4464 
G01 X-40.0814 Y39.3243 
G01 X-40.2249 Y39.2284 
G01 X-40.3844 Y39.1624 
G01 X-40.5537 Y39.1287 
G01 X-40.7263 Y39.1287 
G01 X-40.8956 Y39.1624 
G01 X-41.0551 Y39.2284 
G01 X-41.1986 Y39.3243 
G01 X-41.3207 Y39.4464 
G01 X-41.4166 Y39.5899 
G01 X-41.4826 Y39.7494 
G01 X-41.5163 Y39.9187 
G01 X-41.5163 Y40.0913 
G01 X-41.4826 Y40.2606 
G01 X-41.4166 Y40.4201 
G01 X-41.3207 Y40.5636 
G01 X-41.1986 Y40.6857 
G01 X-41.1353 Y40.7280 
G01 X-41.1353 Y40.7797 
G01 X-41.9752 Y40.7797 
G01 X-42.1012 Y40.8135 
G01 X-42.2141 Y40.8787 
G01 X-42.3063 Y40.9709 
G01 X-43.5763 Y42.2409 
G01 X-43.6415 Y42.3538 
G01 X-43.6753 Y42.4798 
G01 X-43.6753 Y43.3971 
G01 X-43.7693 Y43.2564 
G01 X-43.8914 Y43.1343 
G01 X-44.0349 Y43.0384 
G01 X-44.1944 Y42.9724 
G01 X-44.3637 Y42.9387 
G01 X-44.5363 Y42.9387 
G01 X-44.7056 Y42.9724 
G01 X-44.8651 Y43.0384 
G01 X-45.0086 Y43.1343 
G01 X-45.1307 Y43.2564 
G01 X-45.2266 Y43.3999 
G01 X-45.2926 Y43.5594 
G01 X-45.3263 Y43.7287 
G01 X-45.3263 Y43.9013 
G01 X-45.2926 Y44.0706 
G01 X-45.2266 Y44.2301 
G01 X-45.1307 Y44.3736 
G01 X-45.1024 Y44.4019 
G01 X-45.1222 Y44.4217 
G01 X-46.1085 Y44.4217 
G01 X-46.2022 Y44.4468 
G01 X-46.2862 Y44.4953 
G01 X-46.3548 Y44.5639 
G01 X-46.4032 Y44.6478 
G01 X-46.4283 Y44.7415 
G01 X-46.4283 Y46.3385 
G01 X-46.4032 Y46.4322 
G01 X-46.3548 Y46.5161 
G01 X-46.2862 Y46.5847 
G01 X-46.2022 Y46.6332 
G01 X-46.1085 Y46.6583 
G01 X-44.7116 Y46.6583 
G01 X-44.6179 Y46.6332 
G01 X-44.5339 Y46.5847 
G01 X-44.4653 Y46.5161 
G01 X-44.4600 Y46.5070 
G01 X-44.4548 Y46.5161 
G01 X-44.3862 Y46.5847 
G01 X-44.3022 Y46.6332 
G01 X-44.2085 Y46.6583 
G01 X-42.8116 Y46.6583 
G01 X-42.7179 Y46.6332 
G01 X-42.6339 Y46.5847 
G01 X-42.5653 Y46.5161 
G01 X-42.5168 Y46.4322 
G01 X-42.4917 Y46.3385 
G01 X-42.4917 Y44.7415 
G01 X-42.5168 Y44.6478 
G01 X-42.5653 Y44.5639 
G01 X-42.6339 Y44.4953 
G01 X-42.6847 Y44.4660 
G01 X-42.6847 Y42.9629 
G01 X-42.5907 Y43.1036 
G01 X-42.4686 Y43.2257 
G01 X-42.4053 Y43.2680 
G01 X-42.4053 Y46.8717 
G01 X-43.4935 Y46.8717 
G01 X-43.5872 Y46.8968 
G01 X-43.6712 Y46.9453 
G01 X-43.7397 Y47.0139 
G01 X-43.7882 Y47.0978 
G01 X-43.8133 Y47.1915 
G01 X-43.8133 Y49.8285 
G01 X-43.7882 Y49.9222 
G01 X-43.7397 Y50.0061 
G01 X-43.6815 Y50.0644 
G01 X-45.2086 Y50.0644 
G01 X-45.1503 Y50.0061 
G01 X-45.1018 Y49.9222 
G01 X-45.0767 Y49.8285 
G01 X-45.0767 Y47.1915 
G01 X-45.1018 Y47.0978 
G01 X-45.1503 Y47.0139 
G01 X-45.2189 Y46.9453 
G01 X-45.3029 Y46.8968 
G01 X-45.3965 Y46.8717 
G01 X-46.4947 Y46.8717 
G01 X-46.4947 Y28.4353 
G01 X-40.0930 Y28.4353 
G01 X-40.0507 Y28.4986 
G01 X-39.9286 Y28.6207 
G01 X-39.7851 Y28.7166 
G01 X-39.6256 Y28.7826 
G01 X-39.4563 Y28.8163 
G01 X-39.2837 Y28.8163 
G01 X-39.1144 Y28.7826 
G01 X-38.9549 Y28.7166 
G01 X-38.8114 Y28.6207 
G01 X-38.6893 Y28.4986 
G01 X-38.5953 Y28.3579 
G01 X-38.5953 Y40.7797 
G01 X-40.1447 Y40.7797 
G00 Z2.5400 
G00 X-40.7052 Y41.7703 
G01 Z-0.1778 F254.00 
G01 X-37.9603 Y41.7703 F508.00 
G01 X-37.9603 Y43.3971 
G01 X-38.0543 Y43.2564 
G01 X-38.1764 Y43.1343 
G01 X-38.3199 Y43.0384 
G01 X-38.4794 Y42.9724 
G01 X-38.6487 Y42.9387 
G01 X-38.8213 Y42.9387 
G01 X-38.9906 Y42.9724 
G01 X-39.1501 Y43.0384 
G01 X-39.2936 Y43.1343 
G01 X-39.3700 Y43.2107 
G01 X-39.4464 Y43.1343 
G01 X-39.5899 Y43.0384 
G01 X-39.7494 Y42.9724 
G01 X-39.9187 Y42.9387 
G01 X-40.0913 Y42.9387 
G01 X-40.2606 Y42.9724 
G01 X-40.4201 Y43.0384 
G01 X-40.5636 Y43.1343 
G01 X-40.6857 Y43.2564 
G01 X-40.7816 Y43.3999 
G01 X-40.8476 Y43.5594 
G01 X-40.8813 Y43.7287 
G01 X-40.8813 Y43.9013 
G01 X-40.8476 Y44.0706 
G01 X-40.7816 Y44.2301 
G01 X-40.6857 Y44.3736 
G01 X-40.6574 Y44.4019 
G01 X-40.6772 Y44.4217 
G01 X-41.4147 Y44.4217 
G01 X-41.4147 Y43.2680 
G01 X-41.3514 Y43.2257 
G01 X-41.2293 Y43.1036 
G01 X-41.1334 Y42.9601 
G01 X-41.0674 Y42.8006 
G01 X-41.0337 Y42.6313 
G01 X-41.0337 Y42.4587 
G01 X-41.0674 Y42.2894 
G01 X-41.1334 Y42.1299 
G01 X-41.2293 Y41.9864 
G01 X-41.3514 Y41.8643 
G01 X-41.4921 Y41.7703 
G01 X-40.7052 Y41.7703 
G00 Z2.5400 
G00 X-40.0316 Y46.6583 
G01 Z-0.1778 F254.00 
G01 X-39.9379 Y46.6332 F508.00 
G01 X-39.8539 Y46.5847 
G01 X-39.7853 Y46.5161 
G01 X-39.7800 Y46.5070 
G01 X-39.7748 Y46.5161 
G01 X-39.7062 Y46.5847 
G01 X-39.6222 Y46.6332 
G01 X-39.5285 Y46.6583 
G01 X-38.4688 Y46.6583 
G01 X-38.7276 Y46.9172 
G01 X-38.7629 Y46.8968 
G01 X-38.8565 Y46.8717 
G01 X-40.2235 Y46.8717 
G01 X-40.3172 Y46.8968 
G01 X-40.4012 Y46.9453 
G01 X-40.4697 Y47.0139 
G01 X-40.5182 Y47.0978 
G01 X-40.5433 Y47.1915 
G01 X-40.5433 Y49.8285 
G01 X-40.5182 Y49.9222 
G01 X-40.4697 Y50.0061 
G01 X-40.4115 Y50.0644 
G01 X-41.9386 Y50.0644 
G01 X-41.8803 Y50.0061 
G01 X-41.8318 Y49.9222 
G01 X-41.8067 Y49.8285 
G01 X-41.8067 Y48.2222 
G01 X-41.6059 Y48.0213 
G01 X-41.5137 Y47.9291 
G01 X-41.4485 Y47.8162 
G01 X-41.4147 Y47.6902 
G01 X-41.4147 Y46.6583 
G01 X-40.0316 Y46.6583 
G00 Z2.5400 
G00 X-38.6893 Y27.3814 
G01 Z-0.1778 F254.00 
G01 X-38.8114 Y27.2593 F508.00 
G01 X-38.9549 Y27.1634 
G01 X-39.1144 Y27.0974 
G01 X-39.2837 Y27.0637 
G01 X-39.4563 Y27.0637 
G01 X-39.6256 Y27.0974 
G01 X-39.7851 Y27.1634 
G01 X-39.9286 Y27.2593 
G01 X-40.0507 Y27.3814 
G01 X-40.0930 Y27.4447 
G01 X-46.4947 Y27.4447 
G01 X-46.4947 Y15.1658 
G01 X-40.2314 Y21.4290 
G01 X-40.2463 Y21.5037 
G01 X-40.2463 Y21.6763 
G01 X-40.2126 Y21.8456 
G01 X-40.1466 Y22.0051 
G01 X-40.0507 Y22.1486 
G01 X-39.9286 Y22.2707 
G01 X-39.7851 Y22.3666 
G01 X-39.6256 Y22.4326 
G01 X-39.4563 Y22.4663 
G01 X-39.2837 Y22.4663 
G01 X-39.1144 Y22.4326 
G01 X-38.9549 Y22.3666 
G01 X-38.8114 Y22.2707 
G01 X-38.6893 Y22.1486 
G01 X-38.5953 Y22.0079 
G01 X-38.5953 Y27.5221 
G01 X-38.6893 Y27.3814 
G00 Z2.5400 
G00 X-38.6893 Y21.0314 
G01 Z-0.1778 F254.00 
G01 X-38.8114 Y20.9093 F508.00 
G01 X-38.9549 Y20.8134 
G01 X-39.1144 Y20.7474 
G01 X-39.2837 Y20.7137 
G01 X-39.4563 Y20.7137 
G01 X-39.5310 Y20.7286 
G01 X-45.8597 Y14.3998 
G01 X-45.8597 Y5.6583 
G01 X-45.2072 Y5.6583 
G01 X-44.3103 Y6.5552 
G01 X-44.3103 Y8.3202 
G01 X-44.2765 Y8.4462 
G01 X-44.2113 Y8.5591 
G01 X-44.1191 Y8.6513 
G01 X-44.0062 Y8.7165 
G01 X-43.8802 Y8.7503 
G01 X-38.5953 Y8.7503 
G01 X-38.5953 Y21.1721 
G01 X-38.6893 Y21.0314 
G00 Z2.5400 
G00 X-40.0792 Y7.7597 
G01 Z-0.1778 F254.00 
G01 X-38.9737 Y6.6541 F508.00 
G01 X-38.9085 Y6.5412 
G01 X-38.8747 Y6.4152 
G01 X-38.8747 Y5.9202 
G01 X-38.6128 Y5.6583 
G01 X-37.9716 Y5.6583 
G01 X-37.9603 Y5.6553 
G01 X-37.9603 Y7.5320 
G01 X-38.0236 Y7.5743 
G01 X-38.1457 Y7.6964 
G01 X-38.1880 Y7.7597 
G01 X-40.0792 Y7.7597 
G00 Z2.5400 
G00 X-4.4978 Y46.8717 
G01 Z-0.1778 F254.00 
G01 X-4.8112 Y46.5583 F508.00 
G01 X-4.0788 Y46.5583 
G01 X-4.3922 Y46.8717 
G01 X-4.4978 Y46.8717 
G00 Z2.5400 
G00 X-39.3676 Y44.4217 
G01 Z-0.1778 F254.00 
G01 X-39.3724 Y44.4217 F508.00 
G00 Z2.5400 
G00 X-43.8174 Y44.4217 
G01 Z-0.1778 F254.00 
G01 X-43.7693 Y44.3736 F508.00 
G01 X-43.6753 Y44.2329 
G01 X-43.6753 Y44.4217 
G01 X-43.8174 Y44.4217 
G00 Z2.5400 
G00 X-38.0379 Y44.4468 
G01 Z-0.1778 F254.00 
G01 X-38.1086 Y44.4279 F508.00 
G01 X-38.0543 Y44.3736 
G01 X-37.9603 Y44.2329 
G01 X-37.9603 Y44.4916 
G01 X-38.0379 Y44.4468 
G00 Z2.5400 
G00 X-39.8715 Y5.6583 
G01 Z-0.1778 F254.00 
G01 X-39.8653 Y5.6566 F508.00 
G01 X-39.8653 Y5.9321 
G01 X-39.9593 Y5.7914 
G01 X-40.0814 Y5.6693 
G01 X-40.0979 Y5.6583 
G01 X-39.8715 Y5.6583 
G00 Z2.5400 
G00 X-43.6753 Y5.6583 
G01 Z-0.1778 F254.00 
G01 X-43.6753 Y5.7892 F508.00 
G01 X-43.8063 Y5.6583 
G01 X-43.6753 Y5.6583 
G00 Z2.5400 
G00 X-13.1953 Y46.2898 
G01 Z-0.1778 F254.00 
G01 X-13.1953 Y46.4202 F508.00 
G01 X-13.1615 Y46.5462 
G01 X-13.0963 Y46.6591 
G01 X-12.8120 Y46.9435 
G01 X-12.8928 Y46.8968 
G01 X-12.9865 Y46.8717 
G01 X-13.4747 Y46.8717 
G01 X-13.4747 Y28.3579 
G01 X-13.3807 Y28.4986 
G01 X-13.2586 Y28.6207 
G01 X-13.1953 Y28.6630 
G01 X-13.1953 Y46.2898 
G00 Z2.5400 
G00 X-43.4935 Y3.1783 
G01 Z-0.1778 F254.00 
G01 X-42.4053 Y3.1783 F508.00 
G01 X-42.4053 Y3.5639 
G01 X-42.4739 Y3.4953 
G01 X-42.5579 Y3.4468 
G01 X-42.6516 Y3.4217 
G01 X-43.5029 Y3.4217 
G01 X-44.0537 Y2.8709 
G01 X-44.1459 Y2.7787 
G01 X-44.2588 Y2.7135 
G01 X-44.3848 Y2.6797 
G01 X-45.0768 Y2.6797 
G01 X-45.0768 Y0.2215 
G01 X-45.1019 Y0.1278 
G01 X-45.1503 Y0.0439 
G01 X-45.2189 Y-0.0247 
G01 X-45.3029 Y-0.0732 
G01 X-45.3966 Y-0.0983 
G01 X-46.7635 Y-0.0983 
G01 X-46.8572 Y-0.0732 
G01 X-46.9412 Y-0.0247 
G01 X-47.0098 Y0.0439 
G01 X-47.0583 Y0.1278 
G01 X-47.0834 Y0.2215 
G01 X-47.0834 Y1.9329 
G01 X-47.2941 Y2.1437 
G01 X-47.3863 Y2.2359 
G01 X-47.4515 Y2.3488 
G01 X-47.4853 Y2.4748 
G01 X-47.4853 Y47.6902 
G01 X-47.4515 Y47.8162 
G01 X-47.3863 Y47.9291 
G01 X-47.0833 Y48.2321 
G01 X-47.0833 Y49.8285 
G01 X-47.0582 Y49.9222 
G01 X-47.0097 Y50.0061 
G01 X-46.9515 Y50.0644 
G01 X-50.0644 Y50.0644 
G01 X-50.0644 Y-1.0170 
G01 X1.0170 Y-1.0170 
G01 X1.0170 Y50.0644 
G01 X-2.9886 Y50.0644 
G01 X-2.9303 Y50.0061 
G01 X-2.8818 Y49.9222 
G01 X-2.8567 Y49.8285 
G01 X-2.8567 Y47.1915 
G01 X-2.8818 Y47.0978 
G01 X-2.9303 Y47.0139 
G01 X-2.9989 Y46.9453 
G01 X-3.0407 Y46.9211 
G01 X-2.7787 Y46.6591 
G01 X-2.7135 Y46.5462 
G01 X-2.6797 Y46.4202 
G01 X-2.6797 Y6.2848 
G01 X-2.7135 Y6.1588 
G01 X-2.7787 Y6.0459 
G01 X-2.8709 Y5.9537 
G01 X-3.6917 Y5.1328 
G01 X-3.6917 Y3.9415 
G01 X-3.7168 Y3.8478 
G01 X-3.7653 Y3.7638 
G01 X-3.8339 Y3.6953 
G01 X-3.9179 Y3.6468 
G01 X-3.9497 Y3.6382 
G01 X-3.9497 Y3.2483 
G01 X-3.2665 Y3.2483 
G01 X-3.1729 Y3.2232 
G01 X-3.0889 Y3.1747 
G01 X-3.0203 Y3.1061 
G01 X-2.9718 Y3.0221 
G01 X-2.9467 Y2.9285 
G01 X-2.9467 Y0.2915 
G01 X-2.9718 Y0.1978 
G01 X-3.0203 Y0.1138 
G01 X-3.0889 Y0.0453 
G01 X-3.1729 Y-0.0032 
G01 X-3.2665 Y-0.0283 
G01 X-4.6335 Y-0.0283 
G01 X-4.7272 Y-0.0032 
G01 X-4.8112 Y0.0453 
G01 X-4.8797 Y0.1138 
G01 X-4.9282 Y0.1978 
G01 X-4.9533 Y0.2915 
G01 X-4.9533 Y2.9285 
G01 X-4.9403 Y2.9770 
G01 X-4.9403 Y3.6217 
G01 X-5.4085 Y3.6217 
G01 X-5.5022 Y3.6468 
G01 X-5.5862 Y3.6953 
G01 X-5.6547 Y3.7638 
G01 X-5.6600 Y3.7730 
G01 X-5.6653 Y3.7638 
G01 X-5.7339 Y3.6953 
G01 X-5.8179 Y3.6468 
G01 X-5.9115 Y3.6217 
G01 X-7.3085 Y3.6217 
G01 X-7.3873 Y3.6428 
G01 X-7.3159 Y3.5713 
G01 X-7.2237 Y3.4791 
G01 X-7.1585 Y3.3662 
G01 X-7.1269 Y3.2483 
G01 X-6.5365 Y3.2483 
G01 X-6.4429 Y3.2232 
G01 X-6.3589 Y3.1747 
G01 X-6.2903 Y3.1061 
G01 X-6.2418 Y3.0221 
G01 X-6.2167 Y2.9285 
G01 X-6.2167 Y0.2915 
G01 X-6.2418 Y0.1978 
G01 X-6.2903 Y0.1138 
G01 X-6.3589 Y0.0453 
G01 X-6.4429 Y-0.0032 
G01 X-6.5365 Y-0.0283 
G01 X-7.9035 Y-0.0283 
G01 X-7.9972 Y-0.0032 
G01 X-8.0812 Y0.0453 
G01 X-8.1497 Y0.1138 
G01 X-8.1982 Y0.1978 
G01 X-8.2233 Y0.2915 
G01 X-8.2233 Y2.9285 
G01 X-8.1982 Y3.0221 
G01 X-8.1870 Y3.0415 
G01 X-8.7723 Y3.6268 
G01 X-8.7915 Y3.6217 
G01 X-10.1885 Y3.6217 
G01 X-10.2822 Y3.6468 
G01 X-10.3662 Y3.6953 
G01 X-10.4347 Y3.7638 
G01 X-10.4400 Y3.7730 
G01 X-10.4453 Y3.7638 
G01 X-10.5139 Y3.6953 
G01 X-10.5979 Y3.6468 
G01 X-10.6915 Y3.6217 
G01 X-11.8112 Y3.6217 
G01 X-11.3577 Y3.1681 
G01 X-11.3512 Y3.1747 
G01 X-11.2672 Y3.2232 
G01 X-11.1735 Y3.2483 
G01 X-9.8065 Y3.2483 
G01 X-9.7129 Y3.2232 
G01 X-9.6289 Y3.1747 
G01 X-9.5603 Y3.1061 
G01 X-9.5118 Y3.0221 
G01 X-9.4867 Y2.9285 
G01 X-9.4867 Y0.2915 
G01 X-9.5118 Y0.1978 
G01 X-9.5603 Y0.1138 
G01 X-9.6289 Y0.0453 
G01 X-9.7129 Y-0.0032 
G01 X-9.8065 Y-0.0283 
G01 X-11.1735 Y-0.0283 
G01 X-11.2672 Y-0.0032 
G01 X-11.3512 Y0.0453 
G01 X-11.4197 Y0.1138 
G01 X-11.4682 Y0.1978 
G01 X-11.4933 Y0.2915 
G01 X-11.4933 Y1.9029 
G01 X-13.0041 Y3.4137 
G01 X-13.0963 Y3.5059 
G01 X-13.1615 Y3.6188 
G01 X-13.1953 Y3.7448 
G01 X-13.1953 Y27.2170 
G01 X-13.2586 Y27.2593 
G01 X-13.3807 Y27.3814 
G01 X-13.4747 Y27.5221 
G01 X-13.4747 Y3.2483 
G01 X-13.0765 Y3.2483 
G01 X-12.9829 Y3.2232 
G01 X-12.8989 Y3.1747 
G01 X-12.8303 Y3.1061 
G01 X-12.7818 Y3.0221 
G01 X-12.7567 Y2.9285 
G01 X-12.7567 Y0.2915 
G01 X-12.7818 Y0.1978 
G01 X-12.8303 Y0.1138 
G01 X-12.8989 Y0.0453 
G01 X-12.9829 Y-0.0032 
G01 X-13.0765 Y-0.0283 
G01 X-14.4435 Y-0.0283 
G01 X-14.5372 Y-0.0032 
G01 X-14.6212 Y0.0453 
G01 X-14.6897 Y0.1138 
G01 X-14.7382 Y0.1978 
G01 X-14.7633 Y0.2915 
G01 X-14.7633 Y2.9285 
G01 X-14.7382 Y3.0221 
G01 X-14.6897 Y3.1061 
G01 X-14.6212 Y3.1747 
G01 X-14.5372 Y3.2232 
G01 X-14.4653 Y3.2424 
G01 X-14.4653 Y26.8097 
G01 X-19.5970 Y26.8097 
G01 X-19.6393 Y26.7464 
G01 X-19.7614 Y26.6243 
G01 X-19.9049 Y26.5284 
G01 X-20.0644 Y26.4624 
G01 X-20.2337 Y26.4287 
G01 X-20.4063 Y26.4287 
G01 X-20.5756 Y26.4624 
G01 X-20.7351 Y26.5284 
G01 X-20.8786 Y26.6243 
G01 X-21.0007 Y26.7464 
G01 X-21.0966 Y26.8899 
G01 X-21.1626 Y27.0494 
G01 X-21.1963 Y27.2187 
G01 X-21.1963 Y27.3913 
G01 X-21.1626 Y27.5606 
G01 X-21.0966 Y27.7201 
G01 X-21.0007 Y27.8636 
G01 X-20.8786 Y27.9857 
G01 X-20.7351 Y28.0816 
G01 X-20.5756 Y28.1476 
G01 X-20.4063 Y28.1813 
G01 X-20.2337 Y28.1813 
G01 X-20.0644 Y28.1476 
G01 X-19.9049 Y28.0816 
G01 X-19.7614 Y27.9857 
G01 X-19.6393 Y27.8636 
G01 X-19.5970 Y27.8003 
G01 X-14.4653 Y27.8003 
G01 X-14.4653 Y46.9073 
G01 X-14.5311 Y46.9453 
G01 X-14.5997 Y47.0139 
G01 X-14.6482 Y47.0978 
G01 X-14.6733 Y47.1915 
G01 X-14.6733 Y49.8285 
G01 X-14.6482 Y49.9222 
G01 X-14.5997 Y50.0061 
G01 X-14.5415 Y50.0644 
G01 X-35.3986 Y50.0644 
G01 X-35.3403 Y50.0061 
G01 X-35.2918 Y49.9222 
G01 X-35.2667 Y49.8285 
G01 X-35.2667 Y47.1915 
G01 X-35.2918 Y47.0978 
G01 X-35.3403 Y47.0139 
G01 X-35.4089 Y46.9453 
G01 X-35.4929 Y46.8968 
G01 X-35.5865 Y46.8717 
G01 X-35.6997 Y46.8717 
G01 X-35.6997 Y6.5807 
G01 X-35.6463 Y6.5913 
G01 X-35.4737 Y6.5913 
G01 X-35.3044 Y6.5576 
G01 X-35.1449 Y6.4916 
G01 X-35.0014 Y6.3957 
G01 X-34.8793 Y6.2736 
G01 X-34.7834 Y6.1301 
G01 X-34.7174 Y5.9706 
G01 X-34.6837 Y5.8013 
G01 X-34.6837 Y5.6287 
G01 X-34.7174 Y5.4594 
G01 X-34.7834 Y5.2999 
G01 X-34.8793 Y5.1564 
G01 X-35.0014 Y5.0343 
G01 X-35.0647 Y4.9920 
G01 X-35.0647 Y2.4748 
G01 X-35.0985 Y2.3488 
G01 X-35.1637 Y2.2359 
G01 X-35.2559 Y2.1437 
G01 X-35.2668 Y2.1328 
G01 X-35.2668 Y0.2215 
G01 X-35.2919 Y0.1278 
G01 X-35.3403 Y0.0439 
G01 X-35.4089 Y-0.0247 
G01 X-35.4929 Y-0.0732 
G01 X-35.5866 Y-0.0983 
G01 X-36.9535 Y-0.0983 
G01 X-37.0472 Y-0.0732 
G01 X-37.1312 Y-0.0247 
G01 X-37.1998 Y0.0439 
G01 X-37.2483 Y0.1278 
G01 X-37.2734 Y0.2215 
G01 X-37.2734 Y2.8585 
G01 X-37.2483 Y2.9522 
G01 X-37.1998 Y3.0361 
G01 X-37.1312 Y3.1047 
G01 X-37.0472 Y3.1532 
G01 X-36.9535 Y3.1783 
G01 X-36.6903 Y3.1783 
G01 X-36.6903 Y7.8371 
G01 X-36.7843 Y7.6964 
G01 X-36.9064 Y7.5743 
G01 X-36.9697 Y7.5320 
G01 X-36.9697 Y3.7448 
G01 X-37.0035 Y3.6188 
G01 X-37.0687 Y3.5059 
G01 X-38.5368 Y2.0378 
G01 X-38.5368 Y0.2215 
G01 X-38.5619 Y0.1278 
G01 X-38.6103 Y0.0439 
G01 X-38.6789 Y-0.0247 
G01 X-38.7629 Y-0.0732 
G01 X-38.8566 Y-0.0983 
G01 X-40.2235 Y-0.0983 
G01 X-40.3172 Y-0.0732 
G01 X-40.4012 Y-0.0247 
G01 X-40.4698 Y0.0439 
G01 X-40.5183 Y0.1278 
G01 X-40.5434 Y0.2215 
G01 X-40.5434 Y2.8585 
G01 X-40.5183 Y2.9522 
G01 X-40.4698 Y3.0361 
G01 X-40.4012 Y3.1047 
G01 X-40.3172 Y3.1532 
G01 X-40.2235 Y3.1783 
G01 X-38.8566 Y3.1783 
G01 X-38.8097 Y3.1657 
G01 X-38.5538 Y3.4217 
G01 X-39.3685 Y3.4217 
G01 X-39.4622 Y3.4468 
G01 X-39.5462 Y3.4953 
G01 X-39.6148 Y3.5638 
G01 X-39.6200 Y3.5730 
G01 X-39.6253 Y3.5638 
G01 X-39.6939 Y3.4953 
G01 X-39.7779 Y3.4468 
G01 X-39.8715 Y3.4217 
G01 X-41.2685 Y3.4217 
G01 X-41.3622 Y3.4468 
G01 X-41.4147 Y3.4771 
G01 X-41.4147 Y2.4748 
G01 X-41.4485 Y2.3488 
G01 X-41.5137 Y2.2359 
G01 X-41.6059 Y2.1437 
G01 X-41.8068 Y1.9428 
G01 X-41.8068 Y0.2215 
G01 X-41.8319 Y0.1278 
G01 X-41.8803 Y0.0439 
G01 X-41.9489 Y-0.0247 
G01 X-42.0329 Y-0.0732 
G01 X-42.1266 Y-0.0983 
G01 X-43.4935 Y-0.0983 
G01 X-43.5872 Y-0.0732 
G01 X-43.6712 Y-0.0247 
G01 X-43.7398 Y0.0439 
G01 X-43.7883 Y0.1278 
G01 X-43.8134 Y0.2215 
G01 X-43.8134 Y2.8585 
G01 X-43.7883 Y2.9522 
G01 X-43.7398 Y3.0361 
G01 X-43.6712 Y3.1047 
G01 X-43.5872 Y3.1532 
G01 X-43.4935 Y3.1783 
G00 Z2.5400 
G00 X-41.3622 Y5.6332 
G01 Z-0.1778 F254.00 
G01 X-41.2685 Y5.6583 F508.00 
G01 X-41.1821 Y5.6583 
G01 X-41.1986 Y5.6693 
G01 X-41.2750 Y5.7457 
G01 X-41.3514 Y5.6693 
G01 X-41.4147 Y5.6270 
G01 X-41.4147 Y5.6029 
G01 X-41.3622 Y5.6332 
G00 Z2.5400 
G00 X-41.1986 Y7.0307 
G01 Z-0.1778 F254.00 
G01 X-41.0579 Y7.1247 F508.00 
G01 X-41.4921 Y7.1247 
G01 X-41.3514 Y7.0307 
G01 X-41.2750 Y6.9543 
G01 X-41.1986 Y7.0307 
G00 Z2.5400 
G00 X-42.6847 Y7.1247 
G01 Z-0.1778 F254.00 
G01 X-42.6847 Y6.7679 F508.00 
G01 X-42.5907 Y6.9086 
G01 X-42.4686 Y7.0307 
G01 X-42.3279 Y7.1247 
G01 X-42.6847 Y7.1247 
G00 Z2.5400 
G00 X-42.6847 Y5.6583 
G01 Z-0.1778 F254.00 
G01 X-42.6516 Y5.6583 F508.00 
G01 X-42.5579 Y5.6332 
G01 X-42.4739 Y5.5847 
G01 X-42.4053 Y5.5161 
G01 X-42.4053 Y5.6270 
G01 X-42.4686 Y5.6693 
G01 X-42.5907 Y5.7914 
G01 X-42.6847 Y5.9321 
G01 X-42.6847 Y5.6583 
G00 Z2.5400 
G00 X-9.5707 Y29.1336 
G01 Z-0.1778 F254.00 
G01 X-9.4486 Y29.2557 F508.00 
G01 X-9.3853 Y29.2980 
G01 X-9.3853 Y29.4271 
G01 X-9.4793 Y29.2864 
G01 X-9.6014 Y29.1643 
G01 X-9.6647 Y29.1220 
G01 X-9.6647 Y28.9929 
G01 X-9.5707 Y29.1336 
G00 Z2.5400 
G00 X-9.3853 Y43.8802 
G01 Z-0.1778 F254.00 
G01 X-9.3853 Y44.3217 F508.00 
G01 X-9.6647 Y44.3217 
G01 X-9.6647 Y30.5680 
G01 X-9.6014 Y30.5257 
G01 X-9.4793 Y30.4036 
G01 X-9.3853 Y30.2629 
G01 X-9.3853 Y43.8802 
G00 Z2.5400 
G00 X-9.5707 Y14.5286 
G01 Z-0.1778 F254.00 
G01 X-9.4486 Y14.6507 F508.00 
G01 X-9.3051 Y14.7466 
G01 X-9.1456 Y14.8126 
G01 X-8.9763 Y14.8463 
G01 X-8.8037 Y14.8463 
G01 X-8.6344 Y14.8126 
G01 X-8.4749 Y14.7466 
G01 X-8.3314 Y14.6507 
G01 X-8.2093 Y14.5286 
G01 X-8.1134 Y14.3851 
G01 X-8.0474 Y14.2256 
G01 X-8.0137 Y14.0563 
G01 X-8.0137 Y13.8837 
G01 X-8.0474 Y13.7144 
G01 X-8.1134 Y13.5549 
G01 X-8.2093 Y13.4114 
G01 X-8.3314 Y13.2893 
G01 X-8.3947 Y13.2470 
G01 X-8.3947 Y7.1902 
G01 X-7.0628 Y5.8583 
G01 X-5.9115 Y5.8583 
G01 X-5.8179 Y5.8332 
G01 X-5.7339 Y5.7847 
G01 X-5.6653 Y5.7161 
G01 X-5.6600 Y5.7069 
G01 X-5.6547 Y5.7161 
G01 X-5.5862 Y5.7847 
G01 X-5.5022 Y5.8332 
G01 X-5.4085 Y5.8583 
G01 X-4.3672 Y5.8583 
G01 X-3.6703 Y6.5552 
G01 X-3.6703 Y27.4447 
G01 X-4.9920 Y27.4447 
G01 X-5.0343 Y27.3814 
G01 X-5.1564 Y27.2593 
G01 X-5.2999 Y27.1634 
G01 X-5.4594 Y27.0974 
G01 X-5.6287 Y27.0637 
G01 X-5.8013 Y27.0637 
G01 X-5.9706 Y27.0974 
G01 X-6.1301 Y27.1634 
G01 X-6.2736 Y27.2593 
G01 X-6.3957 Y27.3814 
G01 X-6.4916 Y27.5249 
G01 X-6.5576 Y27.6844 
G01 X-6.5913 Y27.8537 
G01 X-6.5913 Y28.0263 
G01 X-6.5576 Y28.1956 
G01 X-6.4916 Y28.3551 
G01 X-6.3957 Y28.4986 
G01 X-6.2736 Y28.6207 
G01 X-6.1301 Y28.7166 
G01 X-5.9706 Y28.7826 
G01 X-5.8013 Y28.8163 
G01 X-5.6287 Y28.8163 
G01 X-5.4594 Y28.7826 
G01 X-5.2999 Y28.7166 
G01 X-5.1564 Y28.6207 
G01 X-5.0343 Y28.4986 
G01 X-4.9920 Y28.4353 
G01 X-3.6703 Y28.4353 
G01 X-3.6703 Y44.5245 
G01 X-3.7053 Y44.4639 
G01 X-3.7739 Y44.3953 
G01 X-3.8579 Y44.3468 
G01 X-3.9515 Y44.3217 
G01 X-4.6016 Y44.3217 
G01 X-4.6185 Y44.2588 
G01 X-4.6837 Y44.1459 
G01 X-5.3187 Y43.5109 
G01 X-5.4109 Y43.4187 
G01 X-5.5238 Y43.3535 
G01 X-5.6498 Y43.3197 
G01 X-8.3947 Y43.3197 
G01 X-8.3947 Y29.2980 
G01 X-8.3314 Y29.2557 
G01 X-8.2093 Y29.1336 
G01 X-8.1134 Y28.9901 
G01 X-8.0474 Y28.8306 
G01 X-8.0137 Y28.6613 
G01 X-8.0137 Y28.4887 
G01 X-8.0474 Y28.3194 
G01 X-8.1134 Y28.1599 
G01 X-8.2093 Y28.0164 
G01 X-8.3314 Y27.8943 
G01 X-8.4749 Y27.7984 
G01 X-8.6344 Y27.7324 
G01 X-8.8037 Y27.6987 
G01 X-8.9763 Y27.6987 
G01 X-9.1456 Y27.7324 
G01 X-9.3051 Y27.7984 
G01 X-9.4486 Y27.8943 
G01 X-9.5707 Y28.0164 
G01 X-9.6647 Y28.1571 
G01 X-9.6647 Y14.3879 
G01 X-9.5707 Y14.5286 
G00 Z2.5400 
G00 X-9.6028 Y5.8583 
G01 Z-0.1778 F254.00 
G01 X-8.7915 Y5.8583 F508.00 
G01 X-8.6979 Y5.8332 
G01 X-8.6139 Y5.7847 
G01 X-8.5453 Y5.7161 
G01 X-8.4968 Y5.6321 
G01 X-8.4717 Y5.5385 
G01 X-8.4717 Y4.7272 
G01 X-7.6072 Y3.8627 
G01 X-7.6283 Y3.9415 
G01 X-7.6283 Y5.0229 
G01 X-9.1941 Y6.5887 
G01 X-9.2863 Y6.6809 
G01 X-9.3515 Y6.7938 
G01 X-9.3853 Y6.9198 
G01 X-9.3853 Y13.2470 
G01 X-9.4486 Y13.2893 
G01 X-9.5707 Y13.4114 
G01 X-9.6647 Y13.5521 
G01 X-9.6647 Y5.9202 
G01 X-9.6028 Y5.8583 
G00 Z2.5400 
G00 X-10.7493 Y13.4114 
G01 Z-0.1778 F254.00 
G01 X-10.8714 Y13.2893 F508.00 
G01 X-10.9347 Y13.2470 
G01 X-10.9347 Y5.8583 
G01 X-10.6915 Y5.8583 
G01 X-10.6553 Y5.8486 
G01 X-10.6553 Y13.5521 
G01 X-10.7493 Y13.4114 
G00 Z2.5400 
G00 X-36.6903 Y46.8717 
G01 Z-0.1778 F254.00 
G01 X-36.9535 Y46.8717 F508.00 
G01 X-37.0472 Y46.8968 
G01 X-37.1312 Y46.9453 
G01 X-37.1997 Y47.0139 
G01 X-37.2482 Y47.0978 
G01 X-37.2733 Y47.1915 
G01 X-37.2733 Y49.8285 
G01 X-37.2482 Y49.9222 
G01 X-37.1997 Y50.0061 
G01 X-37.1415 Y50.0644 
G01 X-38.6686 Y50.0644 
G01 X-38.6103 Y50.0061 
G01 X-38.5618 Y49.9222 
G01 X-38.5367 Y49.8285 
G01 X-38.5367 Y48.1272 
G01 X-37.0687 Y46.6591 
G01 X-37.0035 Y46.5462 
G01 X-36.9697 Y46.4202 
G01 X-36.9697 Y41.2098 
G01 X-37.0035 Y41.0838 
G01 X-37.0687 Y40.9709 
G01 X-37.1609 Y40.8787 
G01 X-37.2738 Y40.8135 
G01 X-37.3998 Y40.7797 
G01 X-37.6047 Y40.7797 
G01 X-37.6047 Y9.1207 
G01 X-37.5513 Y9.1313 
G01 X-37.3787 Y9.1313 
G01 X-37.2094 Y9.0976 
G01 X-37.0499 Y9.0316 
G01 X-36.9064 Y8.9357 
G01 X-36.7843 Y8.8136 
G01 X-36.6903 Y8.6729 
G01 X-36.6903 Y46.8717 
G00 Z2.5400 
G00 X-8.4315 Y46.5583 
G01 Z-0.1778 F254.00 
G01 X-8.3379 Y46.5332 F508.00 
G01 X-8.2539 Y46.4847 
G01 X-8.1853 Y46.4161 
G01 X-8.1368 Y46.3322 
G01 X-8.1117 Y46.2385 
G01 X-8.1117 Y44.6415 
G01 X-8.1368 Y44.5478 
G01 X-8.1853 Y44.4639 
G01 X-8.2539 Y44.3953 
G01 X-8.3379 Y44.3468 
G01 X-8.3947 Y44.3316 
G01 X-8.3947 Y44.3103 
G01 X-5.9202 Y44.3103 
G01 X-5.9088 Y44.3217 
G01 X-7.2485 Y44.3217 
G01 X-7.3422 Y44.3468 
G01 X-7.4262 Y44.3953 
G01 X-7.4947 Y44.4639 
G01 X-7.5432 Y44.5478 
G01 X-7.5683 Y44.6415 
G01 X-7.5683 Y46.2385 
G01 X-7.5432 Y46.3322 
G01 X-7.4947 Y46.4161 
G01 X-7.4262 Y46.4847 
G01 X-7.3422 Y46.5332 
G01 X-7.2485 Y46.5583 
G01 X-6.2122 Y46.5583 
G01 X-4.9403 Y47.8302 
G01 X-4.9403 Y48.2248 
G01 X-4.9445 Y48.2544 
G01 X-4.9403 Y48.2897 
G01 X-4.9403 Y48.3252 
G01 X-4.9325 Y48.3541 
G01 X-4.9290 Y48.3839 
G01 X-4.9157 Y48.4169 
G01 X-4.9065 Y48.4512 
G01 X-4.8916 Y48.4771 
G01 X-4.8804 Y48.5049 
G01 X-4.8633 Y48.5277 
G01 X-4.8633 Y49.8285 
G01 X-4.8382 Y49.9222 
G01 X-4.7897 Y50.0061 
G01 X-4.7315 Y50.0644 
G01 X-6.2586 Y50.0644 
G01 X-6.2003 Y50.0061 
G01 X-6.1518 Y49.9222 
G01 X-6.1267 Y49.8285 
G01 X-6.1267 Y47.1915 
G01 X-6.1518 Y47.0978 
G01 X-6.2003 Y47.0139 
G01 X-6.2689 Y46.9453 
G01 X-6.3528 Y46.8968 
G01 X-6.4465 Y46.8717 
G01 X-7.8135 Y46.8717 
G01 X-7.9072 Y46.8968 
G01 X-7.9911 Y46.9453 
G01 X-8.0597 Y47.0139 
G01 X-8.1082 Y47.0978 
G01 X-8.1333 Y47.1915 
G01 X-8.1333 Y47.6812 
G01 X-9.2562 Y46.5583 
G01 X-8.4315 Y46.5583 
G00 Z2.5400 
G00 X-8.1333 Y49.8285 
G01 Z-0.1778 F254.00 
G01 X-8.1082 Y49.9222 F508.00 
G01 X-8.0597 Y50.0061 
G01 X-8.0015 Y50.0644 
G01 X-9.5286 Y50.0644 
G01 X-9.4703 Y50.0061 
G01 X-9.4218 Y49.9222 
G01 X-9.3967 Y49.8285 
G01 X-9.3967 Y47.8187 
G01 X-8.6513 Y48.5641 
G01 X-8.5591 Y48.6563 
G01 X-8.4462 Y48.7215 
G01 X-8.3202 Y48.7553 
G01 X-8.1333 Y48.7553 
G01 X-8.1333 Y49.8285 
G00 Z2.5400 
G00 X-12.1822 Y5.8332 
G01 Z-0.1778 F254.00 
G01 X-12.0885 Y5.8583 F508.00 
G01 X-11.9253 Y5.8583 
G01 X-11.9253 Y13.2470 
G01 X-11.9886 Y13.2893 
G01 X-12.1107 Y13.4114 
G01 X-12.2047 Y13.5521 
G01 X-12.2047 Y5.8202 
G01 X-12.1822 Y5.8332 
G00 Z2.5400 
G00 X-12.2047 Y14.3879 
G01 Z-0.1778 F254.00 
G01 X-12.1107 Y14.5286 F508.00 
G01 X-11.9886 Y14.6507 
G01 X-11.8451 Y14.7466 
G01 X-11.6856 Y14.8126 
G01 X-11.5163 Y14.8463 
G01 X-11.3437 Y14.8463 
G01 X-11.1744 Y14.8126 
G01 X-11.0149 Y14.7466 
G01 X-10.8714 Y14.6507 
G01 X-10.7493 Y14.5286 
G01 X-10.6553 Y14.3879 
G01 X-10.6553 Y29.1220 
G01 X-10.7186 Y29.1643 
G01 X-10.8407 Y29.2864 
G01 X-10.9366 Y29.4299 
G01 X-11.0026 Y29.5894 
G01 X-11.0363 Y29.7587 
G01 X-11.0363 Y29.9313 
G01 X-11.0026 Y30.1006 
G01 X-10.9366 Y30.2601 
G01 X-10.8407 Y30.4036 
G01 X-10.7186 Y30.5257 
G01 X-10.6553 Y30.5680 
G01 X-10.6553 Y44.3217 
G01 X-11.7285 Y44.3217 
G01 X-11.8222 Y44.3468 
G01 X-11.9062 Y44.3953 
G01 X-11.9747 Y44.4639 
G01 X-12.0232 Y44.5478 
G01 X-12.0483 Y44.6415 
G01 X-12.0483 Y46.2385 
G01 X-12.0235 Y46.3310 
G01 X-12.2047 Y46.1498 
G01 X-12.2047 Y28.6630 
G01 X-12.1414 Y28.6207 
G01 X-12.0193 Y28.4986 
G01 X-11.9234 Y28.3551 
G01 X-11.8574 Y28.1956 
G01 X-11.8237 Y28.0263 
G01 X-11.8237 Y27.8537 
G01 X-11.8574 Y27.6844 
G01 X-11.9234 Y27.5249 
G01 X-12.0193 Y27.3814 
G01 X-12.1414 Y27.2593 
G01 X-12.2047 Y27.2170 
G01 X-12.2047 Y14.3879 
G00 Z2.5400 
G00 X-11.7285 Y46.5583 
G01 Z-0.1778 F254.00 
G01 X-10.6572 Y46.5583 F508.00 
G01 X-10.5563 Y46.6591 
G01 X-10.4641 Y46.7513 
G01 X-10.3438 Y46.8717 
G01 X-11.0835 Y46.8717 
G01 X-11.1772 Y46.8968 
G01 X-11.2611 Y46.9453 
G01 X-11.3297 Y47.0139 
G01 X-11.3337 Y47.0208 
G01 X-11.8210 Y46.5335 
G01 X-11.7285 Y46.5583 
G00 Z2.5400 
G00 X-11.4033 Y49.8285 
G01 Z-0.1778 F254.00 
G01 X-11.3782 Y49.9222 F508.00 
G01 X-11.3297 Y50.0061 
G01 X-11.2715 Y50.0644 
G01 X-12.7986 Y50.0644 
G01 X-12.7403 Y50.0061 
G01 X-12.6918 Y49.9222 
G01 X-12.6667 Y49.8285 
G01 X-12.6667 Y47.1915 
G01 X-12.6918 Y47.0978 
G01 X-12.7385 Y47.0169 
G01 X-11.4033 Y48.3522 
G01 X-11.4033 Y49.8285 
G00 Z2.5400 
G00 X-46.3642 Y46.6863 
G01 Z-0.1778 F254.00 
G01 X-46.2631 Y46.7447 F508.00 
G01 X-46.3677 Y46.7447 
G01 X-46.3677 Y46.6828 
G01 X-46.3642 Y46.6863 
G00 Z2.5400 
G00 X-4.4452 Y46.7447 
G01 Z-0.1778 F254.00 
G01 X-4.5046 Y46.6853 F508.00 
G01 X-4.3854 Y46.6853 
G01 X-4.4448 Y46.7447 
G00 Z2.5400 
G00 X-39.7289 Y3.3284 
G01 Z-0.1778 F254.00 
G01 X-39.8152 Y3.3053 F508.00 
G01 X-39.4249 Y3.3053 
G01 X-39.5112 Y3.3284 
G01 X-39.6200 Y3.3913 
G01 X-39.7289 Y3.3284 
G00 Z2.5400 
G00 X-39.7800 Y46.6887 
G01 Z-0.1778 F254.00 
G01 X-39.6831 Y46.7447 F508.00 
G01 X-39.8770 Y46.7447 
G01 X-39.7800 Y46.6887 
G00 Z2.5400 
G00 X-44.6948 Y46.7853 
G01 Z-0.1778 F254.00 
G01 X-44.5689 Y46.7515 F508.00 
G01 X-44.4600 Y46.6887 
G01 X-44.3512 Y46.7515 
G01 X-44.2252 Y46.7853 
G01 X-43.6481 Y46.7853 
G01 X-43.7491 Y46.8437 
G01 X-43.8414 Y46.9359 
G01 X-43.9066 Y47.0488 
G01 X-43.9403 Y47.1748 
G01 X-43.9403 Y49.8452 
G01 X-43.9066 Y49.9712 
G01 X-43.8527 Y50.0644 
G01 X-45.0373 Y50.0644 
G01 X-44.9835 Y49.9712 
G01 X-44.9497 Y49.8452 
G01 X-44.9497 Y47.1748 
G01 X-44.9835 Y47.0488 
G01 X-45.0487 Y46.9359 
G01 X-45.1409 Y46.8437 
G01 X-45.2420 Y46.7853 
G01 X-44.6948 Y46.7853 
G00 Z2.5400 
G00 X-39.7726 Y7.6327 
G01 Z-0.1778 F254.00 
G01 X-38.8866 Y6.7467 F508.00 
G01 X-38.8185 Y6.6448 
G01 X-38.7716 Y6.5315 
G01 X-38.7477 Y6.4113 
G01 X-38.7477 Y5.9728 
G01 X-38.5602 Y5.7853 
G01 X-38.0873 Y5.7853 
G01 X-38.0873 Y7.4641 
G01 X-38.1046 Y7.4757 
G01 X-38.2443 Y7.6154 
G01 X-38.2559 Y7.6327 
G01 X-39.7726 Y7.6327 
G00 Z2.5400 
G00 X-37.0962 Y3.2715 
G01 Z-0.1778 F254.00 
G01 X-36.9703 Y3.3053 F508.00 
G01 X-36.8173 Y3.3053 
G01 X-36.8173 Y7.4838 
G01 X-36.8254 Y7.4757 
G01 X-36.8427 Y7.4641 
G01 X-36.8427 Y3.7487 
G01 X-36.8666 Y3.6285 
G01 X-36.9135 Y3.5152 
G01 X-36.9816 Y3.4133 
G01 X-37.1605 Y3.2344 
G01 X-37.0962 Y3.2715 
G00 Z2.5400 
G00 X-36.8173 Y46.7447 
G01 Z-0.1778 F254.00 
G01 X-36.9702 Y46.7447 F508.00 
G01 X-36.9784 Y46.7469 
G01 X-36.9135 Y46.6498 
G01 X-36.8666 Y46.5365 
G01 X-36.8427 Y46.4163 
G01 X-36.8427 Y41.2137 
G01 X-36.8666 Y41.0935 
G01 X-36.9135 Y40.9802 
G01 X-36.9816 Y40.8783 
G01 X-37.0683 Y40.7916 
G01 X-37.1702 Y40.7235 
G01 X-37.2835 Y40.6766 
G01 X-37.4037 Y40.6527 
G01 X-37.4777 Y40.6527 
G01 X-37.4777 Y9.2583 
G01 X-37.3662 Y9.2583 
G01 X-37.1723 Y9.2197 
G01 X-36.9898 Y9.1441 
G01 X-36.8254 Y9.0343 
G01 X-36.8173 Y9.0262 
G01 X-36.8173 Y46.7447 
G00 Z2.5400 
G00 X-41.9713 Y40.6527 
G01 Z-0.1778 F254.00 
G01 X-42.0915 Y40.6766 F508.00 
G01 X-42.2048 Y40.7235 
G01 X-42.3067 Y40.7916 
G01 X-42.3934 Y40.8783 
G01 X-43.6634 Y42.1483 
G01 X-43.7315 Y42.2502 
G01 X-43.7784 Y42.3635 
G01 X-43.8023 Y42.4837 
G01 X-43.8023 Y43.0438 
G01 X-43.8104 Y43.0357 
G01 X-43.9748 Y42.9259 
G01 X-44.1573 Y42.8503 
G01 X-44.3512 Y42.8117 
G01 X-44.5488 Y42.8117 
G01 X-44.7427 Y42.8503 
G01 X-44.9252 Y42.9259 
G01 X-45.0896 Y43.0357 
G01 X-45.2293 Y43.1754 
G01 X-45.3391 Y43.3398 
G01 X-45.4147 Y43.5223 
G01 X-45.4533 Y43.7162 
G01 X-45.4533 Y43.9138 
G01 X-45.4147 Y44.1076 
G01 X-45.3391 Y44.2902 
G01 X-45.3361 Y44.2947 
G01 X-46.1252 Y44.2947 
G01 X-46.2512 Y44.3285 
G01 X-46.3642 Y44.3937 
G01 X-46.3677 Y44.3972 
G01 X-46.3677 Y28.5623 
G01 X-40.1609 Y28.5623 
G01 X-40.1493 Y28.5796 
G01 X-40.0096 Y28.7193 
G01 X-39.8452 Y28.8291 
G01 X-39.6626 Y28.9047 
G01 X-39.4688 Y28.9433 
G01 X-39.2712 Y28.9433 
G01 X-39.0773 Y28.9047 
G01 X-38.8948 Y28.8291 
G01 X-38.7304 Y28.7193 
G01 X-38.7223 Y28.7112 
G01 X-38.7223 Y40.6527 
G01 X-39.8688 Y40.6527 
G01 X-39.8607 Y40.6446 
G01 X-39.7509 Y40.4802 
G01 X-39.6753 Y40.2977 
G01 X-39.6367 Y40.1038 
G01 X-39.6367 Y39.9062 
G01 X-39.6753 Y39.7123 
G01 X-39.7509 Y39.5298 
G01 X-39.8607 Y39.3654 
G01 X-40.0004 Y39.2257 
G01 X-40.1648 Y39.1159 
G01 X-40.3473 Y39.0403 
G01 X-40.5412 Y39.0017 
G01 X-40.7388 Y39.0017 
G01 X-40.9327 Y39.0403 
G01 X-41.1152 Y39.1159 
G01 X-41.2796 Y39.2257 
G01 X-41.4193 Y39.3654 
G01 X-41.5291 Y39.5298 
G01 X-41.6047 Y39.7123 
G01 X-41.6433 Y39.9062 
G01 X-41.6433 Y40.1038 
G01 X-41.6047 Y40.2977 
G01 X-41.5291 Y40.4802 
G01 X-41.4193 Y40.6446 
G01 X-41.4112 Y40.6527 
G01 X-41.9713 Y40.6527 
G00 Z2.5400 
G00 X-38.7304 Y27.1607 
G01 Z-0.1778 F254.00 
G01 X-38.8948 Y27.0509 F508.00 
G01 X-39.0773 Y26.9753 
G01 X-39.2712 Y26.9367 
G01 X-39.4688 Y26.9367 
G01 X-39.6626 Y26.9753 
G01 X-39.8452 Y27.0509 
G01 X-40.0096 Y27.1607 
G01 X-40.1493 Y27.3004 
G01 X-40.1609 Y27.3177 
G01 X-46.3677 Y27.3177 
G01 X-46.3677 Y15.4724 
G01 X-40.3692 Y21.4708 
G01 X-40.3733 Y21.4912 
G01 X-40.3733 Y21.6888 
G01 X-40.3347 Y21.8827 
G01 X-40.2591 Y22.0652 
G01 X-40.1493 Y22.2296 
G01 X-40.0096 Y22.3693 
G01 X-39.8452 Y22.4791 
G01 X-39.6626 Y22.5547 
G01 X-39.4688 Y22.5933 
G01 X-39.2712 Y22.5933 
G01 X-39.0773 Y22.5547 
G01 X-38.8948 Y22.4791 
G01 X-38.7304 Y22.3693 
G01 X-38.7223 Y22.3612 
G01 X-38.7223 Y27.1688 
G01 X-38.7304 Y27.1607 
G00 Z2.5400 
G00 X-38.7304 Y20.8107 
G01 Z-0.1778 F254.00 
G01 X-38.8948 Y20.7009 F508.00 
G01 X-39.0773 Y20.6253 
G01 X-39.2712 Y20.5867 
G01 X-39.4688 Y20.5867 
G01 X-39.4892 Y20.5908 
G01 X-45.7327 Y14.3472 
G01 X-45.7327 Y5.7853 
G01 X-45.2598 Y5.7853 
G01 X-44.4373 Y6.6078 
G01 X-44.4373 Y8.3163 
G01 X-44.4134 Y8.4365 
G01 X-44.3665 Y8.5498 
G01 X-44.2984 Y8.6517 
G01 X-44.2117 Y8.7384 
G01 X-44.1098 Y8.8065 
G01 X-43.9965 Y8.8534 
G01 X-43.8763 Y8.8773 
G01 X-38.7223 Y8.8773 
G01 X-38.7223 Y20.8188 
G01 X-38.7304 Y20.8107 
G00 Z2.5400 
G00 X-37.4003 Y47.1748 
G01 Z-0.1778 F254.00 
G01 X-37.4003 Y49.8452 F508.00 
G01 X-37.3666 Y49.9712 
G01 X-37.3127 Y50.0644 
G01 X-38.4973 Y50.0644 
G01 X-38.4435 Y49.9712 
G01 X-38.4097 Y49.8452 
G01 X-38.4097 Y48.1798 
G01 X-37.3987 Y47.1688 
G01 X-37.4003 Y47.1748 
G00 Z2.5400 
G00 X-38.0954 Y43.0357 
G01 Z-0.1778 F254.00 
G01 X-38.2598 Y42.9259 F508.00 
G01 X-38.4423 Y42.8503 
G01 X-38.6362 Y42.8117 
G01 X-38.8338 Y42.8117 
G01 X-39.0277 Y42.8503 
G01 X-39.2102 Y42.9259 
G01 X-39.3700 Y43.0326 
G01 X-39.5298 Y42.9259 
G01 X-39.7123 Y42.8503 
G01 X-39.9062 Y42.8117 
G01 X-40.1038 Y42.8117 
G01 X-40.2977 Y42.8503 
G01 X-40.4802 Y42.9259 
G01 X-40.6446 Y43.0357 
G01 X-40.7843 Y43.1754 
G01 X-40.8941 Y43.3398 
G01 X-40.9697 Y43.5223 
G01 X-41.0083 Y43.7162 
G01 X-41.0083 Y43.9138 
G01 X-40.9697 Y44.1076 
G01 X-40.8941 Y44.2902 
G01 X-40.8911 Y44.2947 
G01 X-41.2877 Y44.2947 
G01 X-41.2877 Y43.3359 
G01 X-41.2704 Y43.3243 
G01 X-41.1307 Y43.1846 
G01 X-41.0209 Y43.0202 
G01 X-40.9453 Y42.8377 
G01 X-40.9067 Y42.6438 
G01 X-40.9067 Y42.4462 
G01 X-40.9453 Y42.2523 
G01 X-41.0209 Y42.0698 
G01 X-41.1307 Y41.9054 
G01 X-41.1388 Y41.8973 
G01 X-38.0873 Y41.8973 
G01 X-38.0873 Y43.0438 
G01 X-38.0954 Y43.0357 
G00 Z2.5400 
G00 X-40.3781 Y46.7853 
G01 Z-0.1778 F254.00 
G01 X-40.4791 Y46.8437 F508.00 
G01 X-40.5714 Y46.9359 
G01 X-40.6366 Y47.0488 
G01 X-40.6703 Y47.1748 
G01 X-40.6703 Y49.8452 
G01 X-40.6366 Y49.9712 
G01 X-40.5827 Y50.0644 
G01 X-41.7673 Y50.0644 
G01 X-41.7135 Y49.9712 
G01 X-41.6797 Y49.8452 
G01 X-41.6797 Y48.2748 
G01 X-41.5133 Y48.1084 
G01 X-41.4266 Y48.0217 
G01 X-41.3585 Y47.9198 
G01 X-41.3116 Y47.8065 
G01 X-41.2877 Y47.6863 
G01 X-41.2877 Y46.7853 
G01 X-40.3781 Y46.7853 
G00 Z2.5400 
G00 X-42.6570 Y46.7447 
G01 Z-0.1778 F254.00 
G01 X-42.5559 Y46.6863 F508.00 
G01 X-42.5323 Y46.6627 
G01 X-42.5323 Y46.7447 
G01 X-42.6570 Y46.7447 
G00 Z2.5400 
G00 X-42.5559 Y44.3937 
G01 Z-0.1778 F254.00 
G01 X-42.5577 Y44.3926 F508.00 
G01 X-42.5577 Y43.3162 
G01 X-42.5496 Y43.3243 
G01 X-42.5323 Y43.3359 
G01 X-42.5323 Y44.4173 
G01 X-42.5559 Y44.3937 
G00 Z2.5400 
G00 X-7.7553 Y4.9703 
G01 Z-0.1778 F254.00 
G01 X-8.3464 Y5.5613 F508.00 
G01 X-8.3447 Y5.5552 
G01 X-8.3447 Y4.7798 
G01 X-7.7553 Y4.1904 
G01 X-7.7553 Y4.9703 
G00 Z2.5400 
G00 X-9.5123 Y43.8763 
G01 Z-0.1778 F254.00 
G01 X-9.5123 Y44.1947 F508.00 
G01 X-9.5377 Y44.1947 
G01 X-9.5377 Y30.6359 
G01 X-9.5204 Y30.6243 
G01 X-9.5123 Y30.6162 
G01 X-9.5123 Y43.8763 
G00 Z2.5400 
G00 X-9.5296 Y14.7493 
G01 Z-0.1778 F254.00 
G01 X-9.3652 Y14.8591 F508.00 
G01 X-9.1827 Y14.9347 
G01 X-8.9888 Y14.9733 
G01 X-8.7912 Y14.9733 
G01 X-8.5973 Y14.9347 
G01 X-8.4148 Y14.8591 
G01 X-8.2504 Y14.7493 
G01 X-8.1107 Y14.6096 
G01 X-8.0009 Y14.4452 
G01 X-7.9253 Y14.2627 
G01 X-7.8867 Y14.0688 
G01 X-7.8867 Y13.8712 
G01 X-7.9253 Y13.6773 
G01 X-8.0009 Y13.4948 
G01 X-8.1107 Y13.3304 
G01 X-8.2504 Y13.1907 
G01 X-8.2677 Y13.1791 
G01 X-8.2677 Y7.2428 
G01 X-7.0102 Y5.9853 
G01 X-5.8948 Y5.9853 
G01 X-5.7689 Y5.9515 
G01 X-5.6600 Y5.8887 
G01 X-5.5512 Y5.9515 
G01 X-5.4252 Y5.9853 
G01 X-4.4198 Y5.9853 
G01 X-3.7973 Y6.6078 
G01 X-3.7973 Y27.3177 
G01 X-4.9241 Y27.3177 
G01 X-4.9357 Y27.3004 
G01 X-5.0754 Y27.1607 
G01 X-5.2398 Y27.0509 
G01 X-5.4223 Y26.9753 
G01 X-5.6162 Y26.9367 
G01 X-5.8138 Y26.9367 
G01 X-6.0076 Y26.9753 
G01 X-6.1902 Y27.0509 
G01 X-6.3546 Y27.1607 
G01 X-6.4943 Y27.3004 
G01 X-6.6041 Y27.4648 
G01 X-6.6797 Y27.6473 
G01 X-6.7183 Y27.8412 
G01 X-6.7183 Y28.0388 
G01 X-6.6797 Y28.2326 
G01 X-6.6041 Y28.4152 
G01 X-6.4943 Y28.5796 
G01 X-6.3546 Y28.7193 
G01 X-6.1902 Y28.8291 
G01 X-6.0076 Y28.9047 
G01 X-5.8138 Y28.9433 
G01 X-5.6162 Y28.9433 
G01 X-5.4223 Y28.9047 
G01 X-5.2398 Y28.8291 
G01 X-5.0754 Y28.7193 
G01 X-4.9357 Y28.5796 
G01 X-4.9241 Y28.5623 
G01 X-3.7973 Y28.5623 
G01 X-3.7973 Y44.2351 
G01 X-3.8089 Y44.2285 
G01 X-3.9348 Y44.1947 
G01 X-4.5122 Y44.1947 
G01 X-4.5285 Y44.1552 
G01 X-4.5966 Y44.0533 
G01 X-5.2316 Y43.4183 
G01 X-5.3183 Y43.3316 
G01 X-5.4202 Y43.2635 
G01 X-5.5335 Y43.2166 
G01 X-5.6537 Y43.1927 
G01 X-8.2677 Y43.1927 
G01 X-8.2677 Y29.3659 
G01 X-8.2504 Y29.3543 
G01 X-8.1107 Y29.2146 
G01 X-8.0009 Y29.0502 
G01 X-7.9253 Y28.8677 
G01 X-7.8867 Y28.6738 
G01 X-7.8867 Y28.4762 
G01 X-7.9253 Y28.2823 
G01 X-8.0009 Y28.0998 
G01 X-8.1107 Y27.9354 
G01 X-8.2504 Y27.7957 
G01 X-8.4148 Y27.6859 
G01 X-8.5973 Y27.6103 
G01 X-8.7912 Y27.5717 
G01 X-8.9888 Y27.5717 
G01 X-9.1827 Y27.6103 
G01 X-9.3652 Y27.6859 
G01 X-9.5296 Y27.7957 
G01 X-9.5377 Y27.8038 
G01 X-9.5377 Y14.7412 
G01 X-9.5296 Y14.7493 
G00 Z2.5400 
G00 X-8.7748 Y5.9853 
G01 Z-0.1778 F254.00 
G01 X-8.7687 Y5.9836 F508.00 
G01 X-9.2867 Y6.5016 
G01 X-9.3734 Y6.5883 
G01 X-9.4415 Y6.6902 
G01 X-9.4884 Y6.8035 
G01 X-9.5123 Y6.9237 
G01 X-9.5123 Y13.1791 
G01 X-9.5296 Y13.1907 
G01 X-9.5377 Y13.1988 
G01 X-9.5377 Y5.9853 
G01 X-8.7748 Y5.9853 
G00 Z2.5400 
G00 X-10.7904 Y13.1907 
G01 Z-0.1778 F254.00 
G01 X-10.8077 Y13.1791 F508.00 
G01 X-10.8077 Y5.9853 
G01 X-10.7823 Y5.9853 
G01 X-10.7823 Y13.1988 
G01 X-10.7904 Y13.1907 
G00 Z2.5400 
G00 X-13.3477 Y3.3753 
G01 Z-0.1778 F254.00 
G01 X-13.1453 Y3.3753 F508.00 
G01 X-13.1834 Y3.4133 
G01 X-13.2515 Y3.5152 
G01 X-13.2984 Y3.6285 
G01 X-13.3223 Y3.7487 
G01 X-13.3223 Y27.1491 
G01 X-13.3396 Y27.1607 
G01 X-13.3477 Y27.1688 
G01 X-13.3477 Y3.3753 
G00 Z2.5400 
G00 X-13.3477 Y46.7447 
G01 Z-0.1778 F254.00 
G01 X-13.3477 Y28.7112 F508.00 
G01 X-13.3396 Y28.7193 
G01 X-13.3223 Y28.7309 
G01 X-13.3223 Y46.4163 
G01 X-13.2984 Y46.5365 
G01 X-13.2515 Y46.6498 
G01 X-13.1880 Y46.7447 
G01 X-13.3477 Y46.7447 
G00 Z2.5400 
G00 X-12.0696 Y14.7493 
G01 Z-0.1778 F254.00 
G01 X-11.9052 Y14.8591 F508.00 
G01 X-11.7226 Y14.9347 
G01 X-11.5288 Y14.9733 
G01 X-11.3312 Y14.9733 
G01 X-11.1373 Y14.9347 
G01 X-10.9548 Y14.8591 
G01 X-10.7904 Y14.7493 
G01 X-10.7823 Y14.7412 
G01 X-10.7823 Y29.0541 
G01 X-10.7996 Y29.0657 
G01 X-10.9393 Y29.2054 
G01 X-11.0491 Y29.3698 
G01 X-11.1247 Y29.5523 
G01 X-11.1633 Y29.7462 
G01 X-11.1633 Y29.9438 
G01 X-11.1247 Y30.1377 
G01 X-11.0491 Y30.3202 
G01 X-10.9393 Y30.4846 
G01 X-10.7996 Y30.6243 
G01 X-10.7823 Y30.6359 
G01 X-10.7823 Y44.1947 
G01 X-11.7452 Y44.1947 
G01 X-11.8712 Y44.2285 
G01 X-11.9842 Y44.2937 
G01 X-12.0764 Y44.3859 
G01 X-12.0777 Y28.7309 
G01 X-12.0604 Y28.7193 
G01 X-11.9207 Y28.5796 
G01 X-11.8109 Y28.4152 
G01 X-11.7353 Y28.2326 
G01 X-11.6967 Y28.0388 
G01 X-11.6967 Y27.8412 
G01 X-11.7353 Y27.6473 
G01 X-11.8109 Y27.4648 
G01 X-11.9207 Y27.3004 
G01 X-12.0604 Y27.1607 
G01 X-12.0777 Y27.1491 
G01 X-12.0777 Y14.7412 
G01 X-12.0696 Y14.7493 
G00 Z2.5400 
G00 X-12.0523 Y5.9853 
G01 Z-0.1778 F254.00 
G01 X-12.0523 Y13.1791 F508.00 
G01 X-12.0696 Y13.1907 
G01 X-12.0777 Y13.1988 
G01 X-12.0777 Y5.9853 
G01 X-12.0523 Y5.9853 
G00 Z2.5400 
G00 X-10.7098 Y46.6853 
G01 Z-0.1778 F254.00 
G01 X-10.6504 Y46.7447 F508.00 
G01 X-11.1002 Y46.7447 
G01 X-11.2262 Y46.7784 
G01 X-11.3342 Y46.8408 
G01 X-11.4896 Y46.6853 
G01 X-10.7098 Y46.6853 
G00 Z2.5400 
G00 X-11.5303 Y49.8452 
G01 Z-0.1778 F254.00 
G01 X-11.4966 Y49.9712 F508.00 
G01 X-11.4427 Y50.0644 
G01 X-12.6273 Y50.0644 
G01 X-12.5735 Y49.9712 
G01 X-12.5397 Y49.8452 
G01 X-12.5397 Y47.3954 
G01 X-11.5303 Y48.4048 
G01 X-11.5303 Y49.8452 
G00 Z2.5400 
G00 X-38.4098 Y0.2048 
G01 Z-0.1778 F254.00 
G01 X-38.4435 Y0.0788 F508.00 
G01 X-38.5087 Y-0.0341 
G01 X-38.6009 Y-0.1263 
G01 X-38.7139 Y-0.1915 
G01 X-38.8398 Y-0.2253 
G01 X-40.2403 Y-0.2253 
G01 X-40.3662 Y-0.1915 
G01 X-40.4792 Y-0.1263 
G01 X-40.5714 Y-0.0341 
G01 X-40.6366 Y0.0788 
G01 X-40.6704 Y0.2048 
G01 X-40.6704 Y2.8752 
G01 X-40.6366 Y3.0012 
G01 X-40.5714 Y3.1141 
G01 X-40.4792 Y3.2063 
G01 X-40.3662 Y3.2715 
G01 X-40.2799 Y3.2947 
G01 X-41.2852 Y3.2947 
G01 X-41.2877 Y2.4787 
G01 X-41.3116 Y2.3585 
G01 X-41.3585 Y2.2452 
G01 X-41.4266 Y2.1433 
G01 X-41.5133 Y2.0566 
G01 X-41.6798 Y1.8902 
G01 X-41.6798 Y0.2048 
G01 X-41.7135 Y0.0788 
G01 X-41.7787 Y-0.0341 
G01 X-41.8709 Y-0.1263 
G01 X-41.9839 Y-0.1915 
G01 X-42.1098 Y-0.2253 
G01 X-43.5103 Y-0.2253 
G01 X-43.6362 Y-0.1915 
G01 X-43.7492 Y-0.1263 
G01 X-43.8414 Y-0.0341 
G01 X-43.9066 Y0.0788 
G01 X-43.9404 Y0.2048 
G01 X-43.9404 Y2.8046 
G01 X-43.9666 Y2.7783 
G01 X-44.0533 Y2.6916 
G01 X-44.1552 Y2.6235 
G01 X-44.2685 Y2.5766 
G01 X-44.3887 Y2.5527 
G01 X-44.9498 Y2.5527 
G01 X-44.9498 Y0.2048 
G01 X-44.9835 Y0.0788 
G01 X-45.0487 Y-0.0341 
G01 X-45.1409 Y-0.1263 
G01 X-45.2539 Y-0.1915 
G01 X-45.3798 Y-0.2253 
G01 X-46.7803 Y-0.2253 
G01 X-46.9062 Y-0.1915 
G01 X-47.0192 Y-0.1263 
G01 X-47.1114 Y-0.0341 
G01 X-47.1766 Y0.0788 
G01 X-47.2104 Y0.2048 
G01 X-47.2104 Y1.8803 
G01 X-47.3867 Y2.0566 
G01 X-47.4734 Y2.1433 
G01 X-47.5415 Y2.2452 
G01 X-47.5884 Y2.3585 
G01 X-47.6123 Y2.4787 
G01 X-47.6123 Y47.6863 
G01 X-47.5884 Y47.8065 
G01 X-47.5415 Y47.9198 
G01 X-47.4734 Y48.0217 
G01 X-47.2103 Y48.2847 
G01 X-47.2103 Y49.8452 
G01 X-47.1766 Y49.9712 
G01 X-47.1227 Y50.0644 
G01 X-50.0644 Y50.0644 
G01 X-50.0644 Y-1.0170 
G01 X1.0170 Y-1.0170 
G01 X1.0170 Y50.0644 
G01 X-2.8173 Y50.0644 
G01 X-2.7635 Y49.9712 
G01 X-2.7297 Y49.8452 
G01 X-2.7297 Y47.1748 
G01 X-2.7635 Y47.0488 
G01 X-2.8287 Y46.9359 
G01 X-2.8522 Y46.9123 
G01 X-2.6916 Y46.7517 
G01 X-2.6235 Y46.6498 
G01 X-2.5766 Y46.5365 
G01 X-2.5527 Y46.4163 
G01 X-2.5527 Y6.2887 
G01 X-2.5766 Y6.1685 
G01 X-2.6235 Y6.0552 
G01 X-2.6916 Y5.9533 
G01 X-2.7783 Y5.8666 
G01 X-3.5647 Y5.0802 
G01 X-3.5647 Y3.9248 
G01 X-3.5985 Y3.7988 
G01 X-3.6637 Y3.6859 
G01 X-3.7559 Y3.5936 
G01 X-3.8227 Y3.5551 
G01 X-3.8227 Y3.3753 
G01 X-3.2498 Y3.3753 
G01 X-3.1238 Y3.3415 
G01 X-3.0109 Y3.2763 
G01 X-2.9187 Y3.1841 
G01 X-2.8535 Y3.0712 
G01 X-2.8197 Y2.9452 
G01 X-2.8197 Y0.2748 
G01 X-2.8535 Y0.1488 
G01 X-2.9187 Y0.0358 
G01 X-3.0109 Y-0.0564 
G01 X-3.1238 Y-0.1216 
G01 X-3.2498 Y-0.1553 
G01 X-4.6502 Y-0.1553 
G01 X-4.7762 Y-0.1216 
G01 X-4.8891 Y-0.0564 
G01 X-4.9814 Y0.0358 
G01 X-5.0466 Y0.1488 
G01 X-5.0803 Y0.2748 
G01 X-5.0803 Y2.9452 
G01 X-5.0673 Y2.9938 
G01 X-5.0673 Y3.4947 
G01 X-5.4252 Y3.4947 
G01 X-5.5512 Y3.5284 
G01 X-5.6600 Y3.5913 
G01 X-5.7689 Y3.5284 
G01 X-5.8948 Y3.4947 
G01 X-7.0852 Y3.4947 
G01 X-7.0685 Y3.4698 
G01 X-7.0294 Y3.3753 
G01 X-6.5198 Y3.3753 
G01 X-6.3938 Y3.3415 
G01 X-6.2809 Y3.2763 
G01 X-6.1887 Y3.1841 
G01 X-6.1235 Y3.0712 
G01 X-6.0897 Y2.9452 
G01 X-6.0897 Y0.2748 
G01 X-6.1235 Y0.1488 
G01 X-6.1887 Y0.0358 
G01 X-6.2809 Y-0.0564 
G01 X-6.3938 Y-0.1216 
G01 X-6.5198 Y-0.1553 
G01 X-7.9202 Y-0.1553 
G01 X-8.0462 Y-0.1216 
G01 X-8.1591 Y-0.0564 
G01 X-8.2514 Y0.0358 
G01 X-8.3166 Y0.1488 
G01 X-8.3503 Y0.2748 
G01 X-8.3503 Y2.9452 
G01 X-8.3334 Y3.0083 
G01 X-8.8197 Y3.4947 
G01 X-10.2052 Y3.4947 
G01 X-10.3312 Y3.5284 
G01 X-10.4400 Y3.5913 
G01 X-10.5488 Y3.5284 
G01 X-10.6748 Y3.4947 
G01 X-11.5046 Y3.4947 
G01 X-11.3385 Y3.3286 
G01 X-11.3162 Y3.3415 
G01 X-11.1902 Y3.3753 
G01 X-9.7898 Y3.3753 
G01 X-9.6638 Y3.3415 
G01 X-9.5509 Y3.2763 
G01 X-9.4587 Y3.1841 
G01 X-9.3935 Y3.0712 
G01 X-9.3597 Y2.9452 
G01 X-9.3597 Y0.2748 
G01 X-9.3935 Y0.1488 
G01 X-9.4587 Y0.0358 
G01 X-9.5509 Y-0.0564 
G01 X-9.6638 Y-0.1216 
G01 X-9.7898 Y-0.1553 
G01 X-11.1902 Y-0.1553 
G01 X-11.3162 Y-0.1216 
G01 X-11.4291 Y-0.0564 
G01 X-11.5214 Y0.0358 
G01 X-11.5866 Y0.1488 
G01 X-11.6203 Y0.2748 
G01 X-11.6203 Y1.8503 
G01 X-12.6297 Y2.8597 
G01 X-12.6297 Y0.2748 
G01 X-12.6635 Y0.1488 
G01 X-12.7287 Y0.0358 
G01 X-12.8209 Y-0.0564 
G01 X-12.9338 Y-0.1216 
G01 X-13.0598 Y-0.1553 
G01 X-14.4602 Y-0.1553 
G01 X-14.5862 Y-0.1216 
G01 X-14.6991 Y-0.0564 
G01 X-14.7914 Y0.0358 
G01 X-14.8566 Y0.1488 
G01 X-14.8903 Y0.2748 
G01 X-14.8903 Y2.9452 
G01 X-14.8566 Y3.0712 
G01 X-14.7914 Y3.1841 
G01 X-14.6991 Y3.2763 
G01 X-14.5923 Y3.3380 
G01 X-14.5923 Y26.6827 
G01 X-19.5291 Y26.6827 
G01 X-19.5407 Y26.6654 
G01 X-19.6804 Y26.5257 
G01 X-19.8448 Y26.4159 
G01 X-20.0273 Y26.3403 
G01 X-20.2212 Y26.3017 
G01 X-20.4188 Y26.3017 
G01 X-20.6127 Y26.3403 
G01 X-20.7952 Y26.4159 
G01 X-20.9596 Y26.5257 
G01 X-21.0993 Y26.6654 
G01 X-21.2091 Y26.8298 
G01 X-21.2847 Y27.0123 
G01 X-21.3233 Y27.2062 
G01 X-21.3233 Y27.4038 
G01 X-21.2847 Y27.5977 
G01 X-21.2091 Y27.7802 
G01 X-21.0993 Y27.9446 
G01 X-20.9596 Y28.0843 
G01 X-20.7952 Y28.1941 
G01 X-20.6127 Y28.2697 
G01 X-20.4188 Y28.3083 
G01 X-20.2212 Y28.3083 
G01 X-20.0273 Y28.2697 
G01 X-19.8448 Y28.1941 
G01 X-19.6804 Y28.0843 
G01 X-19.5407 Y27.9446 
G01 X-19.5291 Y27.9273 
G01 X-14.5923 Y27.9273 
G01 X-14.5923 Y46.8339 
G01 X-14.6091 Y46.8437 
G01 X-14.7013 Y46.9359 
G01 X-14.7666 Y47.0488 
G01 X-14.8003 Y47.1748 
G01 X-14.8003 Y49.8452 
G01 X-14.7666 Y49.9712 
G01 X-14.7127 Y50.0644 
G01 X-35.2273 Y50.0644 
G01 X-35.1735 Y49.9712 
G01 X-35.1397 Y49.8452 
G01 X-35.1397 Y47.1748 
G01 X-35.1735 Y47.0488 
G01 X-35.2387 Y46.9359 
G01 X-35.3309 Y46.8437 
G01 X-35.4438 Y46.7784 
G01 X-35.5698 Y46.7447 
G01 X-35.5727 Y46.7447 
G01 X-35.5727 Y6.7183 
G01 X-35.4612 Y6.7183 
G01 X-35.2673 Y6.6797 
G01 X-35.0848 Y6.6041 
G01 X-34.9204 Y6.4943 
G01 X-34.7807 Y6.3546 
G01 X-34.6709 Y6.1902 
G01 X-34.5953 Y6.0076 
G01 X-34.5567 Y5.8138 
G01 X-34.5567 Y5.6162 
G01 X-34.5953 Y5.4223 
G01 X-34.6709 Y5.2398 
G01 X-34.7807 Y5.0754 
G01 X-34.9204 Y4.9357 
G01 X-34.9377 Y4.9241 
G01 X-34.9377 Y2.4787 
G01 X-34.9616 Y2.3585 
G01 X-35.0085 Y2.2452 
G01 X-35.0766 Y2.1433 
G01 X-35.1398 Y2.0802 
G01 X-35.1398 Y0.2048 
G01 X-35.1735 Y0.0788 
G01 X-35.2387 Y-0.0341 
G01 X-35.3309 Y-0.1263 
G01 X-35.4439 Y-0.1915 
G01 X-35.5698 Y-0.2253 
G01 X-36.9703 Y-0.2253 
G01 X-37.0962 Y-0.1915 
G01 X-37.2092 Y-0.1263 
G01 X-37.3014 Y-0.0341 
G01 X-37.3666 Y0.0788 
G01 X-37.4004 Y0.2048 
G01 X-37.4004 Y2.8752 
G01 X-37.3666 Y3.0012 
G01 X-37.3295 Y3.0654 
G01 X-38.4098 Y1.9852 
G01 X-38.4098 Y0.2048 
G00 Z2.5400 
G00 X-42.5952 Y3.3053 
G01 Z-0.1778 F254.00 
G01 X-42.5323 Y3.3053 F508.00 
G01 X-42.5323 Y3.3222 
G01 X-42.5952 Y3.3053 
G00 Z2.5400 
G00 X-8.4148 Y46.6853 
G01 Z-0.1778 F254.00 
G01 X-8.2889 Y46.6515 F508.00 
G01 X-8.1759 Y46.5863 
