(.../pcb-gcode-3.6.0.4/pcb-gcode.ulp)
(Copyright 2005 - 2012 by John Johnson)
(See readme.txt for licensing terms.)
(This file generated from the board:)
(.../Probatio5Pins/Probatio5Pins_v0.0.2.brd)
(Current profile is .../pcb-gcode-3.6.0.4/profiles/generic.pp  )
(This file generated 6/16/16 08:16)
(Settings from pcb-machine.h)
(  Tool Size)
(0.1778 )
(Z Axis Settings)
(  High     Up        Down     Drill)
(12.7000 	2.5400 	-0.1778 	-0.8128 )
(spindle on time = 3.0000)
(milling depth = -0.2540)
(text depth = -0.1270)
(tool change at 12.7000 15.2400 25.4000 )
(feed rate xy = F508.00 )
(feed rate z  = F254.00 )
(Settings from pcb-defaults.h)
(isolate min = 0.0254)
(isolate max = 0.5080)
(isolate step = 0.1270)
(Generated top outlines, bottom outlines, )
(Unit of measure: mm)
(Metric Mode)
G21
(Absolute Coordinates)
G90
G00 X0.0000 Y0.0000 
M03
G04 P3.000000
G00 Z2.5400 
G00 X24.9133 Y25.0866 
G01 Z-0.1778 F254.00 
G01 X25.0866 Y25.0866 F508.00 
G01 X25.0866 Y24.9133 
G01 X24.9133 Y24.9133 
G01 X24.9133 Y25.0866 
G00 Z2.5400 
G00 X36.3996 Y9.6617 
G01 Z-0.1778 F254.00 
G01 X36.3317 Y9.7296 F508.00 
G01 X36.2430 Y9.7663 
G01 X27.1091 Y9.7663 
G01 X27.0768 Y10.0120 
G01 X27.0051 Y10.2797 
G01 X26.8990 Y10.5358 
G01 X26.7604 Y10.7758 
G01 X26.5917 Y10.9957 
G01 X26.3957 Y11.1917 
G01 X26.1758 Y11.3604 
G01 X25.9358 Y11.4990 
G01 X25.6798 Y11.6050 
G01 X25.4120 Y11.6768 
G01 X25.1373 Y11.7130 
G01 X24.8601 Y11.7130 
G01 X24.5853 Y11.6768 
G01 X24.3176 Y11.6050 
G01 X24.0615 Y11.4990 
G01 X23.8750 Y11.3913 
G01 X22.4296 Y12.8367 
G01 X22.3617 Y12.9046 
G01 X22.2730 Y12.9413 
G01 X8.9900 Y12.9413 
G01 X7.8613 Y14.0700 
G01 X7.8613 Y23.7898 
G01 X8.0056 Y23.6016 
G01 X8.2016 Y23.4057 
G01 X8.4215 Y23.2369 
G01 X8.6615 Y23.0984 
G01 X8.9176 Y22.9923 
G01 X9.1853 Y22.9206 
G01 X9.4601 Y22.8844 
G01 X9.7372 Y22.8844 
G01 X10.0120 Y22.9206 
G01 X10.2797 Y22.9923 
G01 X10.5358 Y23.0984 
G01 X10.7758 Y23.2369 
G01 X10.9957 Y23.4057 
G01 X11.1917 Y23.6016 
G01 X11.3604 Y23.8215 
G01 X11.4990 Y24.0615 
G01 X11.6050 Y24.3176 
G01 X11.6768 Y24.5853 
G01 X11.7130 Y24.8601 
G01 X11.7130 Y25.1373 
G01 X11.6768 Y25.4120 
G01 X11.6050 Y25.6798 
G01 X11.4990 Y25.9358 
G01 X11.3604 Y26.1758 
G01 X11.1917 Y26.3957 
G01 X10.9957 Y26.5917 
G01 X10.7758 Y26.7604 
G01 X10.5358 Y26.8990 
G01 X10.2797 Y27.0051 
G01 X10.0120 Y27.0768 
G01 X9.7372 Y27.1130 
G01 X9.4601 Y27.1130 
G01 X9.1853 Y27.0768 
G01 X8.9176 Y27.0051 
G01 X8.6615 Y26.8990 
G01 X8.4215 Y26.7604 
G01 X8.2016 Y26.5917 
G01 X8.0056 Y26.3957 
G01 X7.8613 Y26.2076 
G01 X7.8613 Y28.4750 
G01 X8.9900 Y29.6037 
G01 X9.5864 Y29.6037 
G01 X9.6085 Y29.5502 
G01 X9.6766 Y29.4483 
G01 X9.7633 Y29.3616 
G01 X9.8652 Y29.2935 
G01 X9.9785 Y29.2466 
G01 X10.0987 Y29.2227 
G01 X10.2213 Y29.2227 
G01 X10.3415 Y29.2466 
G01 X10.4548 Y29.2935 
G01 X10.5567 Y29.3616 
G01 X10.6434 Y29.4483 
G01 X10.7115 Y29.5502 
G01 X10.7336 Y29.6037 
G01 X14.6530 Y29.6037 
G01 X14.7417 Y29.6404 
G01 X14.8096 Y29.7083 
G01 X23.7744 Y38.6731 
G01 X23.8215 Y38.6370 
G01 X24.0615 Y38.4984 
G01 X24.3176 Y38.3923 
G01 X24.5853 Y38.3206 
G01 X24.8601 Y38.2844 
G01 X25.1373 Y38.2844 
G01 X25.4120 Y38.3206 
G01 X25.6798 Y38.3923 
G01 X25.9358 Y38.4984 
G01 X26.1758 Y38.6370 
G01 X26.3957 Y38.8057 
G01 X26.5917 Y39.0017 
G01 X26.7604 Y39.2215 
G01 X26.8990 Y39.4616 
G01 X27.0051 Y39.7176 
G01 X27.0768 Y39.9853 
G01 X27.1130 Y40.2601 
G01 X27.1130 Y40.5373 
G01 X27.0768 Y40.8121 
G01 X27.0051 Y41.0798 
G01 X26.8990 Y41.3358 
G01 X26.7604 Y41.5759 
G01 X26.5917 Y41.7957 
G01 X26.3957 Y41.9917 
G01 X26.1758 Y42.1604 
G01 X25.9358 Y42.2990 
G01 X25.6798 Y42.4051 
G01 X25.4120 Y42.4768 
G01 X25.1373 Y42.5130 
G01 X24.8601 Y42.5130 
G01 X24.5853 Y42.4768 
G01 X24.3176 Y42.4051 
G01 X24.0615 Y42.2990 
G01 X23.8215 Y42.1604 
G01 X23.6016 Y41.9917 
G01 X23.4057 Y41.7957 
G01 X23.2369 Y41.5759 
G01 X23.0984 Y41.3358 
G01 X22.9923 Y41.0798 
G01 X22.9206 Y40.8121 
G01 X22.8844 Y40.5373 
G01 X22.8844 Y40.2601 
G01 X22.9206 Y39.9853 
G01 X22.9923 Y39.7176 
G01 X23.0984 Y39.4616 
G01 X23.2369 Y39.2215 
G01 X23.4057 Y39.0017 
G01 X23.4130 Y38.9943 
G01 X14.5050 Y30.0863 
G01 X10.7336 Y30.0863 
G01 X10.7115 Y30.1398 
G01 X10.6434 Y30.2417 
G01 X10.5567 Y30.3284 
G01 X10.4548 Y30.3965 
G01 X10.3415 Y30.4434 
G01 X10.2213 Y30.4673 
G01 X10.0987 Y30.4673 
G01 X9.9785 Y30.4434 
G01 X9.8652 Y30.3965 
G01 X9.7633 Y30.3284 
G01 X9.6766 Y30.2417 
G01 X9.6085 Y30.1398 
G01 X9.5864 Y30.0863 
G01 X8.8420 Y30.0863 
G01 X8.7533 Y30.0496 
G01 X7.4833 Y28.7796 
G01 X7.4154 Y28.7117 
G01 X7.3787 Y28.6230 
G01 X7.3787 Y24.7984 
G01 X7.3747 Y24.7844 
G01 X7.3787 Y24.7508 
G01 X7.3787 Y13.9220 
G01 X7.4154 Y13.8333 
G01 X7.4833 Y13.7654 
G01 X8.7533 Y12.4954 
G01 X8.8420 Y12.4587 
G01 X22.1250 Y12.4587 
G01 X23.4969 Y11.0869 
G01 X23.4057 Y10.9957 
G01 X23.2369 Y10.7758 
G01 X23.0984 Y10.5358 
G01 X22.9923 Y10.2797 
G01 X22.9206 Y10.0120 
G01 X22.8844 Y9.7372 
G01 X22.8844 Y9.4601 
G01 X22.9206 Y9.1853 
G01 X22.9923 Y8.9176 
G01 X23.0984 Y8.6615 
G01 X23.2369 Y8.4215 
G01 X23.4057 Y8.2016 
G01 X23.6016 Y8.0056 
G01 X23.8215 Y7.8369 
G01 X24.0615 Y7.6983 
G01 X24.3176 Y7.5923 
G01 X24.5853 Y7.5205 
G01 X24.8601 Y7.4844 
G01 X25.1373 Y7.4844 
G01 X25.4120 Y7.5205 
G01 X25.6798 Y7.5923 
G01 X25.9358 Y7.6983 
G01 X26.1758 Y7.8369 
G01 X26.3957 Y8.0056 
G01 X26.5917 Y8.2016 
G01 X26.7604 Y8.4215 
G01 X26.8990 Y8.6615 
G01 X27.0051 Y8.9176 
G01 X27.0768 Y9.1853 
G01 X27.0898 Y9.2837 
G01 X36.0950 Y9.2837 
G01 X36.8888 Y8.4900 
G01 X36.8666 Y8.4365 
G01 X36.8427 Y8.3163 
G01 X36.8427 Y8.1937 
G01 X36.8666 Y8.0735 
G01 X36.9135 Y7.9602 
G01 X36.9816 Y7.8583 
G01 X37.0683 Y7.7716 
G01 X37.1702 Y7.7035 
G01 X37.2835 Y7.6566 
G01 X37.4037 Y7.6327 
G01 X37.5263 Y7.6327 
G01 X37.6465 Y7.6566 
G01 X37.7598 Y7.7035 
G01 X37.8617 Y7.7716 
G01 X37.9484 Y7.8583 
G01 X38.0165 Y7.9602 
G01 X38.0634 Y8.0735 
G01 X38.0873 Y8.1937 
G01 X38.0873 Y8.3163 
G01 X38.0634 Y8.4365 
G01 X38.0165 Y8.5498 
G01 X37.9484 Y8.6517 
G01 X37.8617 Y8.7384 
G01 X37.7598 Y8.8065 
G01 X37.6465 Y8.8534 
G01 X37.5263 Y8.8773 
G01 X37.4037 Y8.8773 
G01 X37.2835 Y8.8534 
G01 X37.2300 Y8.8312 
G01 X36.3996 Y9.6617 
G00 Z2.5400 
G00 X29.8930 Y28.1813 
G01 Z-0.1778 F254.00 
G01 X29.7970 Y28.1813 F508.00 
G01 X29.7083 Y28.1446 
G01 X28.3439 Y26.7801 
G01 X28.1380 Y26.8990 
G01 X27.8819 Y27.0051 
G01 X27.6142 Y27.0768 
G01 X27.3394 Y27.1130 
G01 X27.1130 Y27.1130 
G01 X27.1130 Y27.3394 
G01 X27.0768 Y27.6142 
G01 X27.0051 Y27.8819 
G01 X26.8990 Y28.1380 
G01 X26.7604 Y28.3780 
G01 X26.5917 Y28.5979 
G01 X26.3957 Y28.7939 
G01 X26.1758 Y28.9626 
G01 X25.9358 Y29.1012 
G01 X25.6798 Y29.2072 
G01 X25.4120 Y29.2790 
G01 X25.1373 Y29.3152 
G01 X24.8601 Y29.3152 
G01 X24.5853 Y29.2790 
G01 X24.3176 Y29.2072 
G01 X24.0615 Y29.1012 
G01 X23.8215 Y28.9626 
G01 X23.6016 Y28.7939 
G01 X23.4057 Y28.5979 
G01 X23.2369 Y28.3780 
G01 X23.0984 Y28.1380 
G01 X22.9923 Y27.8819 
G01 X22.9206 Y27.6142 
G01 X22.8844 Y27.3394 
G01 X22.8844 Y27.1130 
G01 X22.6605 Y27.1130 
G01 X22.3857 Y27.0768 
G01 X22.1180 Y27.0051 
G01 X21.8619 Y26.8990 
G01 X21.6219 Y26.7604 
G01 X21.4020 Y26.5917 
G01 X21.3883 Y26.5780 
G01 X20.8962 Y27.0700 
G01 X20.9184 Y27.1235 
G01 X20.9423 Y27.2437 
G01 X20.9423 Y27.3663 
G01 X20.9184 Y27.4865 
G01 X20.8715 Y27.5998 
G01 X20.8034 Y27.7017 
G01 X20.7167 Y27.7884 
G01 X20.6148 Y27.8565 
G01 X20.5015 Y27.9034 
G01 X20.3813 Y27.9273 
G01 X20.2587 Y27.9273 
G01 X20.1385 Y27.9034 
G01 X20.0252 Y27.8565 
G01 X19.9233 Y27.7884 
G01 X19.8366 Y27.7017 
G01 X19.7685 Y27.5998 
G01 X19.7216 Y27.4865 
G01 X19.6977 Y27.3663 
G01 X19.6977 Y27.2437 
G01 X19.7216 Y27.1235 
G01 X19.7685 Y27.0102 
G01 X19.8366 Y26.9083 
G01 X19.9233 Y26.8216 
G01 X20.0252 Y26.7535 
G01 X20.1385 Y26.7066 
G01 X20.2587 Y26.6827 
G01 X20.3813 Y26.6827 
G01 X20.5015 Y26.7066 
G01 X20.5550 Y26.7288 
G01 X21.0680 Y26.2158 
G01 X21.0373 Y26.1758 
G01 X20.8987 Y25.9358 
G01 X20.7927 Y25.6798 
G01 X20.7209 Y25.4120 
G01 X20.6847 Y25.1373 
G01 X20.6847 Y24.8601 
G01 X20.7209 Y24.5853 
G01 X20.7927 Y24.3176 
G01 X20.8987 Y24.0615 
G01 X21.0373 Y23.8215 
G01 X21.2060 Y23.6016 
G01 X21.4020 Y23.4057 
G01 X21.6219 Y23.2369 
G01 X21.8619 Y23.0984 
G01 X22.1180 Y22.9923 
G01 X22.3857 Y22.9206 
G01 X22.6605 Y22.8844 
G01 X22.8844 Y22.8844 
G01 X22.8844 Y22.6605 
G01 X22.9206 Y22.3857 
G01 X22.9923 Y22.1180 
G01 X23.0984 Y21.8619 
G01 X23.2369 Y21.6219 
G01 X23.4057 Y21.4020 
G01 X23.6016 Y21.2060 
G01 X23.8215 Y21.0373 
G01 X24.0615 Y20.8987 
G01 X24.3176 Y20.7927 
G01 X24.5853 Y20.7209 
G01 X24.8601 Y20.6847 
G01 X25.1373 Y20.6847 
G01 X25.4120 Y20.7209 
G01 X25.6798 Y20.7927 
G01 X25.9358 Y20.8987 
G01 X26.1758 Y21.0373 
G01 X26.3957 Y21.2060 
G01 X26.5917 Y21.4020 
G01 X26.7604 Y21.6219 
G01 X26.8990 Y21.8619 
G01 X27.0051 Y22.1180 
G01 X27.0768 Y22.3857 
G01 X27.1130 Y22.6605 
G01 X27.1130 Y22.8844 
G01 X27.3394 Y22.8844 
G01 X27.6142 Y22.9206 
G01 X27.8819 Y22.9923 
G01 X28.1380 Y23.0984 
G01 X28.3780 Y23.2369 
G01 X28.5979 Y23.4057 
G01 X28.7939 Y23.6016 
G01 X28.9626 Y23.8215 
G01 X29.1012 Y24.0615 
G01 X29.2072 Y24.3176 
G01 X29.2790 Y24.5853 
G01 X29.3152 Y24.8601 
G01 X29.3152 Y25.1373 
G01 X29.2790 Y25.4120 
G01 X29.2072 Y25.6798 
G01 X29.1012 Y25.9358 
G01 X28.9626 Y26.1758 
G01 X28.7939 Y26.3957 
G01 X28.7179 Y26.4717 
G01 X29.9450 Y27.6987 
G01 X38.7964 Y27.6987 
G01 X38.8185 Y27.6452 
G01 X38.8866 Y27.5433 
G01 X38.9733 Y27.4566 
G01 X39.0752 Y27.3885 
G01 X39.1885 Y27.3416 
G01 X39.3087 Y27.3177 
G01 X39.4313 Y27.3177 
G01 X39.5515 Y27.3416 
G01 X39.6648 Y27.3885 
G01 X39.7667 Y27.4566 
G01 X39.8534 Y27.5433 
G01 X39.9215 Y27.6452 
G01 X39.9684 Y27.7585 
G01 X39.9923 Y27.8787 
G01 X39.9923 Y28.0013 
G01 X39.9684 Y28.1215 
G01 X39.9215 Y28.2348 
G01 X39.8534 Y28.3367 
G01 X39.7667 Y28.4234 
G01 X39.6648 Y28.4915 
G01 X39.5515 Y28.5384 
G01 X39.4313 Y28.5623 
G01 X39.3087 Y28.5623 
G01 X39.1885 Y28.5384 
G01 X39.0752 Y28.4915 
G01 X38.9733 Y28.4234 
G01 X38.8866 Y28.3367 
G01 X38.8185 Y28.2348 
G01 X38.7964 Y28.1813 
G01 X29.8930 Y28.1813 
G00 Z2.5400 
G00 X32.2850 Y36.4363 
G01 Z-0.1778 F254.00 
G01 X27.0705 Y36.4363 F508.00 
G01 X27.0051 Y36.6805 
G01 X26.8990 Y36.9366 
G01 X26.7604 Y37.1766 
G01 X26.5917 Y37.3965 
G01 X26.3957 Y37.5924 
G01 X26.1758 Y37.7612 
G01 X25.9358 Y37.8997 
G01 X25.6798 Y38.0058 
G01 X25.4120 Y38.0775 
G01 X25.1373 Y38.1137 
G01 X24.8601 Y38.1137 
G01 X24.5853 Y38.0775 
G01 X24.3176 Y38.0058 
G01 X24.0615 Y37.8997 
G01 X23.8215 Y37.7612 
G01 X23.6016 Y37.5924 
G01 X23.4057 Y37.3965 
G01 X23.2369 Y37.1766 
G01 X23.0984 Y36.9366 
G01 X22.9923 Y36.6805 
G01 X22.9206 Y36.4128 
G01 X22.8844 Y36.1380 
G01 X22.8844 Y35.8608 
G01 X22.9206 Y35.5861 
G01 X22.9923 Y35.3183 
G01 X23.0984 Y35.0623 
G01 X23.2369 Y34.8223 
G01 X23.4057 Y34.6024 
G01 X23.6016 Y34.4064 
G01 X23.8215 Y34.2377 
G01 X24.0615 Y34.0991 
G01 X24.3176 Y33.9930 
G01 X24.5853 Y33.9213 
G01 X24.8601 Y33.8851 
G01 X25.1373 Y33.8851 
G01 X25.4120 Y33.9213 
G01 X25.6798 Y33.9930 
G01 X25.9358 Y34.0991 
G01 X26.1758 Y34.2377 
G01 X26.3957 Y34.4064 
G01 X26.5917 Y34.6024 
G01 X26.7604 Y34.8223 
G01 X26.8990 Y35.0623 
G01 X27.0051 Y35.3183 
G01 X27.0768 Y35.5861 
G01 X27.1130 Y35.8608 
G01 X27.1130 Y35.9537 
G01 X32.4330 Y35.9537 
G01 X32.5217 Y35.9904 
G01 X32.5896 Y36.0583 
G01 X39.7700 Y43.2388 
G01 X39.8235 Y43.2166 
G01 X39.9437 Y43.1927 
G01 X40.0663 Y43.1927 
G01 X40.1865 Y43.2166 
G01 X40.2998 Y43.2635 
G01 X40.4017 Y43.3316 
G01 X40.4884 Y43.4183 
G01 X40.5565 Y43.5202 
G01 X40.5786 Y43.5737 
G01 X43.8764 Y43.5737 
G01 X43.8985 Y43.5202 
G01 X43.9666 Y43.4183 
G01 X44.0533 Y43.3316 
G01 X44.1552 Y43.2635 
G01 X44.2685 Y43.2166 
G01 X44.3887 Y43.1927 
G01 X44.5113 Y43.1927 
G01 X44.6315 Y43.2166 
G01 X44.7448 Y43.2635 
G01 X44.8467 Y43.3316 
G01 X44.9334 Y43.4183 
G01 X45.0015 Y43.5202 
G01 X45.0484 Y43.6335 
G01 X45.0723 Y43.7537 
G01 X45.0723 Y43.8763 
G01 X45.0484 Y43.9965 
G01 X45.0015 Y44.1098 
G01 X44.9334 Y44.2117 
G01 X44.8467 Y44.2984 
G01 X44.7448 Y44.3665 
G01 X44.6315 Y44.4134 
G01 X44.5113 Y44.4373 
G01 X44.3887 Y44.4373 
G01 X44.2685 Y44.4134 
G01 X44.1552 Y44.3665 
G01 X44.0533 Y44.2984 
G01 X43.9666 Y44.2117 
G01 X43.8985 Y44.1098 
G01 X43.8764 Y44.0563 
G01 X40.5786 Y44.0563 
G01 X40.5565 Y44.1098 
G01 X40.4884 Y44.2117 
G01 X40.4017 Y44.2984 
G01 X40.2998 Y44.3665 
G01 X40.1865 Y44.4134 
G01 X40.0663 Y44.4373 
G01 X39.9437 Y44.4373 
G01 X39.8235 Y44.4134 
G01 X39.7102 Y44.3665 
G01 X39.6083 Y44.2984 
G01 X39.5216 Y44.2117 
G01 X39.4535 Y44.1098 
G01 X39.4066 Y43.9965 
G01 X39.3827 Y43.8763 
G01 X39.3827 Y43.7537 
G01 X39.4066 Y43.6335 
G01 X39.4288 Y43.5800 
G01 X32.2850 Y36.4363 
G00 Z2.5400 
G00 X38.3046 Y44.5867 
G01 Z-0.1778 F254.00 
G01 X38.2367 Y44.6546 F508.00 
G01 X38.1480 Y44.6913 
G01 X27.1130 Y44.6913 
G01 X27.1130 Y44.9391 
G01 X27.0768 Y45.2139 
G01 X27.0051 Y45.4816 
G01 X26.8990 Y45.7377 
G01 X26.7604 Y45.9777 
G01 X26.5917 Y46.1976 
G01 X26.3957 Y46.3935 
G01 X26.1758 Y46.5623 
G01 X25.9358 Y46.7008 
G01 X25.6798 Y46.8069 
G01 X25.4120 Y46.8786 
G01 X25.1373 Y46.9148 
G01 X24.8601 Y46.9148 
G01 X24.5853 Y46.8786 
G01 X24.3176 Y46.8069 
G01 X24.0615 Y46.7008 
G01 X23.8215 Y46.5623 
G01 X23.6016 Y46.3935 
G01 X23.4057 Y46.1976 
G01 X23.2369 Y45.9777 
G01 X23.0984 Y45.7377 
G01 X22.9923 Y45.4816 
G01 X22.9206 Y45.2139 
G01 X22.8844 Y44.9391 
G01 X22.8844 Y44.6913 
G01 X5.6670 Y44.6913 
G01 X5.5783 Y44.6546 
G01 X5.5104 Y44.5867 
G01 X5.4737 Y44.4980 
G01 X5.4737 Y28.5136 
G01 X5.4202 Y28.4915 
G01 X5.3183 Y28.4234 
G01 X5.2316 Y28.3367 
G01 X5.1635 Y28.2348 
G01 X5.1166 Y28.1215 
G01 X5.0927 Y28.0013 
G01 X5.0927 Y27.8787 
G01 X5.1166 Y27.7585 
G01 X5.1635 Y27.6452 
G01 X5.2316 Y27.5433 
G01 X5.3183 Y27.4566 
G01 X5.4202 Y27.3885 
G01 X5.4737 Y27.3664 
G01 X5.4737 Y27.0951 
G01 X5.3380 Y27.1130 
G01 X5.0608 Y27.1130 
G01 X4.7860 Y27.0768 
G01 X4.5183 Y27.0051 
G01 X4.2622 Y26.8990 
G01 X4.0222 Y26.7604 
G01 X3.8023 Y26.5917 
G01 X3.6064 Y26.3957 
G01 X3.4376 Y26.1758 
G01 X3.2991 Y25.9358 
G01 X3.1930 Y25.6798 
G01 X3.1213 Y25.4120 
G01 X3.0851 Y25.1373 
G01 X3.0851 Y24.8601 
G01 X3.1213 Y24.5853 
G01 X3.1930 Y24.3176 
G01 X3.2991 Y24.0615 
G01 X3.4376 Y23.8215 
G01 X3.6064 Y23.6016 
G01 X3.8023 Y23.4057 
G01 X4.0222 Y23.2369 
G01 X4.2622 Y23.0984 
G01 X4.5183 Y22.9923 
G01 X4.7860 Y22.9206 
G01 X5.0608 Y22.8844 
G01 X5.3380 Y22.8844 
G01 X5.4737 Y22.9023 
G01 X5.4737 Y14.5570 
G01 X5.5104 Y14.4683 
G01 X5.5783 Y14.4004 
G01 X8.1183 Y11.8604 
G01 X8.2070 Y11.8237 
G01 X18.3150 Y11.8237 
G01 X23.4740 Y6.6648 
G01 X23.4057 Y6.5964 
G01 X23.2369 Y6.3765 
G01 X23.0984 Y6.1365 
G01 X22.9923 Y5.8805 
G01 X22.9206 Y5.6127 
G01 X22.8844 Y5.3380 
G01 X22.8844 Y5.0608 
G01 X22.9206 Y4.7860 
G01 X22.9923 Y4.5183 
G01 X23.0984 Y4.2622 
G01 X23.2369 Y4.0222 
G01 X23.4057 Y3.8023 
G01 X23.6016 Y3.6064 
G01 X23.8215 Y3.4376 
G01 X24.0615 Y3.2991 
G01 X24.3176 Y3.1930 
G01 X24.5853 Y3.1213 
G01 X24.8601 Y3.0851 
G01 X25.1373 Y3.0851 
G01 X25.4120 Y3.1213 
G01 X25.6798 Y3.1930 
G01 X25.9358 Y3.2991 
G01 X26.1758 Y3.4376 
G01 X26.3957 Y3.6064 
G01 X26.5917 Y3.8023 
G01 X26.7604 Y4.0222 
G01 X26.8990 Y4.2622 
G01 X27.0051 Y4.5183 
G01 X27.0768 Y4.7860 
G01 X27.1130 Y5.0608 
G01 X27.1130 Y5.3380 
G01 X27.0951 Y5.4737 
G01 X34.9864 Y5.4737 
G01 X35.0085 Y5.4202 
G01 X35.0766 Y5.3183 
G01 X35.1633 Y5.2316 
G01 X35.2652 Y5.1635 
G01 X35.3785 Y5.1166 
G01 X35.4987 Y5.0927 
G01 X35.6213 Y5.0927 
G01 X35.7415 Y5.1166 
G01 X35.8548 Y5.1635 
G01 X35.9567 Y5.2316 
G01 X36.0434 Y5.3183 
G01 X36.1115 Y5.4202 
G01 X36.1336 Y5.4737 
G01 X40.0530 Y5.4737 
G01 X40.1417 Y5.5104 
G01 X40.2096 Y5.5783 
G01 X40.4050 Y5.7738 
G01 X40.4585 Y5.7516 
G01 X40.5787 Y5.7277 
G01 X40.7013 Y5.7277 
G01 X40.8215 Y5.7516 
G01 X40.8750 Y5.7738 
G01 X41.7733 Y4.8754 
G01 X41.8620 Y4.8387 
G01 X44.4980 Y4.8387 
G01 X44.5867 Y4.8754 
G01 X44.6546 Y4.9433 
G01 X44.6913 Y5.0320 
G01 X44.6913 Y22.8844 
G01 X44.9391 Y22.8844 
G01 X45.2139 Y22.9206 
G01 X45.4816 Y22.9923 
G01 X45.7377 Y23.0984 
G01 X45.9777 Y23.2369 
G01 X46.1976 Y23.4057 
G01 X46.3935 Y23.6016 
G01 X46.5623 Y23.8215 
G01 X46.7008 Y24.0615 
G01 X46.8069 Y24.3176 
G01 X46.8786 Y24.5853 
G01 X46.9148 Y24.8601 
G01 X46.9148 Y25.1373 
G01 X46.8786 Y25.4120 
G01 X46.8069 Y25.6798 
G01 X46.7008 Y25.9358 
G01 X46.5623 Y26.1758 
G01 X46.3935 Y26.3957 
G01 X46.1976 Y26.5917 
G01 X45.9777 Y26.7604 
G01 X45.7377 Y26.8990 
G01 X45.4816 Y27.0051 
G01 X45.2139 Y27.0768 
G01 X44.9391 Y27.1130 
G01 X44.6619 Y27.1130 
G01 X44.3872 Y27.0768 
G01 X44.1194 Y27.0051 
G01 X43.8634 Y26.8990 
G01 X43.6234 Y26.7604 
G01 X43.4035 Y26.5917 
G01 X43.2075 Y26.3957 
G01 X43.0388 Y26.1758 
G01 X42.9002 Y25.9358 
G01 X42.7941 Y25.6798 
G01 X42.7224 Y25.4120 
G01 X42.6862 Y25.1373 
G01 X42.6862 Y24.8601 
G01 X42.7224 Y24.5853 
G01 X42.7941 Y24.3176 
G01 X42.9002 Y24.0615 
G01 X43.0388 Y23.8215 
G01 X43.2075 Y23.6016 
G01 X43.4035 Y23.4057 
G01 X43.6234 Y23.2369 
G01 X43.8634 Y23.0984 
G01 X44.1194 Y22.9923 
G01 X44.2087 Y22.9684 
G01 X44.2087 Y5.3213 
G01 X42.0100 Y5.3213 
G01 X41.2162 Y6.1150 
G01 X41.2384 Y6.1685 
G01 X41.2623 Y6.2887 
G01 X41.2623 Y6.4113 
G01 X41.2384 Y6.5315 
G01 X41.1915 Y6.6448 
G01 X41.1234 Y6.7467 
G01 X41.0367 Y6.8334 
G01 X40.9348 Y6.9015 
G01 X40.8215 Y6.9484 
G01 X40.7013 Y6.9723 
G01 X40.5787 Y6.9723 
G01 X40.4585 Y6.9484 
G01 X40.3452 Y6.9015 
G01 X40.2433 Y6.8334 
G01 X40.1566 Y6.7467 
G01 X40.0885 Y6.6448 
G01 X40.0416 Y6.5315 
G01 X40.0177 Y6.4113 
G01 X40.0177 Y6.2887 
G01 X40.0416 Y6.1685 
G01 X40.0638 Y6.1150 
G01 X39.9050 Y5.9563 
G01 X36.1336 Y5.9563 
G01 X36.1115 Y6.0098 
G01 X36.0434 Y6.1117 
G01 X35.9567 Y6.1984 
G01 X35.8548 Y6.2665 
G01 X35.7415 Y6.3134 
G01 X35.6213 Y6.3373 
G01 X35.4987 Y6.3373 
G01 X35.3785 Y6.3134 
G01 X35.2652 Y6.2665 
G01 X35.1633 Y6.1984 
G01 X35.0766 Y6.1117 
G01 X35.0085 Y6.0098 
G01 X34.9864 Y5.9563 
G01 X26.9736 Y5.9563 
G01 X26.8990 Y6.1365 
G01 X26.7604 Y6.3765 
G01 X26.5917 Y6.5964 
G01 X26.3957 Y6.7924 
G01 X26.1758 Y6.9611 
G01 X25.9358 Y7.0997 
G01 X25.6798 Y7.2058 
G01 X25.4120 Y7.2775 
G01 X25.1373 Y7.3137 
G01 X24.8601 Y7.3137 
G01 X24.5853 Y7.2775 
G01 X24.3176 Y7.2058 
G01 X24.0615 Y7.0997 
G01 X23.8460 Y6.9752 
G01 X18.6196 Y12.2017 
G01 X18.5517 Y12.2696 
G01 X18.4630 Y12.3063 
G01 X8.3550 Y12.3063 
G01 X5.9563 Y14.7050 
G01 X5.9563 Y23.0237 
G01 X6.1365 Y23.0984 
G01 X6.3765 Y23.2369 
G01 X6.5964 Y23.4057 
G01 X6.7924 Y23.6016 
G01 X6.9611 Y23.8215 
G01 X7.0997 Y24.0615 
G01 X7.2058 Y24.3176 
G01 X7.2775 Y24.5853 
G01 X7.3137 Y24.8601 
G01 X7.3137 Y25.1373 
G01 X7.2775 Y25.4120 
G01 X7.2058 Y25.6798 
G01 X7.0997 Y25.9358 
G01 X6.9611 Y26.1758 
G01 X6.7924 Y26.3957 
G01 X6.5964 Y26.5917 
G01 X6.3765 Y26.7604 
G01 X6.1365 Y26.8990 
G01 X5.9563 Y26.9736 
G01 X5.9563 Y27.3664 
G01 X6.0098 Y27.3885 
G01 X6.1117 Y27.4566 
G01 X6.1984 Y27.5433 
G01 X6.2665 Y27.6452 
G01 X6.3134 Y27.7585 
G01 X6.3373 Y27.8787 
G01 X6.3373 Y28.0013 
G01 X6.3134 Y28.1215 
G01 X6.2665 Y28.2348 
G01 X6.1984 Y28.3367 
G01 X6.1117 Y28.4234 
G01 X6.0098 Y28.4915 
G01 X5.9563 Y28.5136 
G01 X5.9563 Y44.2087 
G01 X22.9684 Y44.2087 
G01 X22.9923 Y44.1194 
G01 X23.0984 Y43.8634 
G01 X23.2369 Y43.6234 
G01 X23.4057 Y43.4035 
G01 X23.6016 Y43.2075 
G01 X23.8215 Y43.0388 
G01 X24.0615 Y42.9002 
G01 X24.3176 Y42.7941 
G01 X24.5853 Y42.7224 
G01 X24.8601 Y42.6862 
G01 X25.1373 Y42.6862 
G01 X25.4120 Y42.7224 
G01 X25.6798 Y42.7941 
G01 X25.9358 Y42.9002 
G01 X26.1758 Y43.0388 
G01 X26.3957 Y43.2075 
G01 X26.5917 Y43.4035 
G01 X26.7604 Y43.6234 
G01 X26.8990 Y43.8634 
G01 X27.0051 Y44.1194 
G01 X27.0290 Y44.2087 
G01 X38.0000 Y44.2087 
G01 X38.1588 Y44.0500 
G01 X38.1366 Y43.9965 
G01 X38.1127 Y43.8763 
G01 X38.1127 Y43.7537 
G01 X38.1366 Y43.6335 
G01 X38.1835 Y43.5202 
G01 X38.2516 Y43.4183 
G01 X38.3383 Y43.3316 
G01 X38.4402 Y43.2635 
G01 X38.5535 Y43.2166 
G01 X38.6737 Y43.1927 
G01 X38.7963 Y43.1927 
G01 X38.9165 Y43.2166 
G01 X39.0298 Y43.2635 
G01 X39.1317 Y43.3316 
G01 X39.2184 Y43.4183 
G01 X39.2865 Y43.5202 
G01 X39.3334 Y43.6335 
G01 X39.3573 Y43.7537 
G01 X39.3573 Y43.8763 
G01 X39.3334 Y43.9965 
G01 X39.2865 Y44.1098 
G01 X39.2184 Y44.2117 
G01 X39.1317 Y44.2984 
G01 X39.0298 Y44.3665 
G01 X38.9165 Y44.4134 
G01 X38.7963 Y44.4373 
G01 X38.6737 Y44.4373 
G01 X38.5535 Y44.4134 
G01 X38.5000 Y44.3912 
G01 X38.3046 Y44.5867 
G00 Z2.5400 
G00 X42.5130 Y24.8601 
G01 Z-0.1778 F254.00 
G01 X42.5130 Y25.1373 F508.00 
G01 X42.4768 Y25.4120 
G01 X42.4051 Y25.6798 
G01 X42.2990 Y25.9358 
G01 X42.1604 Y26.1758 
G01 X41.9917 Y26.3957 
G01 X41.7957 Y26.5917 
G01 X41.5759 Y26.7604 
G01 X41.3358 Y26.8990 
G01 X41.0798 Y27.0051 
G01 X40.8813 Y27.0582 
G01 X40.8813 Y39.4314 
G01 X40.9348 Y39.4535 
G01 X41.0367 Y39.5216 
G01 X41.1234 Y39.6083 
G01 X41.1915 Y39.7102 
G01 X41.2384 Y39.8235 
G01 X41.2623 Y39.9437 
G01 X41.2623 Y40.0663 
G01 X41.2384 Y40.1865 
G01 X41.1915 Y40.2998 
G01 X41.1234 Y40.4017 
G01 X41.0367 Y40.4884 
G01 X40.9348 Y40.5565 
G01 X40.8215 Y40.6034 
G01 X40.7013 Y40.6273 
G01 X40.5787 Y40.6273 
G01 X40.4585 Y40.6034 
G01 X40.3452 Y40.5565 
G01 X40.2433 Y40.4884 
G01 X40.1566 Y40.4017 
G01 X40.0885 Y40.2998 
G01 X40.0416 Y40.1865 
G01 X40.0177 Y40.0663 
G01 X40.0177 Y39.9437 
G01 X40.0416 Y39.8235 
G01 X40.0885 Y39.7102 
G01 X40.1566 Y39.6083 
G01 X40.2433 Y39.5216 
G01 X40.3452 Y39.4535 
G01 X40.3987 Y39.4314 
G01 X40.3987 Y27.1130 
G01 X40.2601 Y27.1130 
G01 X39.9853 Y27.0768 
G01 X39.7176 Y27.0051 
G01 X39.4616 Y26.8990 
G01 X39.2215 Y26.7604 
G01 X39.0017 Y26.5917 
G01 X38.8057 Y26.3957 
G01 X38.6370 Y26.1758 
G01 X38.4984 Y25.9358 
G01 X38.3923 Y25.6798 
G01 X38.3206 Y25.4120 
G01 X38.2844 Y25.1373 
G01 X38.2844 Y24.8601 
G01 X38.3206 Y24.5853 
G01 X38.3923 Y24.3176 
G01 X38.4984 Y24.0615 
G01 X38.6370 Y23.8215 
G01 X38.8057 Y23.6016 
G01 X39.0017 Y23.4057 
G01 X39.2215 Y23.2369 
G01 X39.4616 Y23.0984 
G01 X39.7176 Y22.9923 
G01 X39.9853 Y22.9206 
G01 X40.2601 Y22.8844 
G01 X40.5373 Y22.8844 
G01 X40.8121 Y22.9206 
G01 X41.0798 Y22.9923 
G01 X41.3358 Y23.0984 
G01 X41.5759 Y23.2369 
G01 X41.7957 Y23.4057 
G01 X41.9917 Y23.6016 
G01 X42.1604 Y23.8215 
G01 X42.2990 Y24.0615 
G01 X42.4051 Y24.3176 
G01 X42.4768 Y24.5853 
G01 X42.5130 Y24.8601 
G00 Z2.5400 
G00 X20.5141 Y24.8601 
G01 Z-0.1778 F254.00 
G01 X20.5141 Y25.1373 F508.00 
G01 X20.4779 Y25.4120 
G01 X20.4061 Y25.6798 
G01 X20.3001 Y25.9358 
G01 X20.1615 Y26.1758 
G01 X19.9928 Y26.3957 
G01 X19.7968 Y26.5917 
G01 X19.5769 Y26.7604 
G01 X19.3369 Y26.8990 
G01 X19.0882 Y27.0020 
G01 X19.8217 Y27.7354 
G01 X19.8896 Y27.8033 
G01 X20.4200 Y28.3337 
G01 X22.2730 Y28.3337 
G01 X22.3617 Y28.3704 
G01 X22.4296 Y28.4383 
G01 X23.8267 Y29.8354 
G01 X24.0615 Y29.6998 
G01 X24.3176 Y29.5938 
G01 X24.5853 Y29.5220 
G01 X24.8601 Y29.4858 
G01 X25.1373 Y29.4858 
G01 X25.4120 Y29.5220 
G01 X25.6798 Y29.5938 
G01 X25.9358 Y29.6998 
G01 X26.1758 Y29.8384 
G01 X26.3957 Y30.0071 
G01 X26.5917 Y30.2031 
G01 X26.7604 Y30.4230 
G01 X26.8990 Y30.6630 
G01 X27.0051 Y30.9191 
G01 X27.0768 Y31.1868 
G01 X27.1130 Y31.4616 
G01 X27.1130 Y31.5087 
G01 X31.1630 Y31.5087 
G01 X31.2517 Y31.5454 
G01 X31.3196 Y31.6133 
G01 X41.6750 Y41.9688 
G01 X41.7285 Y41.9466 
G01 X41.8487 Y41.9227 
G01 X41.9713 Y41.9227 
G01 X42.0915 Y41.9466 
G01 X42.2048 Y41.9935 
G01 X42.3067 Y42.0616 
G01 X42.3934 Y42.1483 
G01 X42.4615 Y42.2502 
G01 X42.5084 Y42.3635 
G01 X42.5323 Y42.4837 
G01 X42.5323 Y42.6063 
G01 X42.5084 Y42.7265 
G01 X42.4615 Y42.8398 
G01 X42.3934 Y42.9417 
G01 X42.3067 Y43.0284 
G01 X42.2048 Y43.0965 
G01 X42.0915 Y43.1434 
G01 X41.9713 Y43.1673 
G01 X41.8487 Y43.1673 
G01 X41.7285 Y43.1434 
G01 X41.6152 Y43.0965 
G01 X41.5133 Y43.0284 
G01 X41.4266 Y42.9417 
G01 X41.3585 Y42.8398 
G01 X41.3116 Y42.7265 
G01 X41.2877 Y42.6063 
G01 X41.2877 Y42.4837 
G01 X41.3116 Y42.3635 
G01 X41.3338 Y42.3100 
G01 X31.0150 Y31.9913 
G01 X27.0797 Y31.9913 
G01 X27.0768 Y32.0135 
G01 X27.0051 Y32.2812 
G01 X26.8990 Y32.5373 
G01 X26.7604 Y32.7773 
G01 X26.5917 Y32.9972 
G01 X26.3957 Y33.1932 
G01 X26.1758 Y33.3619 
G01 X25.9358 Y33.5005 
G01 X25.6798 Y33.6065 
G01 X25.4120 Y33.6783 
G01 X25.1373 Y33.7144 
G01 X24.8601 Y33.7144 
G01 X24.5853 Y33.6783 
G01 X24.3176 Y33.6065 
G01 X24.0615 Y33.5005 
G01 X23.8215 Y33.3619 
G01 X23.6016 Y33.1932 
G01 X23.4057 Y32.9972 
G01 X23.2369 Y32.7773 
G01 X23.0984 Y32.5373 
G01 X22.9923 Y32.2812 
G01 X22.9206 Y32.0135 
G01 X22.8844 Y31.7387 
G01 X22.8844 Y31.4616 
G01 X22.9206 Y31.1868 
G01 X22.9923 Y30.9191 
G01 X23.0984 Y30.6630 
G01 X23.2369 Y30.4230 
G01 X23.4057 Y30.2031 
G01 X23.4588 Y30.1500 
G01 X22.1250 Y28.8163 
G01 X20.2720 Y28.8163 
G01 X20.1833 Y28.7796 
G01 X19.5850 Y28.1813 
G01 X13.2736 Y28.1813 
G01 X13.2515 Y28.2348 
G01 X13.1834 Y28.3367 
G01 X13.0967 Y28.4234 
G01 X12.9948 Y28.4915 
G01 X12.8815 Y28.5384 
G01 X12.7613 Y28.5623 
G01 X12.6387 Y28.5623 
G01 X12.5185 Y28.5384 
G01 X12.4052 Y28.4915 
G01 X12.3033 Y28.4234 
G01 X12.2166 Y28.3367 
G01 X12.1485 Y28.2348 
G01 X12.1016 Y28.1215 
G01 X12.0777 Y28.0013 
G01 X12.0777 Y27.8787 
G01 X12.1016 Y27.7585 
G01 X12.1485 Y27.6452 
G01 X12.2166 Y27.5433 
G01 X12.3033 Y27.4566 
G01 X12.4052 Y27.3885 
G01 X12.5185 Y27.3416 
G01 X12.6387 Y27.3177 
G01 X12.7613 Y27.3177 
G01 X12.8815 Y27.3416 
G01 X12.9948 Y27.3885 
G01 X13.0967 Y27.4566 
G01 X13.1834 Y27.5433 
G01 X13.2515 Y27.6452 
G01 X13.2736 Y27.6987 
G01 X19.1025 Y27.6987 
G01 X18.5167 Y27.1130 
G01 X18.2612 Y27.1130 
G01 X17.9864 Y27.0768 
G01 X17.7187 Y27.0051 
G01 X17.4626 Y26.8990 
G01 X17.2226 Y26.7604 
G01 X17.0027 Y26.5917 
G01 X16.8067 Y26.3957 
G01 X16.6380 Y26.1758 
G01 X16.4994 Y25.9358 
G01 X16.3934 Y25.6798 
G01 X16.3216 Y25.4120 
G01 X16.2855 Y25.1373 
G01 X16.2855 Y24.8601 
G01 X16.3216 Y24.5853 
G01 X16.3934 Y24.3176 
G01 X16.4994 Y24.0615 
G01 X16.6380 Y23.8215 
G01 X16.8067 Y23.6016 
G01 X17.0027 Y23.4057 
G01 X17.2226 Y23.2369 
G01 X17.4626 Y23.0984 
G01 X17.7187 Y22.9923 
G01 X17.9864 Y22.9206 
G01 X18.2612 Y22.8844 
G01 X18.5383 Y22.8844 
G01 X18.8131 Y22.9206 
G01 X19.0808 Y22.9923 
G01 X19.3369 Y23.0984 
G01 X19.5769 Y23.2369 
G01 X19.5910 Y23.2477 
G01 X23.2477 Y19.5910 
G01 X23.2369 Y19.5769 
G01 X23.0984 Y19.3369 
G01 X22.9923 Y19.0808 
G01 X22.9206 Y18.8131 
G01 X22.8844 Y18.5383 
G01 X22.8844 Y18.2612 
G01 X22.9206 Y17.9864 
G01 X22.9923 Y17.7187 
G01 X23.0984 Y17.4626 
G01 X23.2369 Y17.2226 
G01 X23.4057 Y17.0027 
G01 X23.6016 Y16.8067 
G01 X23.8215 Y16.6380 
G01 X24.0615 Y16.4994 
G01 X24.3176 Y16.3934 
G01 X24.5853 Y16.3216 
G01 X24.8601 Y16.2855 
G01 X25.1373 Y16.2855 
G01 X25.4120 Y16.3216 
G01 X25.6798 Y16.3934 
G01 X25.9358 Y16.4994 
G01 X26.1758 Y16.6380 
G01 X26.3957 Y16.8067 
G01 X26.5917 Y17.0027 
G01 X26.7604 Y17.2226 
G01 X26.8990 Y17.4626 
G01 X26.9305 Y17.5387 
G01 X30.3800 Y17.5387 
G01 X41.3338 Y6.5850 
G01 X41.3116 Y6.5315 
G01 X41.2877 Y6.4113 
G01 X41.2877 Y6.2887 
G01 X41.3116 Y6.1685 
G01 X41.3585 Y6.0552 
G01 X41.4266 Y5.9533 
G01 X41.5133 Y5.8666 
G01 X41.6152 Y5.7985 
G01 X41.7285 Y5.7516 
G01 X41.8487 Y5.7277 
G01 X41.9713 Y5.7277 
G01 X42.0915 Y5.7516 
G01 X42.2048 Y5.7985 
G01 X42.3067 Y5.8666 
G01 X42.3934 Y5.9533 
G01 X42.4615 Y6.0552 
G01 X42.5084 Y6.1685 
G01 X42.5323 Y6.2887 
G01 X42.5323 Y6.4113 
G01 X42.5084 Y6.5315 
G01 X42.4615 Y6.6448 
G01 X42.3934 Y6.7467 
G01 X42.3067 Y6.8334 
G01 X42.2048 Y6.9015 
G01 X42.0915 Y6.9484 
G01 X41.9713 Y6.9723 
G01 X41.8487 Y6.9723 
G01 X41.7285 Y6.9484 
G01 X41.6750 Y6.9262 
G01 X31.0625 Y17.5387 
G01 X31.1630 Y17.5387 
G01 X31.2517 Y17.5754 
G01 X31.3196 Y17.6433 
G01 X31.3563 Y17.7320 
G01 X31.3563 Y22.8982 
G01 X31.4616 Y22.8844 
G01 X31.7387 Y22.8844 
G01 X32.0135 Y22.9206 
G01 X32.2812 Y22.9923 
G01 X32.5373 Y23.0984 
G01 X32.7773 Y23.2369 
G01 X32.9972 Y23.4057 
G01 X33.1932 Y23.6016 
G01 X33.3619 Y23.8215 
G01 X33.5005 Y24.0615 
G01 X33.6065 Y24.3176 
G01 X33.6783 Y24.5853 
G01 X33.7144 Y24.8601 
G01 X33.7144 Y25.1373 
G01 X33.6783 Y25.4120 
G01 X33.6065 Y25.6798 
G01 X33.5005 Y25.9358 
G01 X33.3619 Y26.1758 
G01 X33.1932 Y26.3957 
G01 X32.9972 Y26.5917 
G01 X32.7773 Y26.7604 
G01 X32.5373 Y26.8990 
G01 X32.2812 Y27.0051 
G01 X32.0135 Y27.0768 
G01 X31.7387 Y27.1130 
G01 X31.4616 Y27.1130 
G01 X31.1868 Y27.0768 
G01 X30.9191 Y27.0051 
G01 X30.6630 Y26.8990 
G01 X30.4230 Y26.7604 
G01 X30.2031 Y26.5917 
G01 X30.0071 Y26.3957 
G01 X29.8384 Y26.1758 
G01 X29.6998 Y25.9358 
G01 X29.5938 Y25.6798 
G01 X29.5220 Y25.4120 
G01 X29.4858 Y25.1373 
G01 X29.4858 Y24.8601 
G01 X29.5220 Y24.5853 
G01 X29.5938 Y24.3176 
G01 X29.6998 Y24.0615 
G01 X29.8384 Y23.8215 
G01 X30.0071 Y23.6016 
G01 X30.2031 Y23.4057 
G01 X30.4230 Y23.2369 
G01 X30.6630 Y23.0984 
G01 X30.8737 Y23.0111 
G01 X30.8737 Y18.0213 
G01 X27.0814 Y18.0213 
G01 X27.1130 Y18.2612 
G01 X27.1130 Y18.5383 
G01 X27.0768 Y18.8131 
G01 X27.0051 Y19.0808 
G01 X26.8990 Y19.3369 
G01 X26.7604 Y19.5769 
G01 X26.5917 Y19.7968 
G01 X26.3957 Y19.9928 
G01 X26.1758 Y20.1615 
G01 X25.9358 Y20.3001 
G01 X25.6798 Y20.4061 
G01 X25.4120 Y20.4779 
G01 X25.1373 Y20.5141 
G01 X24.8601 Y20.5141 
G01 X24.5853 Y20.4779 
G01 X24.3176 Y20.4061 
G01 X24.0615 Y20.3001 
G01 X23.8215 Y20.1615 
G01 X23.6016 Y19.9928 
G01 X23.5651 Y19.9562 
G01 X19.9562 Y23.5651 
G01 X19.9928 Y23.6016 
G01 X20.1615 Y23.8215 
G01 X20.3001 Y24.0615 
G01 X20.4061 Y24.3176 
G01 X20.4779 Y24.5853 
G01 X20.5141 Y24.8601 
G00 Z2.5400 
G00 X16.1148 Y24.8601 
G01 Z-0.1778 F254.00 
G01 X16.1148 Y25.1373 F508.00 
G01 X16.0786 Y25.4120 
G01 X16.0069 Y25.6798 
G01 X15.9008 Y25.9358 
G01 X15.7622 Y26.1758 
G01 X15.5935 Y26.3957 
G01 X15.3975 Y26.5917 
G01 X15.1776 Y26.7604 
G01 X14.9376 Y26.8990 
G01 X14.6816 Y27.0051 
G01 X14.4138 Y27.0768 
G01 X14.1391 Y27.1130 
G01 X13.8619 Y27.1130 
G01 X13.5871 Y27.0768 
G01 X13.3194 Y27.0051 
G01 X13.0633 Y26.8990 
G01 X12.9042 Y26.8071 
G01 X12.2017 Y27.5096 
G01 X12.1130 Y27.5463 
G01 X10.2599 Y27.5463 
G01 X9.4662 Y28.3400 
G01 X9.4884 Y28.3935 
G01 X9.5123 Y28.5137 
G01 X9.5123 Y28.6363 
G01 X9.4884 Y28.7565 
G01 X9.4415 Y28.8698 
G01 X9.3734 Y28.9717 
G01 X9.2867 Y29.0584 
G01 X9.1848 Y29.1265 
G01 X9.0715 Y29.1734 
G01 X8.9513 Y29.1973 
G01 X8.8287 Y29.1973 
G01 X8.7085 Y29.1734 
G01 X8.5952 Y29.1265 
G01 X8.4933 Y29.0584 
G01 X8.4066 Y28.9717 
G01 X8.3385 Y28.8698 
G01 X8.2916 Y28.7565 
G01 X8.2677 Y28.6363 
G01 X8.2677 Y28.5137 
G01 X8.2916 Y28.3935 
G01 X8.3385 Y28.2802 
G01 X8.4066 Y28.1783 
G01 X8.4933 Y28.0916 
G01 X8.5952 Y28.0235 
G01 X8.7085 Y27.9766 
G01 X8.8287 Y27.9527 
G01 X8.9513 Y27.9527 
G01 X9.0715 Y27.9766 
G01 X9.1250 Y27.9988 
G01 X10.0233 Y27.1004 
G01 X10.1120 Y27.0637 
G01 X11.9650 Y27.0637 
G01 X12.5202 Y26.5085 
G01 X12.4075 Y26.3957 
G01 X12.2387 Y26.1758 
G01 X12.1002 Y25.9358 
G01 X11.9941 Y25.6798 
G01 X11.9224 Y25.4120 
G01 X11.8862 Y25.1373 
G01 X11.8862 Y24.8601 
G01 X11.9224 Y24.5853 
G01 X11.9941 Y24.3176 
G01 X12.1002 Y24.0615 
G01 X12.2387 Y23.8215 
G01 X12.4075 Y23.6016 
G01 X12.6034 Y23.4057 
G01 X12.8233 Y23.2369 
G01 X13.0633 Y23.0984 
G01 X13.3194 Y22.9923 
G01 X13.5871 Y22.9206 
G01 X13.8619 Y22.8844 
G01 X14.1391 Y22.8844 
G01 X14.4138 Y22.9206 
G01 X14.6816 Y22.9923 
G01 X14.9376 Y23.0984 
G01 X15.1776 Y23.2369 
G01 X15.3975 Y23.4057 
G01 X15.5935 Y23.6016 
G01 X15.7622 Y23.8215 
G01 X15.9008 Y24.0615 
G01 X16.0069 Y24.3176 
G01 X16.0786 Y24.5853 
G01 X16.1148 Y24.8601 
G00 Z2.5400 
G00 X27.1130 Y13.8619 
G01 Z-0.1778 F254.00 
G01 X27.1130 Y14.1391 F508.00 
G01 X27.0768 Y14.4138 
G01 X27.0051 Y14.6816 
G01 X26.8990 Y14.9376 
G01 X26.7604 Y15.1776 
G01 X26.5917 Y15.3975 
G01 X26.3957 Y15.5935 
G01 X26.1758 Y15.7622 
G01 X25.9358 Y15.9008 
G01 X25.6798 Y16.0069 
G01 X25.4120 Y16.0786 
G01 X25.1373 Y16.1148 
G01 X24.8601 Y16.1148 
G01 X24.5853 Y16.0786 
G01 X24.3176 Y16.0069 
G01 X24.0615 Y15.9008 
G01 X23.8215 Y15.7622 
G01 X23.6016 Y15.5935 
G01 X23.4057 Y15.3975 
G01 X23.2369 Y15.1776 
G01 X23.0984 Y14.9376 
G01 X22.9923 Y14.6816 
G01 X22.9206 Y14.4138 
G01 X22.8939 Y14.2113 
G01 X12.0036 Y14.2113 
G01 X11.9815 Y14.2648 
G01 X11.9134 Y14.3667 
G01 X11.8267 Y14.4534 
G01 X11.7248 Y14.5215 
G01 X11.6115 Y14.5684 
G01 X11.4913 Y14.5923 
G01 X11.3687 Y14.5923 
G01 X11.2485 Y14.5684 
G01 X11.1352 Y14.5215 
G01 X11.0333 Y14.4534 
G01 X10.9466 Y14.3667 
G01 X10.8785 Y14.2648 
G01 X10.8564 Y14.2113 
G01 X9.4636 Y14.2113 
G01 X9.4415 Y14.2648 
G01 X9.3734 Y14.3667 
G01 X9.2867 Y14.4534 
G01 X9.1848 Y14.5215 
G01 X9.0715 Y14.5684 
G01 X8.9513 Y14.5923 
G01 X8.8287 Y14.5923 
G01 X8.7085 Y14.5684 
G01 X8.5952 Y14.5215 
G01 X8.4933 Y14.4534 
G01 X8.4066 Y14.3667 
G01 X8.3385 Y14.2648 
G01 X8.2916 Y14.1515 
G01 X8.2677 Y14.0313 
G01 X8.2677 Y13.9087 
G01 X8.2916 Y13.7885 
G01 X8.3385 Y13.6752 
G01 X8.4066 Y13.5733 
G01 X8.4933 Y13.4866 
G01 X8.5952 Y13.4185 
G01 X8.7085 Y13.3716 
G01 X8.8287 Y13.3477 
G01 X8.9513 Y13.3477 
G01 X9.0715 Y13.3716 
G01 X9.1848 Y13.4185 
G01 X9.2867 Y13.4866 
G01 X9.3734 Y13.5733 
G01 X9.4415 Y13.6752 
G01 X9.4636 Y13.7287 
G01 X10.8564 Y13.7287 
G01 X10.8785 Y13.6752 
G01 X10.9466 Y13.5733 
G01 X11.0333 Y13.4866 
G01 X11.1352 Y13.4185 
G01 X11.2485 Y13.3716 
G01 X11.3687 Y13.3477 
G01 X11.4913 Y13.3477 
G01 X11.6115 Y13.3716 
G01 X11.7248 Y13.4185 
G01 X11.8267 Y13.4866 
G01 X11.9134 Y13.5733 
G01 X11.9815 Y13.6752 
G01 X12.0036 Y13.7287 
G01 X22.9019 Y13.7287 
G01 X22.9206 Y13.5871 
G01 X22.9923 Y13.3194 
G01 X23.0984 Y13.0633 
G01 X23.2369 Y12.8233 
G01 X23.4057 Y12.6034 
G01 X23.6016 Y12.4075 
G01 X23.8215 Y12.2387 
G01 X24.0615 Y12.1002 
G01 X24.3176 Y11.9941 
G01 X24.5853 Y11.9224 
G01 X24.8601 Y11.8862 
G01 X25.1373 Y11.8862 
G01 X25.4120 Y11.9224 
G01 X25.6798 Y11.9941 
G01 X25.9358 Y12.1002 
G01 X26.1758 Y12.2387 
G01 X26.3957 Y12.4075 
G01 X26.5917 Y12.6034 
G01 X26.7604 Y12.8233 
G01 X26.8990 Y13.0633 
G01 X27.0051 Y13.3194 
G01 X27.0768 Y13.5871 
G01 X27.1130 Y13.8619 
G00 Z2.5400 
G00 X38.1137 Y24.8601 
G01 Z-0.1778 F254.00 
G01 X38.1137 Y25.1373 F508.00 
G01 X38.0775 Y25.4120 
G01 X38.0058 Y25.6798 
G01 X37.8997 Y25.9358 
G01 X37.7612 Y26.1758 
G01 X37.5924 Y26.3957 
G01 X37.3965 Y26.5917 
G01 X37.1766 Y26.7604 
G01 X36.9366 Y26.8990 
G01 X36.6805 Y27.0051 
G01 X36.4128 Y27.0768 
G01 X36.1380 Y27.1130 
G01 X35.8608 Y27.1130 
G01 X35.5861 Y27.0768 
G01 X35.3183 Y27.0051 
G01 X35.0623 Y26.8990 
G01 X34.8223 Y26.7604 
G01 X34.6024 Y26.5917 
G01 X34.4064 Y26.3957 
G01 X34.2377 Y26.1758 
G01 X34.0991 Y25.9358 
G01 X33.9930 Y25.6798 
G01 X33.9213 Y25.4120 
G01 X33.8851 Y25.1373 
G01 X33.8851 Y24.8601 
G01 X33.9213 Y24.5853 
G01 X33.9930 Y24.3176 
G01 X34.0991 Y24.0615 
G01 X34.2377 Y23.8215 
G01 X34.4064 Y23.6016 
G01 X34.6024 Y23.4057 
G01 X34.8223 Y23.2369 
G01 X35.0623 Y23.0984 
G01 X35.3183 Y22.9923 
G01 X35.5861 Y22.9206 
G01 X35.8608 Y22.8844 
G01 X36.1380 Y22.8844 
G01 X36.4128 Y22.9206 
G01 X36.6805 Y22.9923 
G01 X36.9366 Y23.0984 
G01 X37.1766 Y23.2369 
G01 X37.2927 Y23.3260 
G01 X38.7938 Y21.8250 
G01 X38.7716 Y21.7715 
G01 X38.7477 Y21.6513 
G01 X38.7477 Y21.5287 
G01 X38.7716 Y21.4085 
G01 X38.8185 Y21.2952 
G01 X38.8866 Y21.1933 
G01 X38.9733 Y21.1066 
G01 X39.0752 Y21.0385 
G01 X39.1885 Y20.9916 
G01 X39.3087 Y20.9677 
G01 X39.4313 Y20.9677 
G01 X39.5515 Y20.9916 
G01 X39.6648 Y21.0385 
G01 X39.7667 Y21.1066 
G01 X39.8534 Y21.1933 
G01 X39.9215 Y21.2952 
G01 X39.9684 Y21.4085 
G01 X39.9923 Y21.5287 
G01 X39.9923 Y21.6513 
G01 X39.9684 Y21.7715 
G01 X39.9215 Y21.8848 
G01 X39.8534 Y21.9867 
G01 X39.7667 Y22.0734 
G01 X39.6648 Y22.1415 
G01 X39.5515 Y22.1884 
G01 X39.4313 Y22.2123 
G01 X39.3087 Y22.2123 
G01 X39.1885 Y22.1884 
G01 X39.1350 Y22.1662 
G01 X37.6390 Y23.6623 
G01 X37.7612 Y23.8215 
G01 X37.8997 Y24.0615 
G01 X38.0058 Y24.3176 
G01 X38.0775 Y24.5853 
G01 X38.1137 Y24.8601 
G00 Z2.5400 
G00 X8.1407 Y28.5012 
G01 Z-0.1778 F254.00 
G01 X8.1695 Y28.3564 F508.00 
G01 X8.2260 Y28.2201 
G01 X8.3080 Y28.0973 
G01 X8.4123 Y27.9930 
G01 X8.5351 Y27.9110 
G01 X8.6714 Y27.8545 
G01 X8.8162 Y27.8257 
G01 X8.9638 Y27.8257 
G01 X9.0928 Y27.8514 
G01 X9.7042 Y27.2400 
G01 X9.4518 Y27.2400 
G01 X9.1605 Y27.2016 
G01 X8.8767 Y27.1256 
G01 X8.6052 Y27.0131 
G01 X8.3508 Y26.8662 
G01 X8.1177 Y26.6874 
G01 X7.9883 Y26.5580 
G01 X7.9883 Y28.4224 
G01 X8.1407 Y28.5749 
G01 X8.1407 Y28.5012 
G00 Z2.5400 
G00 X7.2138 Y25.9921 
G01 Z-0.1778 F254.00 
G01 X7.0669 Y26.2465 F508.00 
G01 X6.8881 Y26.4796 
G01 X6.6803 Y26.6874 
G01 X6.4472 Y26.8662 
G01 X6.1928 Y27.0131 
G01 X6.0833 Y27.0585 
G01 X6.0833 Y27.2849 
G01 X6.1927 Y27.3580 
G01 X6.2970 Y27.4623 
G01 X6.3790 Y27.5851 
G01 X6.4355 Y27.7214 
G01 X6.4643 Y27.8662 
G01 X6.4643 Y28.0138 
G01 X6.4355 Y28.1586 
G01 X6.3790 Y28.2949 
G01 X6.2970 Y28.4177 
G01 X6.1927 Y28.5220 
G01 X6.0833 Y28.5951 
G01 X6.0833 Y44.0817 
G01 X22.8709 Y44.0817 
G01 X22.8718 Y44.0785 
G01 X22.9842 Y43.8071 
G01 X23.1311 Y43.5526 
G01 X23.3100 Y43.3196 
G01 X23.5177 Y43.1118 
G01 X23.7508 Y42.9330 
G01 X24.0053 Y42.7861 
G01 X24.2767 Y42.6736 
G01 X24.5529 Y42.5996 
G01 X24.2767 Y42.5256 
G01 X24.0053 Y42.4132 
G01 X23.7508 Y42.2663 
G01 X23.5177 Y42.0874 
G01 X23.3100 Y41.8797 
G01 X23.1311 Y41.6466 
G01 X22.9842 Y41.3921 
G01 X22.8718 Y41.1207 
G01 X22.7957 Y40.8369 
G01 X22.7574 Y40.5456 
G01 X22.7574 Y40.2518 
G01 X22.7957 Y39.9605 
G01 X22.8718 Y39.6767 
G01 X22.9842 Y39.4053 
G01 X23.1311 Y39.1508 
G01 X23.2435 Y39.0044 
G01 X14.4524 Y30.2133 
G01 X10.8151 Y30.2133 
G01 X10.7420 Y30.3227 
G01 X10.6377 Y30.4270 
G01 X10.5149 Y30.5090 
G01 X10.3786 Y30.5655 
G01 X10.2338 Y30.5943 
G01 X10.0862 Y30.5943 
G01 X9.9414 Y30.5655 
G01 X9.8051 Y30.5090 
G01 X9.6823 Y30.4270 
G01 X9.5780 Y30.3227 
G01 X9.5049 Y30.2133 
G01 X8.8415 Y30.2133 
G01 X8.7478 Y30.1882 
G01 X8.6639 Y30.1397 
G01 X7.3939 Y28.8697 
G01 X7.3253 Y28.8011 
G01 X7.2768 Y28.7172 
G01 X7.2517 Y28.6235 
G01 X7.2517 Y25.9007 
G01 X7.2138 Y25.9921 
G00 Z2.5400 
G00 X22.2735 Y28.2067 
G01 Z-0.1778 F254.00 
G01 X22.3672 Y28.2318 F508.00 
G01 X22.4511 Y28.2803 
G01 X22.5197 Y28.3489 
G01 X23.8476 Y29.6767 
G01 X24.0053 Y29.5857 
G01 X24.2767 Y29.4732 
G01 X24.5482 Y29.4005 
G01 X24.2767 Y29.3278 
G01 X24.0053 Y29.2153 
G01 X23.7508 Y29.0684 
G01 X23.5177 Y28.8896 
G01 X23.3100 Y28.6818 
G01 X23.1311 Y28.4487 
G01 X22.9842 Y28.1943 
G01 X22.8718 Y27.9228 
G01 X22.7957 Y27.6391 
G01 X22.7574 Y27.3478 
G01 X22.7574 Y27.2400 
G01 X22.6521 Y27.2400 
G01 X22.3608 Y27.2016 
G01 X22.0771 Y27.1256 
G01 X21.8056 Y27.0131 
G01 X21.5512 Y26.8662 
G01 X21.3975 Y26.7483 
G01 X21.0436 Y27.1022 
G01 X21.0693 Y27.2312 
G01 X21.0693 Y27.3788 
G01 X21.0405 Y27.5236 
G01 X20.9840 Y27.6599 
G01 X20.9020 Y27.7827 
G01 X20.7977 Y27.8870 
G01 X20.6749 Y27.9690 
G01 X20.5386 Y28.0255 
G01 X20.3938 Y28.0543 
G01 X20.3201 Y28.0543 
G01 X20.4726 Y28.2067 
G01 X22.2735 Y28.2067 
G00 Z2.5400 
G00 X18.7959 Y27.5717 
G01 Z-0.1778 F254.00 
G01 X18.4641 Y27.2400 F508.00 
G01 X18.2529 Y27.2400 
G01 X17.9616 Y27.2016 
G01 X17.6778 Y27.1256 
G01 X17.4063 Y27.0131 
G01 X17.1519 Y26.8662 
G01 X16.9188 Y26.6874 
G01 X16.7111 Y26.4796 
G01 X16.5322 Y26.2465 
G01 X16.3853 Y25.9921 
G01 X16.2729 Y25.7207 
G01 X16.2001 Y25.4492 
G01 X16.1274 Y25.7207 
G01 X16.0149 Y25.9921 
G01 X15.8680 Y26.2465 
G01 X15.6892 Y26.4796 
G01 X15.4814 Y26.6874 
G01 X15.2483 Y26.8662 
G01 X14.9939 Y27.0131 
G01 X14.7225 Y27.1256 
G01 X14.4387 Y27.2016 
G01 X14.1474 Y27.2400 
G01 X13.8536 Y27.2400 
G01 X13.5623 Y27.2016 
G01 X13.2785 Y27.1256 
G01 X13.0071 Y27.0131 
G01 X12.9250 Y26.9658 
G01 X12.7001 Y27.1907 
G01 X12.7738 Y27.1907 
G01 X12.9186 Y27.2195 
G01 X13.0549 Y27.2760 
G01 X13.1776 Y27.3580 
G01 X13.2820 Y27.4623 
G01 X13.3551 Y27.5717 
G01 X18.7959 Y27.5717 
G00 Z2.5400 
G00 X14.6535 Y29.4767 
G01 Z-0.1778 F254.00 
G01 X14.7472 Y29.5018 F508.00 
G01 X14.8311 Y29.5503 
G01 X14.8997 Y29.6189 
G01 X23.7896 Y38.5087 
G01 X24.0053 Y38.3842 
G01 X24.2767 Y38.2718 
G01 X24.5482 Y38.1991 
G01 X24.2767 Y38.1263 
G01 X24.0053 Y38.0139 
G01 X23.7508 Y37.8670 
G01 X23.5177 Y37.6881 
G01 X23.3100 Y37.4804 
G01 X23.1311 Y37.2473 
G01 X22.9842 Y36.9928 
G01 X22.8718 Y36.7214 
G01 X22.7957 Y36.4376 
G01 X22.7574 Y36.1463 
G01 X22.7574 Y35.8525 
G01 X22.7957 Y35.5612 
G01 X22.8718 Y35.2774 
G01 X22.9842 Y35.0060 
G01 X23.1311 Y34.7516 
G01 X23.3100 Y34.5185 
G01 X23.5177 Y34.3107 
G01 X23.7508 Y34.1319 
G01 X24.0053 Y33.9850 
G01 X24.2767 Y33.8725 
G01 X24.5482 Y33.7998 
G01 X24.2767 Y33.7270 
G01 X24.0053 Y33.6146 
G01 X23.7508 Y33.4677 
G01 X23.5177 Y33.2888 
G01 X23.3100 Y33.0811 
G01 X23.1311 Y32.8480 
G01 X22.9842 Y32.5936 
G01 X22.8718 Y32.3221 
G01 X22.7957 Y32.0383 
G01 X22.7574 Y31.7470 
G01 X22.7574 Y31.4532 
G01 X22.7957 Y31.1619 
G01 X22.8718 Y30.8782 
G01 X22.9842 Y30.6067 
G01 X23.1311 Y30.3523 
G01 X23.2832 Y30.1541 
G01 X22.0724 Y28.9433 
G01 X20.2715 Y28.9433 
G01 X20.1778 Y28.9182 
G01 X20.0939 Y28.8697 
G01 X19.5324 Y28.3083 
G01 X13.3551 Y28.3083 
G01 X13.2820 Y28.4177 
G01 X13.1776 Y28.5220 
G01 X13.0549 Y28.6040 
G01 X12.9186 Y28.6605 
G01 X12.7738 Y28.6893 
G01 X12.6262 Y28.6893 
G01 X12.4814 Y28.6605 
G01 X12.3451 Y28.6040 
G01 X12.2223 Y28.5220 
G01 X12.1180 Y28.4177 
G01 X12.0360 Y28.2949 
G01 X11.9795 Y28.1586 
G01 X11.9507 Y28.0138 
G01 X11.9507 Y27.8662 
G01 X11.9795 Y27.7214 
G01 X11.9994 Y27.6733 
G01 X10.3126 Y27.6733 
G01 X9.6136 Y28.3722 
G01 X9.6393 Y28.5012 
G01 X9.6393 Y28.6488 
G01 X9.6105 Y28.7936 
G01 X9.5540 Y28.9299 
G01 X9.4720 Y29.0526 
G01 X9.3677 Y29.1570 
G01 X9.2449 Y29.2390 
G01 X9.1086 Y29.2955 
G01 X8.9638 Y29.3243 
G01 X8.8901 Y29.3243 
G01 X9.0426 Y29.4767 
G01 X9.5049 Y29.4767 
G01 X9.5780 Y29.3673 
G01 X9.6823 Y29.2630 
G01 X9.8051 Y29.1810 
G01 X9.9414 Y29.1245 
G01 X10.0862 Y29.0957 
G01 X10.2338 Y29.0957 
G01 X10.3786 Y29.1245 
G01 X10.5149 Y29.1810 
G01 X10.6377 Y29.2630 
G01 X10.7420 Y29.3673 
G01 X10.8151 Y29.4767 
G01 X14.6535 Y29.4767 
G00 Z2.5400 
G00 X19.5707 Y27.2312 
G01 Z-0.1778 F254.00 
G01 X19.5995 Y27.0864 F508.00 
G01 X19.6560 Y26.9501 
G01 X19.7380 Y26.8273 
G01 X19.8423 Y26.7230 
G01 X19.9651 Y26.6410 
G01 X20.1014 Y26.5845 
G01 X20.2462 Y26.5557 
G01 X20.3938 Y26.5557 
G01 X20.5228 Y26.5814 
G01 X20.9044 Y26.1997 
G01 X20.7846 Y25.9921 
G01 X20.6721 Y25.7207 
G01 X20.5994 Y25.4492 
G01 X20.5267 Y25.7207 
G01 X20.4142 Y25.9921 
G01 X20.2673 Y26.2465 
G01 X20.0885 Y26.4796 
G01 X19.8807 Y26.6874 
G01 X19.6476 Y26.8662 
G01 X19.3932 Y27.0131 
G01 X19.3124 Y27.0466 
G01 X19.5707 Y27.3049 
G01 X19.5707 Y27.2312 
G00 Z2.5400 
G00 X12.3118 Y26.4796 
G01 Z-0.1778 F254.00 
G01 X12.1329 Y26.2465 F508.00 
G01 X11.9860 Y25.9921 
G01 X11.8736 Y25.7207 
G01 X11.7996 Y25.4444 
G01 X11.7256 Y25.7207 
G01 X11.6131 Y25.9921 
G01 X11.4662 Y26.2465 
G01 X11.2874 Y26.4796 
G01 X11.0796 Y26.6874 
G01 X10.8465 Y26.8662 
G01 X10.7245 Y26.9367 
G01 X11.9124 Y26.9367 
G01 X12.3406 Y26.5085 
G01 X12.3118 Y26.4796 
G00 Z2.5400 
G00 X8.9638 Y13.2207 
G01 Z-0.1778 F254.00 
G01 X9.1086 Y13.2495 F508.00 
G01 X9.2449 Y13.3060 
G01 X9.3677 Y13.3880 
G01 X9.4720 Y13.4923 
G01 X9.5451 Y13.6017 
G01 X10.7749 Y13.6017 
G01 X10.8480 Y13.4923 
G01 X10.9523 Y13.3880 
G01 X11.0751 Y13.3060 
G01 X11.2114 Y13.2495 
G01 X11.3562 Y13.2207 
G01 X11.5038 Y13.2207 
G01 X11.6486 Y13.2495 
G01 X11.7849 Y13.3060 
G01 X11.9077 Y13.3880 
G01 X12.0120 Y13.4923 
G01 X12.0851 Y13.6017 
G01 X22.7905 Y13.6017 
G01 X22.7957 Y13.5623 
G01 X22.8718 Y13.2785 
G01 X22.9842 Y13.0071 
G01 X23.1311 Y12.7526 
G01 X23.3100 Y12.5195 
G01 X23.5177 Y12.3118 
G01 X23.7508 Y12.1329 
G01 X24.0053 Y11.9860 
G01 X24.2767 Y11.8736 
G01 X24.5529 Y11.7996 
G01 X24.2767 Y11.7256 
G01 X24.0053 Y11.6131 
G01 X23.8959 Y11.5500 
G01 X22.5197 Y12.9261 
G01 X22.4511 Y12.9947 
G01 X22.3672 Y13.0432 
G01 X22.2735 Y13.0683 
G01 X9.0426 Y13.0683 
G01 X8.8901 Y13.2207 
G01 X8.9638 Y13.2207 
G00 Z2.5400 
G00 X6.1928 Y22.9842 
G01 Z-0.1778 F254.00 
G01 X6.4472 Y23.1311 F508.00 
G01 X6.6803 Y23.3100 
G01 X6.8881 Y23.5177 
G01 X7.0669 Y23.7508 
G01 X7.2138 Y24.0053 
G01 X7.2517 Y24.0966 
G01 X7.2517 Y13.9215 
G01 X7.2768 Y13.8278 
G01 X7.3253 Y13.7439 
G01 X7.3939 Y13.6753 
G01 X8.6358 Y12.4333 
G01 X8.4076 Y12.4333 
G01 X6.0833 Y14.7576 
G01 X6.0833 Y22.9389 
G01 X6.1928 Y22.9842 
G00 Z2.5400 
G00 X20.2673 Y23.7508 
G01 Z-0.1778 F254.00 
G01 X20.4142 Y24.0053 F508.00 
G01 X20.5267 Y24.2767 
G01 X20.5994 Y24.5482 
G01 X20.6721 Y24.2767 
G01 X20.7846 Y24.0053 
G01 X20.9315 Y23.7508 
G01 X21.1103 Y23.5177 
G01 X21.3181 Y23.3100 
G01 X21.5512 Y23.1311 
G01 X21.8056 Y22.9842 
G01 X22.0771 Y22.8718 
G01 X22.3608 Y22.7957 
G01 X22.6521 Y22.7574 
G01 X22.7574 Y22.7574 
G01 X22.7574 Y22.6521 
G01 X22.7957 Y22.3608 
G01 X22.8718 Y22.0771 
G01 X22.9842 Y21.8056 
G01 X23.1311 Y21.5512 
G01 X23.3100 Y21.3181 
G01 X23.5177 Y21.1103 
G01 X23.7508 Y20.9315 
G01 X24.0053 Y20.7846 
G01 X24.2767 Y20.6721 
G01 X24.5482 Y20.5994 
G01 X24.2767 Y20.5267 
G01 X24.0053 Y20.4142 
G01 X23.7508 Y20.2673 
G01 X23.5713 Y20.1296 
G01 X20.1296 Y23.5713 
G01 X20.2673 Y23.7508 
G00 Z2.5400 
G00 X8.1177 Y23.3100 
G01 Z-0.1778 F254.00 
G01 X8.3508 Y23.1311 F508.00 
G01 X8.6052 Y22.9842 
G01 X8.8767 Y22.8718 
G01 X9.1605 Y22.7957 
G01 X9.4518 Y22.7574 
G01 X9.7456 Y22.7574 
G01 X10.0369 Y22.7957 
G01 X10.3206 Y22.8718 
G01 X10.5921 Y22.9842 
G01 X10.8465 Y23.1311 
G01 X11.0796 Y23.3100 
G01 X11.2874 Y23.5177 
G01 X11.4662 Y23.7508 
G01 X11.6131 Y24.0053 
G01 X11.7256 Y24.2767 
G01 X11.7996 Y24.5529 
G01 X11.8736 Y24.2767 
G01 X11.9860 Y24.0053 
G01 X12.1329 Y23.7508 
G01 X12.3118 Y23.5177 
G01 X12.5195 Y23.3100 
G01 X12.7526 Y23.1311 
G01 X13.0071 Y22.9842 
G01 X13.2785 Y22.8718 
G01 X13.5623 Y22.7957 
G01 X13.8536 Y22.7574 
G01 X14.1474 Y22.7574 
G01 X14.4387 Y22.7957 
G01 X14.7225 Y22.8718 
G01 X14.9939 Y22.9842 
G01 X15.2483 Y23.1311 
G01 X15.4814 Y23.3100 
G01 X15.6892 Y23.5177 
G01 X15.8680 Y23.7508 
G01 X16.0149 Y24.0053 
G01 X16.1274 Y24.2767 
G01 X16.2001 Y24.5482 
G01 X16.2729 Y24.2767 
G01 X16.3853 Y24.0053 
G01 X16.5322 Y23.7508 
G01 X16.7111 Y23.5177 
G01 X16.9188 Y23.3100 
G01 X17.1519 Y23.1311 
G01 X17.4063 Y22.9842 
G01 X17.6778 Y22.8718 
G01 X17.9616 Y22.7957 
G01 X18.2529 Y22.7574 
G01 X18.5467 Y22.7574 
G01 X18.8380 Y22.7957 
G01 X19.1217 Y22.8718 
G01 X19.3932 Y22.9842 
G01 X19.5718 Y23.0873 
G01 X23.0873 Y19.5718 
G01 X22.9842 Y19.3932 
G01 X22.8718 Y19.1217 
G01 X22.7957 Y18.8380 
G01 X22.7574 Y18.5467 
G01 X22.7574 Y18.2529 
G01 X22.7957 Y17.9616 
G01 X22.8718 Y17.6778 
G01 X22.9842 Y17.4063 
G01 X23.1311 Y17.1519 
G01 X23.3100 Y16.9188 
G01 X23.5177 Y16.7111 
G01 X23.7508 Y16.5322 
G01 X24.0053 Y16.3853 
G01 X24.2767 Y16.2729 
G01 X24.5482 Y16.2001 
G01 X24.2767 Y16.1274 
G01 X24.0053 Y16.0149 
G01 X23.7508 Y15.8680 
G01 X23.5177 Y15.6892 
G01 X23.3100 Y15.4814 
G01 X23.1311 Y15.2483 
G01 X22.9842 Y14.9939 
G01 X22.8718 Y14.7225 
G01 X22.7957 Y14.4387 
G01 X22.7825 Y14.3383 
G01 X12.0851 Y14.3383 
G01 X12.0120 Y14.4477 
G01 X11.9077 Y14.5520 
G01 X11.7849 Y14.6340 
G01 X11.6486 Y14.6905 
G01 X11.5038 Y14.7193 
G01 X11.3562 Y14.7193 
G01 X11.2114 Y14.6905 
G01 X11.0751 Y14.6340 
G01 X10.9523 Y14.5520 
G01 X10.8480 Y14.4477 
G01 X10.7749 Y14.3383 
G01 X9.5451 Y14.3383 
G01 X9.4720 Y14.4477 
G01 X9.3677 Y14.5520 
G01 X9.2449 Y14.6340 
G01 X9.1086 Y14.6905 
G01 X8.9638 Y14.7193 
G01 X8.8162 Y14.7193 
G01 X8.6714 Y14.6905 
G01 X8.5351 Y14.6340 
G01 X8.4123 Y14.5520 
G01 X8.3080 Y14.4477 
G01 X8.2260 Y14.3249 
G01 X8.1695 Y14.1886 
G01 X8.1407 Y14.0438 
G01 X8.1407 Y13.9701 
G01 X7.9883 Y14.1226 
G01 X7.9883 Y23.4394 
G01 X8.1177 Y23.3100 
G00 Z2.5400 
G00 X23.3173 Y11.0869 
G01 Z-0.1778 F254.00 
G01 X23.3100 Y11.0796 F508.00 
G01 X23.1311 Y10.8465 
G01 X22.9842 Y10.5921 
G01 X22.8718 Y10.3206 
G01 X22.7957 Y10.0369 
G01 X22.7574 Y9.7456 
G01 X22.7574 Y9.4518 
G01 X22.7957 Y9.1605 
G01 X22.8718 Y8.8767 
G01 X22.9842 Y8.6052 
G01 X23.1311 Y8.3508 
G01 X23.3100 Y8.1177 
G01 X23.5177 Y7.9100 
G01 X23.7508 Y7.7311 
G01 X24.0053 Y7.5842 
G01 X24.2767 Y7.4718 
G01 X24.5482 Y7.3990 
G01 X24.2767 Y7.3263 
G01 X24.0053 Y7.2138 
G01 X23.8669 Y7.1340 
G01 X18.7097 Y12.2911 
G01 X18.6691 Y12.3317 
G01 X22.0724 Y12.3317 
G01 X23.3173 Y11.0869 
G00 Z2.5400 
G00 X27.1256 Y36.7214 
G01 Z-0.1778 F254.00 
G01 X27.0131 Y36.9928 F508.00 
G01 X26.8662 Y37.2473 
G01 X26.6874 Y37.4804 
G01 X26.4796 Y37.6881 
G01 X26.2465 Y37.8670 
G01 X25.9921 Y38.0139 
G01 X25.7207 Y38.1263 
G01 X25.4492 Y38.1991 
G01 X25.7207 Y38.2718 
G01 X25.9921 Y38.3842 
G01 X26.2465 Y38.5311 
G01 X26.4796 Y38.7100 
G01 X26.6874 Y38.9177 
G01 X26.8662 Y39.1508 
G01 X27.0131 Y39.4053 
G01 X27.1256 Y39.6767 
G01 X27.2016 Y39.9605 
G01 X27.2400 Y40.2518 
G01 X27.2400 Y40.5456 
G01 X27.2016 Y40.8369 
G01 X27.1256 Y41.1207 
G01 X27.0131 Y41.3921 
G01 X26.8662 Y41.6466 
G01 X26.6874 Y41.8797 
G01 X26.4796 Y42.0874 
G01 X26.2465 Y42.2663 
G01 X25.9921 Y42.4132 
G01 X25.7207 Y42.5256 
G01 X25.4445 Y42.5996 
G01 X25.7207 Y42.6736 
G01 X25.9921 Y42.7861 
G01 X26.2465 Y42.9330 
G01 X26.4796 Y43.1118 
G01 X26.6874 Y43.3196 
G01 X26.8662 Y43.5526 
G01 X27.0131 Y43.8071 
G01 X27.1256 Y44.0785 
G01 X27.1264 Y44.0817 
G01 X37.9474 Y44.0817 
G01 X38.0114 Y44.0178 
G01 X37.9857 Y43.8888 
G01 X37.9857 Y43.7412 
G01 X38.0145 Y43.5964 
G01 X38.0710 Y43.4601 
G01 X38.1530 Y43.3373 
G01 X38.2573 Y43.2330 
G01 X38.3801 Y43.1510 
G01 X38.5164 Y43.0945 
G01 X38.6612 Y43.0657 
G01 X38.7349 Y43.0657 
G01 X32.2324 Y36.5633 
G01 X27.1679 Y36.5633 
G01 X27.1256 Y36.7214 
G00 Z2.5400 
G00 X29.8935 Y28.3083 
G01 Z-0.1778 F254.00 
G01 X29.7965 Y28.3083 F508.00 
G01 X29.7028 Y28.2832 
G01 X29.6189 Y28.2347 
G01 X28.3230 Y26.9388 
G01 X28.1943 Y27.0131 
G01 X27.9228 Y27.1256 
G01 X27.6391 Y27.2016 
G01 X27.3478 Y27.2400 
G01 X27.2400 Y27.2400 
G01 X27.2400 Y27.3478 
G01 X27.2016 Y27.6391 
G01 X27.1256 Y27.9228 
G01 X27.0131 Y28.1943 
G01 X26.8662 Y28.4487 
G01 X26.6874 Y28.6818 
G01 X26.4796 Y28.8896 
G01 X26.2465 Y29.0684 
G01 X25.9921 Y29.2153 
G01 X25.7207 Y29.3278 
G01 X25.4492 Y29.4005 
G01 X25.7207 Y29.4732 
G01 X25.9921 Y29.5857 
G01 X26.2465 Y29.7326 
G01 X26.4796 Y29.9114 
G01 X26.6874 Y30.1192 
G01 X26.8662 Y30.3523 
G01 X27.0131 Y30.6067 
G01 X27.1256 Y30.8782 
G01 X27.2016 Y31.1619 
G01 X27.2306 Y31.3817 
G01 X31.1635 Y31.3817 
G01 X31.2572 Y31.4068 
G01 X31.3411 Y31.4553 
G01 X31.4097 Y31.5239 
G01 X39.8907 Y40.0049 
G01 X39.8907 Y39.9312 
G01 X39.9195 Y39.7864 
G01 X39.9760 Y39.6501 
G01 X40.0580 Y39.5273 
G01 X40.1623 Y39.4230 
G01 X40.2717 Y39.3499 
G01 X40.2717 Y27.2400 
G01 X40.2518 Y27.2400 
G01 X39.9605 Y27.2016 
G01 X39.6767 Y27.1256 
G01 X39.4053 Y27.0131 
G01 X39.1508 Y26.8662 
G01 X38.9177 Y26.6874 
G01 X38.7100 Y26.4796 
G01 X38.5311 Y26.2465 
G01 X38.3842 Y25.9921 
G01 X38.2718 Y25.7207 
G01 X38.1991 Y25.4492 
G01 X38.1263 Y25.7207 
G01 X38.0139 Y25.9921 
G01 X37.8670 Y26.2465 
G01 X37.6881 Y26.4796 
G01 X37.4804 Y26.6874 
G01 X37.2473 Y26.8662 
G01 X36.9928 Y27.0131 
G01 X36.7214 Y27.1256 
G01 X36.4376 Y27.2016 
G01 X36.1463 Y27.2400 
G01 X35.8525 Y27.2400 
G01 X35.5612 Y27.2016 
G01 X35.2774 Y27.1256 
G01 X35.0060 Y27.0131 
G01 X34.7516 Y26.8662 
G01 X34.5185 Y26.6874 
G01 X34.3107 Y26.4796 
G01 X34.1319 Y26.2465 
G01 X33.9850 Y25.9921 
G01 X33.8725 Y25.7207 
G01 X33.7998 Y25.4492 
G01 X33.7270 Y25.7207 
G01 X33.6146 Y25.9921 
G01 X33.4677 Y26.2465 
G01 X33.2888 Y26.4796 
G01 X33.0811 Y26.6874 
G01 X32.8480 Y26.8662 
G01 X32.5936 Y27.0131 
G01 X32.3221 Y27.1256 
G01 X32.0383 Y27.2016 
G01 X31.7470 Y27.2400 
G01 X31.4532 Y27.2400 
G01 X31.1619 Y27.2016 
G01 X30.8782 Y27.1256 
G01 X30.6067 Y27.0131 
G01 X30.3523 Y26.8662 
G01 X30.1192 Y26.6874 
G01 X29.9114 Y26.4796 
G01 X29.7326 Y26.2465 
G01 X29.5857 Y25.9921 
G01 X29.4732 Y25.7207 
G01 X29.4005 Y25.4492 
G01 X29.3278 Y25.7207 
G01 X29.2153 Y25.9921 
G01 X29.0684 Y26.2465 
G01 X28.8965 Y26.4706 
G01 X29.9976 Y27.5717 
G01 X38.7149 Y27.5717 
G01 X38.7880 Y27.4623 
G01 X38.8923 Y27.3580 
G01 X39.0151 Y27.2760 
G01 X39.1514 Y27.2195 
G01 X39.2962 Y27.1907 
G01 X39.4438 Y27.1907 
G01 X39.5886 Y27.2195 
G01 X39.7249 Y27.2760 
G01 X39.8477 Y27.3580 
G01 X39.9520 Y27.4623 
G01 X40.0340 Y27.5851 
G01 X40.0905 Y27.7214 
G01 X40.1193 Y27.8662 
G01 X40.1193 Y28.0138 
G01 X40.0905 Y28.1586 
G01 X40.0340 Y28.2949 
G01 X39.9520 Y28.4177 
G01 X39.8477 Y28.5220 
G01 X39.7249 Y28.6040 
G01 X39.5886 Y28.6605 
G01 X39.4438 Y28.6893 
G01 X39.2962 Y28.6893 
G01 X39.1514 Y28.6605 
G01 X39.0151 Y28.6040 
G01 X38.8923 Y28.5220 
G01 X38.7880 Y28.4177 
G01 X38.7149 Y28.3083 
G01 X29.8935 Y28.3083 
G00 Z2.5400 
G00 X36.4897 Y9.7511 
G01 Z-0.1778 F254.00 
G01 X36.4211 Y9.8197 F508.00 
G01 X36.3372 Y9.8682 
G01 X36.2435 Y9.8933 
G01 X27.2205 Y9.8933 
G01 X27.2016 Y10.0369 
G01 X27.1256 Y10.3206 
G01 X27.0131 Y10.5921 
G01 X26.8662 Y10.8465 
G01 X26.6874 Y11.0796 
G01 X26.4796 Y11.2874 
G01 X26.2465 Y11.4662 
G01 X25.9921 Y11.6131 
G01 X25.7207 Y11.7256 
G01 X25.4444 Y11.7996 
G01 X25.7207 Y11.8736 
G01 X25.9921 Y11.9860 
G01 X26.2465 Y12.1329 
G01 X26.4796 Y12.3118 
G01 X26.6874 Y12.5195 
G01 X26.8662 Y12.7526 
G01 X27.0131 Y13.0071 
G01 X27.1256 Y13.2785 
G01 X27.2016 Y13.5623 
G01 X27.2400 Y13.8536 
G01 X27.2400 Y14.1474 
G01 X27.2016 Y14.4387 
G01 X27.1256 Y14.7225 
G01 X27.0131 Y14.9939 
G01 X26.8662 Y15.2483 
G01 X26.6874 Y15.4814 
G01 X26.4796 Y15.6892 
G01 X26.2465 Y15.8680 
G01 X25.9921 Y16.0149 
G01 X25.7207 Y16.1274 
G01 X25.4492 Y16.2001 
G01 X25.7207 Y16.2729 
G01 X25.9921 Y16.3853 
G01 X26.2465 Y16.5322 
G01 X26.4796 Y16.7111 
G01 X26.6874 Y16.9188 
G01 X26.8662 Y17.1519 
G01 X27.0131 Y17.4063 
G01 X27.0154 Y17.4117 
G01 X30.3274 Y17.4117 
G01 X40.6399 Y7.0993 
G01 X40.5662 Y7.0993 
G01 X40.4214 Y7.0705 
G01 X40.2851 Y7.0140 
G01 X40.1623 Y6.9320 
G01 X40.0580 Y6.8277 
G01 X39.9760 Y6.7049 
G01 X39.9195 Y6.5686 
G01 X39.8907 Y6.4238 
G01 X39.8907 Y6.2762 
G01 X39.9164 Y6.1472 
G01 X39.8524 Y6.0833 
G01 X36.2151 Y6.0833 
G01 X36.1420 Y6.1927 
G01 X36.0376 Y6.2970 
G01 X35.9149 Y6.3790 
G01 X35.7786 Y6.4355 
G01 X35.6338 Y6.4643 
G01 X35.4862 Y6.4643 
G01 X35.3414 Y6.4355 
G01 X35.2051 Y6.3790 
G01 X35.0823 Y6.2970 
G01 X34.9780 Y6.1927 
G01 X34.9049 Y6.0833 
G01 X27.0585 Y6.0833 
G01 X27.0131 Y6.1928 
G01 X26.8662 Y6.4472 
G01 X26.6874 Y6.6803 
G01 X26.4796 Y6.8881 
G01 X26.2465 Y7.0669 
G01 X25.9921 Y7.2138 
G01 X25.7207 Y7.3263 
G01 X25.4492 Y7.3990 
G01 X25.7207 Y7.4718 
G01 X25.9921 Y7.5842 
G01 X26.2465 Y7.7311 
G01 X26.4796 Y7.9100 
G01 X26.6874 Y8.1177 
G01 X26.8662 Y8.3508 
G01 X27.0131 Y8.6052 
G01 X27.1256 Y8.8767 
G01 X27.2006 Y9.1567 
G01 X36.0424 Y9.1567 
G01 X36.7414 Y8.4578 
G01 X36.7157 Y8.3288 
G01 X36.7157 Y8.1812 
G01 X36.7445 Y8.0364 
G01 X36.8010 Y7.9001 
G01 X36.8830 Y7.7773 
G01 X36.9873 Y7.6730 
G01 X37.1101 Y7.5910 
G01 X37.2464 Y7.5345 
G01 X37.3912 Y7.5057 
G01 X37.5388 Y7.5057 
G01 X37.6836 Y7.5345 
G01 X37.8199 Y7.5910 
G01 X37.9427 Y7.6730 
G01 X38.0470 Y7.7773 
G01 X38.1290 Y7.9001 
G01 X38.1855 Y8.0364 
G01 X38.2143 Y8.1812 
G01 X38.2143 Y8.3288 
G01 X38.1855 Y8.4736 
G01 X38.1290 Y8.6099 
G01 X38.0470 Y8.7326 
G01 X37.9427 Y8.8370 
G01 X37.8199 Y8.9190 
G01 X37.6836 Y8.9755 
G01 X37.5388 Y9.0043 
G01 X37.3912 Y9.0043 
G01 X37.2622 Y8.9786 
G01 X36.4897 Y9.7511 
G00 Z2.5400 
G00 X27.2400 Y18.2529 
G01 Z-0.1778 F254.00 
G01 X27.2400 Y18.5467 F508.00 
G01 X27.2016 Y18.8380 
G01 X27.1256 Y19.1217 
G01 X27.0131 Y19.3932 
G01 X26.8662 Y19.6476 
G01 X26.6874 Y19.8807 
G01 X26.4796 Y20.0885 
G01 X26.2465 Y20.2673 
G01 X25.9921 Y20.4142 
G01 X25.7207 Y20.5267 
G01 X25.4492 Y20.5994 
G01 X25.7207 Y20.6721 
G01 X25.9921 Y20.7846 
G01 X26.2465 Y20.9315 
G01 X26.4796 Y21.1103 
G01 X26.6874 Y21.3181 
G01 X26.8662 Y21.5512 
G01 X27.0131 Y21.8056 
G01 X27.1256 Y22.0771 
G01 X27.2016 Y22.3608 
G01 X27.2400 Y22.6521 
G01 X27.2400 Y22.7574 
G01 X27.3478 Y22.7574 
G01 X27.6391 Y22.7957 
G01 X27.9228 Y22.8718 
G01 X28.1943 Y22.9842 
G01 X28.4487 Y23.1311 
G01 X28.6818 Y23.3100 
G01 X28.8896 Y23.5177 
G01 X29.0684 Y23.7508 
G01 X29.2153 Y24.0053 
G01 X29.3278 Y24.2767 
G01 X29.4005 Y24.5482 
G01 X29.4732 Y24.2767 
G01 X29.5857 Y24.0053 
G01 X29.7326 Y23.7508 
G01 X29.9114 Y23.5177 
G01 X30.1192 Y23.3100 
G01 X30.3523 Y23.1311 
G01 X30.6067 Y22.9842 
G01 X30.7467 Y22.9262 
G01 X30.7467 Y18.1483 
G01 X27.2262 Y18.1483 
G01 X27.2400 Y18.2529 
G00 Z2.5400 
G00 X31.7470 Y22.7574 
G01 Z-0.1778 F254.00 
G01 X32.0383 Y22.7957 F508.00 
G01 X32.3221 Y22.8718 
G01 X32.5936 Y22.9842 
G01 X32.8480 Y23.1311 
G01 X33.0811 Y23.3100 
G01 X33.2888 Y23.5177 
G01 X33.4677 Y23.7508 
G01 X33.6146 Y24.0053 
G01 X33.7270 Y24.2767 
G01 X33.7998 Y24.5482 
G01 X33.8725 Y24.2767 
G01 X33.9850 Y24.0053 
G01 X34.1319 Y23.7508 
G01 X34.3107 Y23.5177 
G01 X34.5185 Y23.3100 
G01 X34.7516 Y23.1311 
G01 X35.0060 Y22.9842 
G01 X35.2774 Y22.8718 
G01 X35.5612 Y22.7957 
G01 X35.8525 Y22.7574 
G01 X36.1463 Y22.7574 
G01 X36.4376 Y22.7957 
G01 X36.7214 Y22.8718 
G01 X36.9928 Y22.9842 
G01 X37.2473 Y23.1311 
G01 X37.2817 Y23.1575 
G01 X38.6464 Y21.7928 
G01 X38.6207 Y21.6638 
G01 X38.6207 Y21.5162 
G01 X38.6495 Y21.3714 
G01 X38.7060 Y21.2351 
G01 X38.7880 Y21.1123 
G01 X38.8923 Y21.0080 
G01 X39.0151 Y20.9260 
G01 X39.1514 Y20.8695 
G01 X39.2962 Y20.8407 
G01 X39.4438 Y20.8407 
G01 X39.5886 Y20.8695 
G01 X39.7249 Y20.9260 
G01 X39.8477 Y21.0080 
G01 X39.9520 Y21.1123 
G01 X40.0340 Y21.2351 
G01 X40.0905 Y21.3714 
G01 X40.1193 Y21.5162 
G01 X40.1193 Y21.6638 
G01 X40.0905 Y21.8086 
G01 X40.0340 Y21.9449 
G01 X39.9520 Y22.0677 
G01 X39.8477 Y22.1720 
G01 X39.7249 Y22.2540 
G01 X39.5886 Y22.3105 
G01 X39.4438 Y22.3393 
G01 X39.2962 Y22.3393 
G01 X39.1672 Y22.3136 
G01 X37.8075 Y23.6733 
G01 X37.8670 Y23.7508 
G01 X38.0139 Y24.0053 
G01 X38.1263 Y24.2767 
G01 X38.1991 Y24.5482 
G01 X38.2718 Y24.2767 
G01 X38.3842 Y24.0053 
G01 X38.5311 Y23.7508 
G01 X38.7100 Y23.5177 
G01 X38.9177 Y23.3100 
G01 X39.1508 Y23.1311 
G01 X39.4053 Y22.9842 
G01 X39.6767 Y22.8718 
G01 X39.9605 Y22.7957 
G01 X40.2518 Y22.7574 
G01 X40.5456 Y22.7574 
G01 X40.8369 Y22.7957 
G01 X41.1207 Y22.8718 
G01 X41.3921 Y22.9842 
G01 X41.6466 Y23.1311 
G01 X41.8797 Y23.3100 
G01 X42.0874 Y23.5177 
G01 X42.2663 Y23.7508 
G01 X42.4132 Y24.0053 
G01 X42.5256 Y24.2767 
G01 X42.5996 Y24.5529 
G01 X42.6736 Y24.2767 
G01 X42.7861 Y24.0053 
G01 X42.9330 Y23.7508 
G01 X43.1118 Y23.5177 
G01 X43.3196 Y23.3100 
G01 X43.5526 Y23.1311 
G01 X43.8071 Y22.9842 
G01 X44.0785 Y22.8718 
G01 X44.0817 Y22.8709 
G01 X44.0817 Y5.4483 
G01 X42.0626 Y5.4483 
G01 X41.9101 Y5.6007 
G01 X41.9838 Y5.6007 
G01 X42.1286 Y5.6295 
G01 X42.2649 Y5.6860 
G01 X42.3877 Y5.7680 
G01 X42.4920 Y5.8723 
G01 X42.5740 Y5.9951 
G01 X42.6305 Y6.1314 
G01 X42.6593 Y6.2762 
G01 X42.6593 Y6.4238 
G01 X42.6305 Y6.5686 
G01 X42.5740 Y6.7049 
G01 X42.4920 Y6.8277 
G01 X42.3877 Y6.9320 
G01 X42.2649 Y7.0140 
G01 X42.1286 Y7.0705 
G01 X41.9838 Y7.0993 
G01 X41.8362 Y7.0993 
G01 X41.7072 Y7.0736 
G01 X31.3122 Y17.4686 
G01 X31.3411 Y17.4853 
G01 X31.4097 Y17.5539 
G01 X31.4582 Y17.6378 
G01 X31.4833 Y17.7315 
G01 X31.4833 Y22.7574 
G01 X31.7470 Y22.7574 
G00 Z2.5400 
G00 X27.1256 Y32.3221 
G01 Z-0.1778 F254.00 
G01 X27.0131 Y32.5936 F508.00 
G01 X26.8662 Y32.8480 
G01 X26.6874 Y33.0811 
G01 X26.4796 Y33.2888 
G01 X26.2465 Y33.4677 
G01 X25.9921 Y33.6146 
G01 X25.7207 Y33.7270 
G01 X25.4492 Y33.7998 
G01 X25.7207 Y33.8725 
G01 X25.9921 Y33.9850 
G01 X26.2465 Y34.1319 
G01 X26.4796 Y34.3107 
G01 X26.6874 Y34.5185 
G01 X26.8662 Y34.7516 
G01 X27.0131 Y35.0060 
G01 X27.1256 Y35.2774 
G01 X27.2016 Y35.5612 
G01 X27.2366 Y35.8267 
G01 X32.4335 Y35.8267 
G01 X32.5272 Y35.8518 
G01 X32.6111 Y35.9003 
G01 X32.6797 Y35.9689 
G01 X39.8022 Y43.0914 
G01 X39.9312 Y43.0657 
G01 X40.0788 Y43.0657 
G01 X40.2236 Y43.0945 
G01 X40.3599 Y43.1510 
G01 X40.4826 Y43.2330 
G01 X40.5870 Y43.3373 
G01 X40.6601 Y43.4467 
G01 X43.7949 Y43.4467 
G01 X43.8680 Y43.3373 
G01 X43.9723 Y43.2330 
G01 X44.0951 Y43.1510 
G01 X44.2314 Y43.0945 
G01 X44.3762 Y43.0657 
G01 X44.5238 Y43.0657 
G01 X44.6686 Y43.0945 
G01 X44.8049 Y43.1510 
G01 X44.9276 Y43.2330 
G01 X45.0320 Y43.3373 
G01 X45.1140 Y43.4601 
G01 X45.1705 Y43.5964 
G01 X45.1993 Y43.7412 
G01 X45.1993 Y43.8888 
G01 X45.1705 Y44.0336 
G01 X45.1140 Y44.1699 
G01 X45.0320 Y44.2927 
G01 X44.9276 Y44.3970 
G01 X44.8049 Y44.4790 
G01 X44.6686 Y44.5355 
G01 X44.5238 Y44.5643 
G01 X44.3762 Y44.5643 
G01 X44.2314 Y44.5355 
G01 X44.0951 Y44.4790 
G01 X43.9723 Y44.3970 
G01 X43.8680 Y44.2927 
G01 X43.7949 Y44.1833 
G01 X40.6601 Y44.1833 
G01 X40.5870 Y44.2927 
G01 X40.4826 Y44.3970 
G01 X40.3599 Y44.4790 
G01 X40.2236 Y44.5355 
G01 X40.0788 Y44.5643 
G01 X39.9312 Y44.5643 
G01 X39.7864 Y44.5355 
G01 X39.6501 Y44.4790 
G01 X39.5273 Y44.3970 
G01 X39.4230 Y44.2927 
G01 X39.3700 Y44.2134 
G01 X39.3170 Y44.2927 
G01 X39.2127 Y44.3970 
G01 X39.0899 Y44.4790 
G01 X38.9536 Y44.5355 
G01 X38.8088 Y44.5643 
G01 X38.6612 Y44.5643 
G01 X38.5322 Y44.5386 
G01 X38.3947 Y44.6761 
G01 X38.3261 Y44.7447 
G01 X38.2422 Y44.7932 
G01 X38.1485 Y44.8183 
G01 X27.2400 Y44.8183 
G01 X27.2400 Y44.9474 
G01 X27.2016 Y45.2387 
G01 X27.1256 Y45.5225 
G01 X27.0131 Y45.7939 
G01 X26.8662 Y46.0484 
G01 X26.6874 Y46.2815 
G01 X26.4796 Y46.4892 
G01 X26.2465 Y46.6681 
G01 X25.9921 Y46.8150 
G01 X25.7207 Y46.9274 
G01 X25.4369 Y47.0035 
G01 X25.1456 Y47.0418 
G01 X24.8518 Y47.0418 
G01 X24.5605 Y47.0035 
G01 X24.2767 Y46.9274 
G01 X24.0053 Y46.8150 
G01 X23.7508 Y46.6681 
G01 X23.5177 Y46.4892 
G01 X23.3100 Y46.2815 
G01 X23.1311 Y46.0484 
G01 X22.9842 Y45.7939 
G01 X22.8718 Y45.5225 
G01 X22.7957 Y45.2387 
G01 X22.7574 Y44.9474 
G01 X22.7574 Y44.8183 
G01 X5.6665 Y44.8183 
G01 X5.5728 Y44.7932 
G01 X5.4889 Y44.7447 
G01 X5.4203 Y44.6761 
G01 X5.3718 Y44.5922 
G01 X5.3467 Y44.4985 
G01 X5.3467 Y28.5951 
G01 X5.2373 Y28.5220 
G01 X5.1330 Y28.4177 
G01 X5.0510 Y28.2949 
G01 X4.9945 Y28.1586 
G01 X4.9657 Y28.0138 
G01 X4.9657 Y27.8662 
G01 X4.9945 Y27.7214 
G01 X5.0510 Y27.5851 
G01 X5.1330 Y27.4623 
G01 X5.2373 Y27.3580 
G01 X5.3467 Y27.2849 
G01 X5.3467 Y27.2399 
G01 X5.0525 Y27.2400 
G01 X4.7612 Y27.2016 
G01 X4.4774 Y27.1256 
G01 X4.2060 Y27.0131 
G01 X3.9515 Y26.8662 
G01 X3.7184 Y26.6874 
G01 X3.5107 Y26.4796 
G01 X3.3318 Y26.2465 
G01 X3.1849 Y25.9921 
G01 X3.0725 Y25.7207 
G01 X2.9964 Y25.4369 
G01 X2.9581 Y25.1456 
G01 X2.9581 Y24.8518 
G01 X2.9964 Y24.5605 
G01 X3.0725 Y24.2767 
G01 X3.1849 Y24.0053 
G01 X3.3318 Y23.7508 
G01 X3.5107 Y23.5177 
G01 X3.7184 Y23.3100 
G01 X3.9515 Y23.1311 
G01 X4.2060 Y22.9842 
G01 X4.4774 Y22.8718 
G01 X4.7612 Y22.7957 
G01 X5.0525 Y22.7574 
G01 X5.3463 Y22.7574 
G01 X5.3467 Y14.5565 
G01 X5.3718 Y14.4628 
G01 X5.4203 Y14.3789 
G01 X5.4889 Y14.3103 
G01 X8.0289 Y11.7703 
G01 X8.1128 Y11.7218 
G01 X8.2065 Y11.6967 
G01 X18.2624 Y11.6967 
G01 X23.2964 Y6.6627 
G01 X23.1311 Y6.4472 
G01 X22.9842 Y6.1928 
G01 X22.8718 Y5.9214 
G01 X22.7957 Y5.6376 
G01 X22.7574 Y5.3463 
G01 X22.7574 Y5.0525 
G01 X22.7957 Y4.7612 
G01 X22.8718 Y4.4774 
G01 X22.9842 Y4.2060 
G01 X23.1311 Y3.9515 
G01 X23.3100 Y3.7184 
G01 X23.5177 Y3.5107 
G01 X23.7508 Y3.3318 
G01 X24.0053 Y3.1849 
G01 X24.2767 Y3.0725 
G01 X24.5605 Y2.9964 
G01 X24.8518 Y2.9581 
G01 X25.1456 Y2.9581 
G01 X25.4369 Y2.9964 
G01 X25.7207 Y3.0725 
G01 X25.9921 Y3.1849 
G01 X26.2465 Y3.3318 
G01 X26.4796 Y3.5107 
G01 X26.6874 Y3.7184 
G01 X26.8662 Y3.9515 
G01 X27.0131 Y4.2060 
G01 X27.1256 Y4.4774 
G01 X27.2016 Y4.7612 
G01 X27.2400 Y5.0525 
G01 X27.2400 Y5.3463 
G01 X34.9049 Y5.3467 
G01 X34.9780 Y5.2373 
G01 X35.0823 Y5.1330 
G01 X35.2051 Y5.0510 
G01 X35.3414 Y4.9945 
G01 X35.4862 Y4.9657 
G01 X35.6338 Y4.9657 
G01 X35.7786 Y4.9945 
G01 X35.9149 Y5.0510 
G01 X36.0376 Y5.1330 
G01 X36.1420 Y5.2373 
G01 X36.2151 Y5.3467 
G01 X40.0535 Y5.3467 
G01 X40.1472 Y5.3718 
G01 X40.2311 Y5.4203 
G01 X40.2997 Y5.4889 
G01 X40.4372 Y5.6264 
G01 X40.5662 Y5.6007 
G01 X40.7138 Y5.6007 
G01 X40.8428 Y5.6264 
G01 X41.6839 Y4.7853 
G01 X41.7678 Y4.7368 
G01 X41.8615 Y4.7117 
G01 X44.4985 Y4.7117 
G01 X44.5922 Y4.7368 
G01 X44.6761 Y4.7853 
G01 X44.7447 Y4.8539 
G01 X44.7932 Y4.9378 
G01 X44.8183 Y5.0315 
G01 X44.8183 Y22.7574 
G01 X44.9474 Y22.7574 
G01 X45.2387 Y22.7957 
G01 X45.5225 Y22.8718 
G01 X45.7939 Y22.9842 
G01 X46.0484 Y23.1311 
G01 X46.2815 Y23.3100 
G01 X46.4892 Y23.5177 
G01 X46.6681 Y23.7508 
G01 X46.8150 Y24.0053 
G01 X46.9274 Y24.2767 
G01 X47.0035 Y24.5605 
G01 X47.0418 Y24.8518 
G01 X47.0418 Y25.1456 
G01 X47.0035 Y25.4369 
G01 X46.9274 Y25.7207 
G01 X46.8150 Y25.9921 
G01 X46.6681 Y26.2465 
G01 X46.4892 Y26.4796 
G01 X46.2815 Y26.6874 
G01 X46.0484 Y26.8662 
G01 X45.7939 Y27.0131 
G01 X45.5225 Y27.1256 
G01 X45.2387 Y27.2016 
G01 X44.9474 Y27.2400 
G01 X44.6536 Y27.2400 
G01 X44.3623 Y27.2016 
G01 X44.0785 Y27.1256 
G01 X43.8071 Y27.0131 
G01 X43.5526 Y26.8662 
G01 X43.3196 Y26.6874 
G01 X43.1118 Y26.4796 
G01 X42.9330 Y26.2465 
G01 X42.7861 Y25.9921 
G01 X42.6736 Y25.7207 
G01 X42.5996 Y25.4445 
G01 X42.5256 Y25.7207 
G01 X42.4132 Y25.9921 
G01 X42.2663 Y26.2465 
G01 X42.0874 Y26.4796 
G01 X41.8797 Y26.6874 
G01 X41.6466 Y26.8662 
G01 X41.3921 Y27.0131 
G01 X41.1207 Y27.1256 
G01 X41.0083 Y27.1557 
G01 X41.0083 Y39.3499 
G01 X41.1177 Y39.4230 
G01 X41.2220 Y39.5273 
G01 X41.3040 Y39.6501 
G01 X41.3605 Y39.7864 
G01 X41.3893 Y39.9312 
G01 X41.3893 Y40.0788 
G01 X41.3605 Y40.2236 
G01 X41.3040 Y40.3599 
G01 X41.2220 Y40.4826 
G01 X41.1177 Y40.5870 
G01 X40.9949 Y40.6690 
G01 X40.8586 Y40.7255 
G01 X40.7138 Y40.7543 
G01 X40.6401 Y40.7543 
G01 X41.7072 Y41.8214 
G01 X41.8362 Y41.7957 
G01 X41.9838 Y41.7957 
G01 X42.1286 Y41.8245 
G01 X42.2649 Y41.8810 
G01 X42.3877 Y41.9630 
G01 X42.4920 Y42.0673 
G01 X42.5740 Y42.1901 
G01 X42.6305 Y42.3264 
G01 X42.6593 Y42.4712 
G01 X42.6593 Y42.6188 
G01 X42.6305 Y42.7636 
G01 X42.5740 Y42.8999 
G01 X42.4920 Y43.0226 
G01 X42.3877 Y43.1270 
G01 X42.2649 Y43.2090 
G01 X42.1286 Y43.2655 
G01 X41.9838 Y43.2943 
G01 X41.8362 Y43.2943 
G01 X41.6914 Y43.2655 
G01 X41.5551 Y43.2090 
G01 X41.4323 Y43.1270 
G01 X41.3280 Y43.0226 
G01 X41.2460 Y42.8999 
G01 X41.1895 Y42.7636 
G01 X41.1607 Y42.6188 
G01 X41.1607 Y42.4712 
G01 X41.1864 Y42.3422 
G01 X30.9624 Y32.1183 
G01 X27.1802 Y32.1183 
G01 X27.1256 Y32.3221 
G00 Z2.5400 
G00 X40.0071 Y27.3378 
G01 Z-0.1778 F254.00 
G01 X40.0507 Y27.3814 F508.00 
G01 X40.1447 Y27.5221 
G01 X40.1447 Y27.3533 
G01 X40.0071 Y27.3378 
G00 Z2.5400 
G00 X29.9102 Y28.4353 
G01 Z-0.1778 F254.00 
G01 X29.7798 Y28.4353 F508.00 
G01 X29.6538 Y28.4015 
G01 X29.5409 Y28.3363 
G01 X28.3017 Y27.0972 
G01 X28.1086 Y27.1901 
G01 X27.8575 Y27.2780 
G01 X27.5982 Y27.3372 
G01 X27.3636 Y27.3636 
G01 X27.3372 Y27.5982 
G01 X27.2780 Y27.8575 
G01 X27.1901 Y28.1086 
G01 X27.0747 Y28.3483 
G01 X26.9332 Y28.5735 
G01 X26.7674 Y28.7814 
G01 X26.5793 Y28.9695 
G01 X26.3713 Y29.1354 
G01 X26.1461 Y29.2769 
G01 X25.9064 Y29.3923 
G01 X25.8830 Y29.4005 
G01 X25.9064 Y29.4087 
G01 X26.1461 Y29.5241 
G01 X26.3713 Y29.6656 
G01 X26.5793 Y29.8315 
G01 X26.7674 Y30.0196 
G01 X26.9332 Y30.2275 
G01 X27.0747 Y30.4527 
G01 X27.1901 Y30.6924 
G01 X27.2780 Y30.9435 
G01 X27.3372 Y31.2028 
G01 X27.3430 Y31.2547 
G01 X31.1802 Y31.2547 
G01 X31.3062 Y31.2885 
G01 X31.4191 Y31.3537 
G01 X31.5113 Y31.4459 
G01 X39.8025 Y39.7370 
G01 X39.8634 Y39.5899 
G01 X39.9593 Y39.4464 
G01 X40.0814 Y39.3243 
G01 X40.1447 Y39.2820 
G01 X40.1447 Y28.3579 
G01 X40.0507 Y28.4986 
G01 X39.9286 Y28.6207 
G01 X39.7851 Y28.7166 
G01 X39.6256 Y28.7826 
G01 X39.4563 Y28.8163 
G01 X39.2837 Y28.8163 
G01 X39.1144 Y28.7826 
G01 X38.9549 Y28.7166 
G01 X38.8114 Y28.6207 
G01 X38.6893 Y28.4986 
G01 X38.6470 Y28.4353 
G01 X29.9102 Y28.4353 
G00 Z2.5400 
G00 X27.2780 Y32.2568 
G01 Z-0.1778 F254.00 
G01 X27.1901 Y32.5079 F508.00 
G01 X27.0747 Y32.7475 
G01 X26.9332 Y32.9728 
G01 X26.7674 Y33.1807 
G01 X26.5793 Y33.3688 
G01 X26.3713 Y33.5347 
G01 X26.1461 Y33.6762 
G01 X25.9064 Y33.7916 
G01 X25.8830 Y33.7998 
G01 X25.9064 Y33.8080 
G01 X26.1461 Y33.9234 
G01 X26.3713 Y34.0649 
G01 X26.5793 Y34.2307 
G01 X26.7674 Y34.4188 
G01 X26.9332 Y34.6268 
G01 X27.0747 Y34.8520 
G01 X27.1901 Y35.0917 
G01 X27.2780 Y35.3428 
G01 X27.3372 Y35.6021 
G01 X27.3482 Y35.6997 
G01 X32.4502 Y35.6997 
G01 X32.5762 Y35.7335 
G01 X32.6891 Y35.7987 
G01 X32.7813 Y35.8909 
G01 X39.8440 Y42.9536 
G01 X39.9187 Y42.9387 
G01 X40.0913 Y42.9387 
G01 X40.2606 Y42.9724 
G01 X40.4201 Y43.0384 
G01 X40.5636 Y43.1343 
G01 X40.6857 Y43.2564 
G01 X40.7280 Y43.3197 
G01 X41.4921 Y43.3197 
G01 X41.3514 Y43.2257 
G01 X41.2293 Y43.1036 
G01 X41.1334 Y42.9601 
G01 X41.0674 Y42.8006 
G01 X41.0337 Y42.6313 
G01 X41.0337 Y42.4587 
G01 X41.0486 Y42.3840 
G01 X30.9098 Y32.2453 
G01 X27.2806 Y32.2453 
G01 X27.2780 Y32.2568 
G00 Z2.5400 
G00 X39.0261 Y26.9332 
G01 Z-0.1778 F254.00 
G01 X38.8181 Y26.7674 F508.00 
G01 X38.6300 Y26.5793 
G01 X38.4642 Y26.3713 
G01 X38.3226 Y26.1461 
G01 X38.2072 Y25.9064 
G01 X38.1991 Y25.8830 
G01 X38.1909 Y25.9064 
G01 X38.0755 Y26.1461 
G01 X37.9339 Y26.3713 
G01 X37.7681 Y26.5793 
G01 X37.5800 Y26.7674 
G01 X37.3720 Y26.9332 
G01 X37.1468 Y27.0747 
G01 X36.9072 Y27.1901 
G01 X36.6561 Y27.2780 
G01 X36.3967 Y27.3372 
G01 X36.1324 Y27.3670 
G01 X35.8664 Y27.3670 
G01 X35.6021 Y27.3372 
G01 X35.3428 Y27.2780 
G01 X35.0917 Y27.1901 
G01 X34.8520 Y27.0747 
G01 X34.6268 Y26.9332 
G01 X34.4188 Y26.7674 
G01 X34.2307 Y26.5793 
G01 X34.0649 Y26.3713 
G01 X33.9234 Y26.1461 
G01 X33.8080 Y25.9064 
G01 X33.7998 Y25.8831 
G01 X33.7916 Y25.9064 
G01 X33.6762 Y26.1461 
G01 X33.5347 Y26.3713 
G01 X33.3688 Y26.5793 
G01 X33.1807 Y26.7674 
G01 X32.9728 Y26.9332 
G01 X32.7475 Y27.0747 
G01 X32.5079 Y27.1901 
G01 X32.2568 Y27.2780 
G01 X31.9975 Y27.3372 
G01 X31.7331 Y27.3670 
G01 X31.4671 Y27.3670 
G01 X31.2028 Y27.3372 
G01 X30.9435 Y27.2780 
G01 X30.6924 Y27.1901 
G01 X30.4527 Y27.0747 
G01 X30.2275 Y26.9332 
G01 X30.0196 Y26.7674 
G01 X29.8315 Y26.5793 
G01 X29.6656 Y26.3713 
G01 X29.5241 Y26.1461 
G01 X29.4087 Y25.9064 
G01 X29.4005 Y25.8830 
G01 X29.3923 Y25.9064 
G01 X29.2769 Y26.1461 
G01 X29.1354 Y26.3713 
G01 X29.0650 Y26.4596 
G01 X30.0502 Y27.4447 
G01 X38.6470 Y27.4447 
G01 X38.6893 Y27.3814 
G01 X38.8114 Y27.2593 
G01 X38.9549 Y27.1634 
G01 X39.1144 Y27.0974 
G01 X39.2458 Y27.0712 
G01 X39.0261 Y26.9332 
G00 Z2.5400 
G00 X27.1901 Y36.9072 
G01 Z-0.1778 F254.00 
G01 X27.0747 Y37.1468 F508.00 
G01 X26.9332 Y37.3720 
G01 X26.7674 Y37.5800 
G01 X26.5793 Y37.7681 
G01 X26.3713 Y37.9339 
G01 X26.1461 Y38.0755 
G01 X25.9064 Y38.1909 
G01 X25.8830 Y38.1991 
G01 X25.9064 Y38.2072 
G01 X26.1461 Y38.3226 
G01 X26.3713 Y38.4642 
G01 X26.5793 Y38.6300 
G01 X26.7674 Y38.8181 
G01 X26.9332 Y39.0261 
G01 X27.0747 Y39.2513 
G01 X27.1901 Y39.4910 
G01 X27.2780 Y39.7420 
G01 X27.3372 Y40.0014 
G01 X27.3670 Y40.2657 
G01 X27.3670 Y40.5317 
G01 X27.3372 Y40.7960 
G01 X27.2780 Y41.0554 
G01 X27.1901 Y41.3064 
G01 X27.0747 Y41.5461 
G01 X26.9332 Y41.7713 
G01 X26.7674 Y41.9793 
G01 X26.5793 Y42.1674 
G01 X26.3713 Y42.3332 
G01 X26.1461 Y42.4748 
G01 X25.9064 Y42.5902 
G01 X25.8794 Y42.5996 
G01 X25.9064 Y42.6091 
G01 X26.1461 Y42.7245 
G01 X26.3713 Y42.8660 
G01 X26.5793 Y43.0318 
G01 X26.7674 Y43.2199 
G01 X26.9332 Y43.4279 
G01 X27.0747 Y43.6531 
G01 X27.1901 Y43.8928 
G01 X27.2118 Y43.9547 
G01 X37.8693 Y43.9547 
G01 X37.8587 Y43.9013 
G01 X37.8587 Y43.7287 
G01 X37.8924 Y43.5594 
G01 X37.9584 Y43.3999 
G01 X38.0543 Y43.2564 
G01 X38.1764 Y43.1343 
G01 X38.3199 Y43.0384 
G01 X38.4670 Y42.9775 
G01 X32.1798 Y36.6903 
G01 X27.2660 Y36.6903 
G01 X27.1901 Y36.9072 
G00 Z2.5400 
G00 X23.1481 Y11.0765 
G01 Z-0.1778 F254.00 
G01 X23.0642 Y10.9713 F508.00 
G01 X22.9226 Y10.7461 
G01 X22.8072 Y10.5064 
G01 X22.7194 Y10.2553 
G01 X22.6602 Y9.9960 
G01 X22.6304 Y9.7317 
G01 X22.6304 Y9.4657 
G01 X22.6602 Y9.2013 
G01 X22.7194 Y8.9420 
G01 X22.8072 Y8.6909 
G01 X22.9226 Y8.4513 
G01 X23.0642 Y8.2260 
G01 X23.2300 Y8.0181 
G01 X23.4181 Y7.8300 
G01 X23.6261 Y7.6641 
G01 X23.8513 Y7.5226 
G01 X24.0909 Y7.4072 
G01 X24.1143 Y7.3990 
G01 X24.0909 Y7.3908 
G01 X23.8876 Y7.2929 
G01 X18.9758 Y12.2047 
G01 X22.0198 Y12.2047 
G01 X23.1481 Y11.0765 
G00 Z2.5400 
G00 X11.9886 Y13.2893 
G01 Z-0.1778 F254.00 
G01 X12.1107 Y13.4114 F508.00 
G01 X12.1530 Y13.4747 
G01 X22.6895 Y13.4747 
G01 X22.7194 Y13.3438 
G01 X22.8072 Y13.0927 
G01 X22.9226 Y12.8531 
G01 X23.0642 Y12.6279 
G01 X23.2300 Y12.4199 
G01 X23.4181 Y12.2318 
G01 X23.6261 Y12.0660 
G01 X23.8513 Y11.9244 
G01 X24.0909 Y11.8090 
G01 X24.1179 Y11.7996 
G01 X24.0909 Y11.7901 
G01 X23.9184 Y11.7070 
G01 X22.6213 Y13.0041 
G01 X22.5291 Y13.0963 
G01 X22.4162 Y13.1615 
G01 X22.2902 Y13.1953 
G01 X11.8479 Y13.1953 
G01 X11.9886 Y13.2893 
G00 Z2.5400 
G00 X9.4486 Y13.2893 
G01 Z-0.1778 F254.00 
G01 X9.5707 Y13.4114 F508.00 
G01 X9.6130 Y13.4747 
G01 X10.7070 Y13.4747 
G01 X10.7493 Y13.4114 
G01 X10.8714 Y13.2893 
G01 X11.0121 Y13.1953 
G01 X9.3079 Y13.1953 
G01 X9.4486 Y13.2893 
G00 Z2.5400 
G00 X20.3343 Y23.6261 
G01 Z-0.1778 F254.00 
G01 X20.4758 Y23.8513 F508.00 
G01 X20.5912 Y24.0909 
G01 X20.5994 Y24.1143 
G01 X20.6076 Y24.0909 
G01 X20.7230 Y23.8513 
G01 X20.8645 Y23.6261 
G01 X21.0304 Y23.4181 
G01 X21.2185 Y23.2300 
G01 X21.4264 Y23.0642 
G01 X21.6516 Y22.9226 
G01 X21.8913 Y22.8072 
G01 X22.1424 Y22.7194 
G01 X22.4017 Y22.6602 
G01 X22.6340 Y22.6340 
G01 X22.6602 Y22.4017 
G01 X22.7194 Y22.1424 
G01 X22.8072 Y21.8913 
G01 X22.9226 Y21.6516 
G01 X23.0642 Y21.4264 
G01 X23.2300 Y21.2185 
G01 X23.4181 Y21.0304 
G01 X23.6261 Y20.8645 
G01 X23.8513 Y20.7230 
G01 X24.0909 Y20.6076 
G01 X24.1143 Y20.5994 
G01 X24.0909 Y20.5912 
G01 X23.8513 Y20.4758 
G01 X23.6261 Y20.3343 
G01 X23.5816 Y20.2988 
G01 X20.2988 Y23.5816 
G01 X20.3343 Y23.6261 
G00 Z2.5400 
G00 X8.2260 Y23.0642 
G01 Z-0.1778 F254.00 
G01 X8.4513 Y22.9226 F508.00 
G01 X8.6909 Y22.8072 
G01 X8.9420 Y22.7194 
G01 X9.2013 Y22.6602 
G01 X9.4657 Y22.6304 
G01 X9.7317 Y22.6304 
G01 X9.9960 Y22.6602 
G01 X10.2553 Y22.7194 
G01 X10.5064 Y22.8072 
G01 X10.7461 Y22.9226 
G01 X10.9713 Y23.0642 
G01 X11.1792 Y23.2300 
G01 X11.3673 Y23.4181 
G01 X11.5332 Y23.6261 
G01 X11.6747 Y23.8513 
G01 X11.7901 Y24.0909 
G01 X11.7996 Y24.1179 
G01 X11.8090 Y24.0909 
G01 X11.9244 Y23.8513 
G01 X12.0660 Y23.6261 
G01 X12.2318 Y23.4181 
G01 X12.4199 Y23.2300 
G01 X12.6279 Y23.0642 
G01 X12.8531 Y22.9226 
G01 X13.0927 Y22.8072 
G01 X13.3438 Y22.7194 
G01 X13.6032 Y22.6602 
G01 X13.8675 Y22.6304 
G01 X14.1335 Y22.6304 
G01 X14.3978 Y22.6602 
G01 X14.6571 Y22.7194 
G01 X14.9082 Y22.8072 
G01 X15.1479 Y22.9226 
G01 X15.3731 Y23.0642 
G01 X15.5811 Y23.2300 
G01 X15.7692 Y23.4181 
G01 X15.9350 Y23.6261 
G01 X16.0765 Y23.8513 
G01 X16.1919 Y24.0909 
G01 X16.2001 Y24.1143 
G01 X16.2083 Y24.0909 
G01 X16.3237 Y23.8513 
G01 X16.4652 Y23.6261 
G01 X16.6311 Y23.4181 
G01 X16.8192 Y23.2300 
G01 X17.0271 Y23.0642 
G01 X17.2524 Y22.9226 
G01 X17.4920 Y22.8072 
G01 X17.7431 Y22.7194 
G01 X18.0024 Y22.6602 
G01 X18.2668 Y22.6304 
G01 X18.5328 Y22.6304 
G01 X18.7971 Y22.6602 
G01 X19.0564 Y22.7194 
G01 X19.3075 Y22.8072 
G01 X19.5472 Y22.9226 
G01 X19.5531 Y22.9264 
G01 X22.9264 Y19.5531 
G01 X22.9226 Y19.5472 
G01 X22.8072 Y19.3075 
G01 X22.7194 Y19.0564 
G01 X22.6602 Y18.7971 
G01 X22.6304 Y18.5328 
G01 X22.6304 Y18.2668 
G01 X22.6602 Y18.0024 
G01 X22.7194 Y17.7431 
G01 X22.8072 Y17.4920 
G01 X22.9226 Y17.2524 
G01 X23.0642 Y17.0271 
G01 X23.2300 Y16.8192 
G01 X23.4181 Y16.6311 
G01 X23.6261 Y16.4652 
G01 X23.8513 Y16.3237 
G01 X24.0909 Y16.2083 
G01 X24.1143 Y16.2001 
G01 X24.0909 Y16.1919 
G01 X23.8513 Y16.0765 
G01 X23.6261 Y15.9350 
G01 X23.4181 Y15.7692 
G01 X23.2300 Y15.5811 
G01 X23.0642 Y15.3731 
G01 X22.9226 Y15.1479 
G01 X22.8072 Y14.9082 
G01 X22.7194 Y14.6571 
G01 X22.6756 Y14.4653 
G01 X12.1530 Y14.4653 
G01 X12.1107 Y14.5286 
G01 X11.9886 Y14.6507 
G01 X11.8451 Y14.7466 
G01 X11.6856 Y14.8126 
G01 X11.5163 Y14.8463 
G01 X11.3437 Y14.8463 
G01 X11.1744 Y14.8126 
G01 X11.0149 Y14.7466 
G01 X10.8714 Y14.6507 
G01 X10.7493 Y14.5286 
G01 X10.7070 Y14.4653 
G01 X9.6130 Y14.4653 
G01 X9.5707 Y14.5286 
G01 X9.4486 Y14.6507 
G01 X9.3051 Y14.7466 
G01 X9.1456 Y14.8126 
G01 X8.9763 Y14.8463 
G01 X8.8037 Y14.8463 
G01 X8.6344 Y14.8126 
G01 X8.4749 Y14.7466 
G01 X8.3314 Y14.6507 
G01 X8.2093 Y14.5286 
G01 X8.1153 Y14.3879 
G01 X8.1153 Y23.1525 
G01 X8.2260 Y23.0642 
G00 Z2.5400 
G00 X6.3468 Y22.9226 
G01 Z-0.1778 F254.00 
G01 X6.5720 Y23.0642 F508.00 
G01 X6.7800 Y23.2300 
G01 X6.9681 Y23.4181 
G01 X7.1247 Y23.6145 
G01 X7.1247 Y13.9048 
G01 X7.1280 Y13.8924 
G01 X6.2103 Y14.8102 
G01 X6.2103 Y22.8569 
G01 X6.3468 Y22.9226 
G00 Z2.5400 
G00 X20.7444 Y26.1801 
G01 Z-0.1778 F254.00 
G01 X20.7230 Y26.1461 F508.00 
G01 X20.6076 Y25.9064 
G01 X20.5994 Y25.8830 
G01 X20.5912 Y25.9064 
G01 X20.4758 Y26.1461 
G01 X20.3343 Y26.3713 
G01 X20.2885 Y26.4287 
G01 X20.4063 Y26.4287 
G01 X20.4810 Y26.4436 
G01 X20.7444 Y26.1801 
G00 Z2.5400 
G00 X12.0660 Y26.3713 
G01 Z-0.1778 F254.00 
G01 X11.9244 Y26.1461 F508.00 
G01 X11.8090 Y25.9064 
G01 X11.7996 Y25.8794 
G01 X11.7901 Y25.9064 
G01 X11.6747 Y26.1461 
G01 X11.5332 Y26.3713 
G01 X11.3673 Y26.5793 
G01 X11.1792 Y26.7674 
G01 X11.1262 Y26.8097 
G01 X11.8598 Y26.8097 
G01 X12.1690 Y26.5005 
G01 X12.0660 Y26.3713 
G00 Z2.5400 
G00 X22.8072 Y43.8928 
G01 Z-0.1778 F254.00 
G01 X22.9226 Y43.6531 F508.00 
G01 X23.0642 Y43.4279 
G01 X23.2300 Y43.2199 
G01 X23.4181 Y43.0318 
G01 X23.6261 Y42.8660 
G01 X23.8513 Y42.7245 
G01 X24.0909 Y42.6091 
G01 X24.1179 Y42.5996 
G01 X24.0909 Y42.5902 
G01 X23.8513 Y42.4748 
G01 X23.6261 Y42.3332 
G01 X23.4181 Y42.1674 
G01 X23.2300 Y41.9793 
G01 X23.0642 Y41.7713 
G01 X22.9226 Y41.5461 
G01 X22.8072 Y41.3064 
G01 X22.7194 Y41.0554 
G01 X22.6602 Y40.7960 
G01 X22.6304 Y40.5317 
G01 X22.6304 Y40.2657 
G01 X22.6602 Y40.0014 
G01 X22.7194 Y39.7420 
G01 X22.8072 Y39.4910 
G01 X22.9226 Y39.2513 
G01 X23.0642 Y39.0261 
G01 X23.0737 Y39.0141 
G01 X14.3998 Y30.3403 
G01 X10.8830 Y30.3403 
G01 X10.8407 Y30.4036 
G01 X10.7186 Y30.5257 
G01 X10.5751 Y30.6216 
G01 X10.4156 Y30.6876 
G01 X10.2463 Y30.7213 
G01 X10.0737 Y30.7213 
G01 X9.9044 Y30.6876 
G01 X9.7449 Y30.6216 
G01 X9.6014 Y30.5257 
G01 X9.4793 Y30.4036 
G01 X9.4370 Y30.3403 
G01 X8.8248 Y30.3403 
G01 X8.6988 Y30.3065 
G01 X8.5859 Y30.2413 
G01 X7.3159 Y28.9713 
G01 X7.2237 Y28.8791 
G01 X7.1585 Y28.7662 
G01 X7.1247 Y28.6402 
G01 X7.1247 Y26.3828 
G01 X6.9681 Y26.5793 
G01 X6.7800 Y26.7674 
G01 X6.5720 Y26.9332 
G01 X6.3468 Y27.0747 
G01 X6.2103 Y27.1405 
G01 X6.2103 Y27.2170 
G01 X6.2736 Y27.2593 
G01 X6.3957 Y27.3814 
G01 X6.4916 Y27.5249 
G01 X6.5576 Y27.6844 
G01 X6.5913 Y27.8537 
G01 X6.5913 Y28.0263 
G01 X6.5576 Y28.1956 
G01 X6.4916 Y28.3551 
G01 X6.3957 Y28.4986 
G01 X6.2736 Y28.6207 
G01 X6.2103 Y28.6630 
G01 X6.2103 Y43.9547 
G01 X22.7856 Y43.9547 
G01 X22.8072 Y43.8928 
G00 Z2.5400 
G00 X8.2093 Y28.0164 
G01 Z-0.1778 F254.00 
G01 X8.3314 Y27.8943 F508.00 
G01 X8.4749 Y27.7984 
G01 X8.6344 Y27.7324 
G01 X8.8037 Y27.6987 
G01 X8.9763 Y27.6987 
G01 X9.0510 Y27.7136 
G01 X9.4045 Y27.3601 
G01 X9.2013 Y27.3372 
G01 X8.9420 Y27.2780 
G01 X8.6909 Y27.1901 
G01 X8.4513 Y27.0747 
G01 X8.2260 Y26.9332 
G01 X8.1153 Y26.8449 
G01 X8.1153 Y28.1571 
G01 X8.2093 Y28.0164 
G00 Z2.5400 
G00 X23.8670 Y29.5165 
G01 Z-0.1778 F254.00 
G01 X24.0909 Y29.4087 F508.00 
G01 X24.1143 Y29.4005 
G01 X24.0909 Y29.3923 
G01 X23.8513 Y29.2769 
G01 X23.6261 Y29.1354 
G01 X23.4181 Y28.9695 
G01 X23.2300 Y28.7814 
G01 X23.0642 Y28.5735 
G01 X22.9226 Y28.3483 
G01 X22.8072 Y28.1086 
G01 X22.7194 Y27.8575 
G01 X22.6602 Y27.5982 
G01 X22.6337 Y27.3633 
G01 X22.4017 Y27.3372 
G01 X22.1424 Y27.2780 
G01 X21.8913 Y27.1901 
G01 X21.6516 Y27.0747 
G01 X21.4264 Y26.9332 
G01 X21.4074 Y26.9180 
G01 X21.1814 Y27.1440 
G01 X21.1963 Y27.2187 
G01 X21.1963 Y27.3913 
G01 X21.1626 Y27.5606 
G01 X21.0966 Y27.7201 
G01 X21.0007 Y27.8636 
G01 X20.8786 Y27.9857 
G01 X20.7379 Y28.0797 
G01 X22.2902 Y28.0797 
G01 X22.4162 Y28.1135 
G01 X22.5291 Y28.1787 
G01 X22.6213 Y28.2709 
G01 X23.8670 Y29.5165 
G00 Z2.5400 
G00 X23.8094 Y38.3490 
G01 Z-0.1778 F254.00 
G01 X23.8513 Y38.3226 F508.00 
G01 X24.0909 Y38.2072 
G01 X24.1143 Y38.1991 
G01 X24.0909 Y38.1909 
G01 X23.8513 Y38.0755 
G01 X23.6261 Y37.9339 
G01 X23.4181 Y37.7681 
G01 X23.2300 Y37.5800 
G01 X23.0642 Y37.3720 
G01 X22.9226 Y37.1468 
G01 X22.8072 Y36.9072 
G01 X22.7194 Y36.6561 
G01 X22.6602 Y36.3967 
G01 X22.6304 Y36.1324 
G01 X22.6304 Y35.8664 
G01 X22.6602 Y35.6021 
G01 X22.7194 Y35.3428 
G01 X22.8072 Y35.0917 
G01 X22.9226 Y34.8520 
G01 X23.0642 Y34.6268 
G01 X23.2300 Y34.4188 
G01 X23.4181 Y34.2307 
G01 X23.6261 Y34.0649 
G01 X23.8513 Y33.9234 
G01 X24.0909 Y33.8080 
G01 X24.1143 Y33.7998 
G01 X24.0909 Y33.7916 
G01 X23.8513 Y33.6762 
G01 X23.6261 Y33.5347 
G01 X23.4181 Y33.3688 
G01 X23.2300 Y33.1807 
G01 X23.0642 Y32.9728 
G01 X22.9226 Y32.7475 
G01 X22.8072 Y32.5079 
G01 X22.7194 Y32.2568 
G01 X22.6602 Y31.9975 
G01 X22.6304 Y31.7331 
G01 X22.6304 Y31.4671 
G01 X22.6602 Y31.2028 
G01 X22.7194 Y30.9435 
G01 X22.8072 Y30.6924 
G01 X22.9226 Y30.4527 
G01 X23.0642 Y30.2275 
G01 X23.1142 Y30.1647 
G01 X22.0198 Y29.0703 
G01 X20.2548 Y29.0703 
G01 X20.1288 Y29.0365 
G01 X20.0159 Y28.9713 
G01 X19.4798 Y28.4353 
G01 X13.4230 Y28.4353 
G01 X13.3807 Y28.4986 
G01 X13.2586 Y28.6207 
G01 X13.1151 Y28.7166 
G01 X12.9556 Y28.7826 
G01 X12.7863 Y28.8163 
G01 X12.6137 Y28.8163 
G01 X12.4444 Y28.7826 
G01 X12.2849 Y28.7166 
G01 X12.1414 Y28.6207 
G01 X12.0193 Y28.4986 
G01 X11.9234 Y28.3551 
G01 X11.8574 Y28.1956 
G01 X11.8237 Y28.0263 
G01 X11.8237 Y27.8537 
G01 X11.8343 Y27.8003 
G01 X10.3652 Y27.8003 
G01 X9.7514 Y28.4140 
G01 X9.7663 Y28.4887 
G01 X9.7663 Y28.6613 
G01 X9.7326 Y28.8306 
G01 X9.6666 Y28.9901 
G01 X9.5707 Y29.1336 
G01 X9.4486 Y29.2557 
G01 X9.3079 Y29.3497 
G01 X9.4370 Y29.3497 
G01 X9.4793 Y29.2864 
G01 X9.6014 Y29.1643 
G01 X9.7449 Y29.0684 
G01 X9.9044 Y29.0024 
G01 X10.0737 Y28.9687 
G01 X10.2463 Y28.9687 
G01 X10.4156 Y29.0024 
G01 X10.5751 Y29.0684 
G01 X10.7186 Y29.1643 
G01 X10.8407 Y29.2864 
G01 X10.8830 Y29.3497 
G01 X14.6702 Y29.3497 
G01 X14.7962 Y29.3835 
G01 X14.9091 Y29.4487 
G01 X15.0013 Y29.5409 
G01 X23.8094 Y38.3490 
G00 Z2.5400 
G00 X18.4115 Y27.3670 
G01 Z-0.1778 F254.00 
G01 X18.2668 Y27.3670 F508.00 
G01 X18.0024 Y27.3372 
G01 X17.7431 Y27.2780 
G01 X17.4920 Y27.1901 
G01 X17.2524 Y27.0747 
G01 X17.0271 Y26.9332 
G01 X16.8192 Y26.7674 
G01 X16.6311 Y26.5793 
G01 X16.4652 Y26.3713 
G01 X16.3237 Y26.1461 
G01 X16.2083 Y25.9064 
G01 X16.2001 Y25.8831 
G01 X16.1919 Y25.9064 
G01 X16.0765 Y26.1461 
G01 X15.9350 Y26.3713 
G01 X15.7692 Y26.5793 
G01 X15.5811 Y26.7674 
G01 X15.3731 Y26.9332 
G01 X15.1479 Y27.0747 
G01 X14.9082 Y27.1901 
G01 X14.6571 Y27.2780 
G01 X14.3978 Y27.3372 
G01 X14.1335 Y27.3670 
G01 X13.8675 Y27.3670 
G01 X13.6032 Y27.3372 
G01 X13.3438 Y27.2780 
G01 X13.2236 Y27.2359 
G01 X13.2586 Y27.2593 
G01 X13.3807 Y27.3814 
G01 X13.4230 Y27.4447 
G01 X18.4892 Y27.4447 
G01 X18.4115 Y27.3670 
G00 Z2.5400 
G00 X36.5913 Y9.8291 
G01 Z-0.1778 F254.00 
G01 X36.4991 Y9.9213 F508.00 
G01 X36.3862 Y9.9865 
G01 X36.2602 Y10.0203 
G01 X27.3316 Y10.0203 
G01 X27.2780 Y10.2553 
G01 X27.1901 Y10.5064 
G01 X27.0747 Y10.7461 
G01 X26.9332 Y10.9713 
G01 X26.7674 Y11.1792 
G01 X26.5793 Y11.3673 
G01 X26.3713 Y11.5332 
G01 X26.1461 Y11.6747 
G01 X25.9064 Y11.7901 
G01 X25.8794 Y11.7996 
G01 X25.9064 Y11.8090 
G01 X26.1461 Y11.9244 
G01 X26.3713 Y12.0660 
G01 X26.5793 Y12.2318 
G01 X26.7674 Y12.4199 
G01 X26.9332 Y12.6279 
G01 X27.0747 Y12.8531 
G01 X27.1901 Y13.0927 
G01 X27.2780 Y13.3438 
G01 X27.3372 Y13.6032 
G01 X27.3670 Y13.8675 
G01 X27.3670 Y14.1335 
G01 X27.3372 Y14.3978 
G01 X27.2780 Y14.6571 
G01 X27.1901 Y14.9082 
G01 X27.0747 Y15.1479 
G01 X26.9332 Y15.3731 
G01 X26.7674 Y15.5811 
G01 X26.5793 Y15.7692 
G01 X26.3713 Y15.9350 
G01 X26.1461 Y16.0765 
G01 X25.9064 Y16.1919 
G01 X25.8831 Y16.2001 
G01 X25.9064 Y16.2083 
G01 X26.1461 Y16.3237 
G01 X26.3713 Y16.4652 
G01 X26.5793 Y16.6311 
G01 X26.7674 Y16.8192 
G01 X26.9332 Y17.0271 
G01 X27.0747 Y17.2524 
G01 X27.0903 Y17.2847 
G01 X30.2748 Y17.2847 
G01 X40.3720 Y7.1875 
G01 X40.2249 Y7.1266 
G01 X40.0814 Y7.0307 
G01 X39.9593 Y6.9086 
G01 X39.8634 Y6.7651 
G01 X39.7974 Y6.6056 
G01 X39.7637 Y6.4363 
G01 X39.7637 Y6.2637 
G01 X39.7743 Y6.2103 
G01 X36.2830 Y6.2103 
G01 X36.2407 Y6.2736 
G01 X36.1186 Y6.3957 
G01 X35.9751 Y6.4916 
G01 X35.8156 Y6.5576 
G01 X35.6463 Y6.5913 
G01 X35.4737 Y6.5913 
G01 X35.3044 Y6.5576 
G01 X35.1449 Y6.4916 
G01 X35.0014 Y6.3957 
G01 X34.8793 Y6.2736 
G01 X34.8370 Y6.2103 
G01 X27.1405 Y6.2103 
G01 X27.0747 Y6.3468 
G01 X26.9332 Y6.5720 
G01 X26.7674 Y6.7800 
G01 X26.5793 Y6.9681 
G01 X26.3713 Y7.1339 
G01 X26.1461 Y7.2754 
G01 X25.9064 Y7.3908 
G01 X25.8830 Y7.3990 
G01 X25.9064 Y7.4072 
G01 X26.1461 Y7.5226 
G01 X26.3713 Y7.6641 
G01 X26.5793 Y7.8300 
G01 X26.7674 Y8.0181 
G01 X26.9332 Y8.2260 
G01 X27.0747 Y8.4513 
G01 X27.1901 Y8.6909 
G01 X27.2780 Y8.9420 
G01 X27.2980 Y9.0297 
G01 X35.9898 Y9.0297 
G01 X36.6036 Y8.4160 
G01 X36.5887 Y8.3413 
G01 X36.5887 Y8.1687 
G01 X36.6224 Y7.9994 
G01 X36.6884 Y7.8399 
G01 X36.7843 Y7.6964 
G01 X36.9064 Y7.5743 
G01 X37.0499 Y7.4784 
G01 X37.2094 Y7.4124 
G01 X37.3787 Y7.3787 
G01 X37.5513 Y7.3787 
G01 X37.7206 Y7.4124 
G01 X37.8801 Y7.4784 
G01 X38.0236 Y7.5743 
G01 X38.1457 Y7.6964 
G01 X38.2416 Y7.8399 
G01 X38.3076 Y7.9994 
G01 X38.3413 Y8.1687 
G01 X38.3413 Y8.3413 
G01 X38.3076 Y8.5106 
G01 X38.2416 Y8.6701 
G01 X38.1457 Y8.8136 
G01 X38.0236 Y8.9357 
G01 X37.8801 Y9.0316 
G01 X37.7206 Y9.0976 
G01 X37.5513 Y9.1313 
G01 X37.3787 Y9.1313 
G01 X37.3040 Y9.1164 
G01 X36.5913 Y9.8291 
G00 Z2.5400 
G00 X27.3670 Y18.5328 
G01 Z-0.1778 F254.00 
G01 X27.3372 Y18.7971 F508.00 
G01 X27.2780 Y19.0564 
G01 X27.1901 Y19.3075 
G01 X27.0747 Y19.5472 
G01 X26.9332 Y19.7724 
G01 X26.7674 Y19.9803 
G01 X26.5793 Y20.1684 
G01 X26.3713 Y20.3343 
G01 X26.1461 Y20.4758 
G01 X25.9064 Y20.5912 
G01 X25.8830 Y20.5994 
G01 X25.9064 Y20.6076 
G01 X26.1461 Y20.7230 
G01 X26.3713 Y20.8645 
G01 X26.5793 Y21.0304 
G01 X26.7674 Y21.2185 
G01 X26.9332 Y21.4264 
G01 X27.0747 Y21.6516 
G01 X27.1901 Y21.8913 
G01 X27.2780 Y22.1424 
G01 X27.3372 Y22.4017 
G01 X27.3633 Y22.6337 
G01 X27.5982 Y22.6602 
G01 X27.8575 Y22.7194 
G01 X28.1086 Y22.8072 
G01 X28.3483 Y22.9226 
G01 X28.5735 Y23.0642 
G01 X28.7814 Y23.2300 
G01 X28.9695 Y23.4181 
G01 X29.1354 Y23.6261 
G01 X29.2769 Y23.8513 
G01 X29.3923 Y24.0909 
G01 X29.4005 Y24.1143 
G01 X29.4087 Y24.0909 
G01 X29.5241 Y23.8513 
G01 X29.6656 Y23.6261 
G01 X29.8315 Y23.4181 
G01 X30.0196 Y23.2300 
G01 X30.2275 Y23.0642 
G01 X30.4527 Y22.9226 
G01 X30.6197 Y22.8422 
G01 X30.6197 Y18.2753 
G01 X27.3670 Y18.2753 
G01 X27.3670 Y18.5328 
G00 Z2.5400 
G00 X31.7331 Y22.6304 
G01 Z-0.1778 F254.00 
G01 X31.9975 Y22.6602 F508.00 
G01 X32.2568 Y22.7194 
G01 X32.5079 Y22.8072 
G01 X32.7475 Y22.9226 
G01 X32.9728 Y23.0642 
G01 X33.1807 Y23.2300 
G01 X33.3688 Y23.4181 
G01 X33.5347 Y23.6261 
G01 X33.6762 Y23.8513 
G01 X33.7916 Y24.0909 
G01 X33.7998 Y24.1143 
G01 X33.8080 Y24.0909 
G01 X33.9234 Y23.8513 
G01 X34.0649 Y23.6261 
G01 X34.2307 Y23.4181 
G01 X34.4188 Y23.2300 
G01 X34.6268 Y23.0642 
G01 X34.8520 Y22.9226 
G01 X35.0917 Y22.8072 
G01 X35.3428 Y22.7194 
G01 X35.6021 Y22.6602 
G01 X35.8664 Y22.6304 
G01 X36.1324 Y22.6304 
G01 X36.3967 Y22.6602 
G01 X36.6561 Y22.7194 
G01 X36.9072 Y22.8072 
G01 X37.1468 Y22.9226 
G01 X37.2636 Y22.9960 
G01 X38.5086 Y21.7510 
G01 X38.4937 Y21.6763 
G01 X38.4937 Y21.5037 
G01 X38.5274 Y21.3344 
G01 X38.5934 Y21.1749 
G01 X38.6893 Y21.0314 
G01 X38.8114 Y20.9093 
G01 X38.9549 Y20.8134 
G01 X39.1144 Y20.7474 
G01 X39.2837 Y20.7137 
G01 X39.4563 Y20.7137 
G01 X39.6256 Y20.7474 
G01 X39.7851 Y20.8134 
G01 X39.9286 Y20.9093 
G01 X40.0507 Y21.0314 
G01 X40.1466 Y21.1749 
G01 X40.2126 Y21.3344 
G01 X40.2463 Y21.5037 
G01 X40.2463 Y21.6763 
G01 X40.2126 Y21.8456 
G01 X40.1466 Y22.0051 
G01 X40.0507 Y22.1486 
G01 X39.9286 Y22.2707 
G01 X39.7851 Y22.3666 
G01 X39.6256 Y22.4326 
G01 X39.4563 Y22.4663 
G01 X39.2837 Y22.4663 
G01 X39.2090 Y22.4514 
G01 X37.9727 Y23.6877 
G01 X38.0755 Y23.8513 
G01 X38.1909 Y24.0909 
G01 X38.1991 Y24.1143 
G01 X38.2072 Y24.0909 
G01 X38.3226 Y23.8513 
G01 X38.4642 Y23.6261 
G01 X38.6300 Y23.4181 
G01 X38.8181 Y23.2300 
G01 X39.0261 Y23.0642 
G01 X39.2513 Y22.9226 
G01 X39.4910 Y22.8072 
G01 X39.7420 Y22.7194 
G01 X40.0014 Y22.6602 
G01 X40.2657 Y22.6304 
G01 X40.5317 Y22.6304 
G01 X40.7960 Y22.6602 
G01 X41.0554 Y22.7194 
G01 X41.3064 Y22.8072 
G01 X41.5461 Y22.9226 
G01 X41.7713 Y23.0642 
G01 X41.9793 Y23.2300 
G01 X42.1674 Y23.4181 
G01 X42.3332 Y23.6261 
G01 X42.4748 Y23.8513 
G01 X42.5902 Y24.0909 
G01 X42.5996 Y24.1179 
G01 X42.6091 Y24.0909 
G01 X42.7245 Y23.8513 
G01 X42.8660 Y23.6261 
G01 X43.0318 Y23.4181 
G01 X43.2199 Y23.2300 
G01 X43.4279 Y23.0642 
G01 X43.6531 Y22.9226 
G01 X43.8928 Y22.8072 
G01 X43.9547 Y22.7856 
G01 X43.9547 Y5.5753 
G01 X42.3279 Y5.5753 
G01 X42.4686 Y5.6693 
G01 X42.5907 Y5.7914 
G01 X42.6866 Y5.9349 
G01 X42.7526 Y6.0944 
G01 X42.7863 Y6.2637 
G01 X42.7863 Y6.4363 
G01 X42.7526 Y6.6056 
G01 X42.6866 Y6.7651 
G01 X42.5907 Y6.9086 
G01 X42.4686 Y7.0307 
G01 X42.3251 Y7.1266 
G01 X42.1656 Y7.1926 
G01 X41.9963 Y7.2263 
G01 X41.8237 Y7.2263 
G01 X41.7490 Y7.2114 
G01 X31.4980 Y17.4625 
G01 X31.5113 Y17.4759 
G01 X31.5765 Y17.5888 
G01 X31.6103 Y17.7148 
G01 X31.6103 Y22.6304 
G01 X31.7331 Y22.6304 
G00 Z2.5400 
G00 X43.7270 Y43.3197 
G01 Z-0.1778 F254.00 
G01 X43.7693 Y43.2564 F508.00 
G01 X43.8914 Y43.1343 
G01 X44.0349 Y43.0384 
G01 X44.1944 Y42.9724 
G01 X44.3637 Y42.9387 
G01 X44.5363 Y42.9387 
G01 X44.7056 Y42.9724 
G01 X44.8651 Y43.0384 
G01 X45.0086 Y43.1343 
G01 X45.1307 Y43.2564 
G01 X45.2266 Y43.3999 
G01 X45.2926 Y43.5594 
G01 X45.3263 Y43.7287 
G01 X45.3263 Y43.9013 
G01 X45.2926 Y44.0706 
G01 X45.2266 Y44.2301 
G01 X45.1307 Y44.3736 
G01 X45.0086 Y44.4957 
G01 X44.8651 Y44.5916 
G01 X44.7056 Y44.6576 
G01 X44.5363 Y44.6913 
G01 X44.3637 Y44.6913 
G01 X44.1944 Y44.6576 
G01 X44.0349 Y44.5916 
G01 X43.8914 Y44.4957 
G01 X43.7693 Y44.3736 
G01 X43.7270 Y44.3103 
G01 X40.7280 Y44.3103 
G01 X40.6857 Y44.3736 
G01 X40.5636 Y44.4957 
G01 X40.4201 Y44.5916 
G01 X40.2606 Y44.6576 
G01 X40.0913 Y44.6913 
G01 X39.9187 Y44.6913 
G01 X39.7494 Y44.6576 
G01 X39.5899 Y44.5916 
G01 X39.4464 Y44.4957 
G01 X39.3700 Y44.4193 
G01 X39.2936 Y44.4957 
G01 X39.1501 Y44.5916 
G01 X38.9906 Y44.6576 
G01 X38.8213 Y44.6913 
G01 X38.6487 Y44.6913 
G01 X38.5740 Y44.6764 
G01 X38.4963 Y44.7541 
G01 X38.4041 Y44.8463 
G01 X38.2912 Y44.9115 
G01 X38.1652 Y44.9453 
G01 X27.3656 Y44.9453 
G01 X27.3372 Y45.1978 
G01 X27.2780 Y45.4572 
G01 X27.1901 Y45.7083 
G01 X27.0747 Y45.9479 
G01 X26.9332 Y46.1731 
G01 X26.7674 Y46.3811 
G01 X26.5793 Y46.5692 
G01 X26.3713 Y46.7350 
G01 X26.1461 Y46.8766 
G01 X25.9064 Y46.9920 
G01 X25.6553 Y47.0798 
G01 X25.3960 Y47.1390 
G01 X25.1317 Y47.1688 
G01 X24.8657 Y47.1688 
G01 X24.6014 Y47.1390 
G01 X24.3420 Y47.0798 
G01 X24.0909 Y46.9920 
G01 X23.8513 Y46.8766 
G01 X23.6261 Y46.7350 
G01 X23.4181 Y46.5692 
G01 X23.2300 Y46.3811 
G01 X23.0642 Y46.1731 
G01 X22.9226 Y45.9479 
G01 X22.8072 Y45.7083 
G01 X22.7194 Y45.4572 
G01 X22.6602 Y45.1978 
G01 X22.6317 Y44.9453 
G01 X5.6498 Y44.9453 
G01 X5.5238 Y44.9115 
G01 X5.4109 Y44.8463 
G01 X5.3187 Y44.7541 
G01 X5.2535 Y44.6412 
G01 X5.2197 Y44.5152 
G01 X5.2197 Y28.6630 
G01 X5.1564 Y28.6207 
G01 X5.0343 Y28.4986 
G01 X4.9384 Y28.3551 
G01 X4.8724 Y28.1956 
G01 X4.8387 Y28.0263 
G01 X4.8387 Y27.8537 
G01 X4.8724 Y27.6844 
G01 X4.9384 Y27.5249 
G01 X5.0343 Y27.3814 
G01 X5.0505 Y27.3652 
G01 X4.8021 Y27.3372 
G01 X4.5427 Y27.2780 
G01 X4.2916 Y27.1901 
G01 X4.0520 Y27.0747 
G01 X3.8268 Y26.9332 
G01 X3.6188 Y26.7674 
G01 X3.4307 Y26.5793 
G01 X3.2649 Y26.3713 
G01 X3.1233 Y26.1461 
G01 X3.0079 Y25.9064 
G01 X2.9201 Y25.6553 
G01 X2.8609 Y25.3960 
G01 X2.8311 Y25.1317 
G01 X2.8311 Y24.8657 
G01 X2.8609 Y24.6014 
G01 X2.9201 Y24.3420 
G01 X3.0079 Y24.0909 
G01 X3.1233 Y23.8513 
G01 X3.2649 Y23.6261 
G01 X3.4307 Y23.4181 
G01 X3.6188 Y23.2300 
G01 X3.8268 Y23.0642 
G01 X4.0520 Y22.9226 
G01 X4.2916 Y22.8072 
G01 X4.5427 Y22.7194 
G01 X4.8021 Y22.6602 
G01 X5.0664 Y22.6304 
G01 X5.2197 Y22.6304 
G01 X5.2197 Y14.5398 
G01 X5.2535 Y14.4138 
G01 X5.3187 Y14.3009 
G01 X5.4109 Y14.2087 
G01 X7.9509 Y11.6687 
G01 X8.0638 Y11.6035 
G01 X8.1898 Y11.5697 
G01 X18.2098 Y11.5697 
G01 X23.1278 Y6.6518 
G01 X23.0642 Y6.5720 
G01 X22.9226 Y6.3468 
G01 X22.8072 Y6.1071 
G01 X22.7194 Y5.8560 
G01 X22.6602 Y5.5967 
G01 X22.6304 Y5.3324 
G01 X22.6304 Y5.0664 
G01 X22.6602 Y4.8021 
G01 X22.7194 Y4.5427 
G01 X22.8072 Y4.2916 
G01 X22.9226 Y4.0520 
G01 X23.0642 Y3.8268 
G01 X23.2300 Y3.6188 
G01 X23.4181 Y3.4307 
G01 X23.6261 Y3.2649 
G01 X23.8513 Y3.1233 
G01 X24.0909 Y3.0079 
G01 X24.3420 Y2.9201 
G01 X24.6014 Y2.8609 
G01 X24.8657 Y2.8311 
G01 X25.1317 Y2.8311 
G01 X25.3960 Y2.8609 
G01 X25.6553 Y2.9201 
G01 X25.9064 Y3.0079 
G01 X26.1461 Y3.1233 
G01 X26.3713 Y3.2649 
G01 X26.5793 Y3.4307 
G01 X26.7674 Y3.6188 
G01 X26.9332 Y3.8268 
G01 X27.0747 Y4.0520 
G01 X27.1901 Y4.2916 
G01 X27.2780 Y4.5427 
G01 X27.3372 Y4.8021 
G01 X27.3670 Y5.0664 
G01 X27.3670 Y5.2197 
G01 X34.8370 Y5.2197 
G01 X34.8793 Y5.1564 
G01 X35.0014 Y5.0343 
G01 X35.1449 Y4.9384 
G01 X35.3044 Y4.8724 
G01 X35.4737 Y4.8387 
G01 X35.6463 Y4.8387 
G01 X35.8156 Y4.8724 
G01 X35.9751 Y4.9384 
G01 X36.1186 Y5.0343 
G01 X36.2407 Y5.1564 
G01 X36.2830 Y5.2197 
G01 X40.0702 Y5.2197 
G01 X40.1962 Y5.2535 
G01 X40.3091 Y5.3187 
G01 X40.4013 Y5.4109 
G01 X40.4790 Y5.4886 
G01 X40.5537 Y5.4737 
G01 X40.7263 Y5.4737 
G01 X40.8010 Y5.4886 
G01 X41.6059 Y4.6837 
G01 X41.7188 Y4.6185 
G01 X41.8448 Y4.5847 
G01 X44.5152 Y4.5847 
G01 X44.6412 Y4.6185 
G01 X44.7541 Y4.6837 
G01 X44.8463 Y4.7759 
G01 X44.9115 Y4.8888 
G01 X44.9453 Y5.0148 
G01 X44.9453 Y22.6317 
G01 X45.1978 Y22.6602 
G01 X45.4572 Y22.7194 
G01 X45.7083 Y22.8072 
G01 X45.9479 Y22.9226 
G01 X46.1731 Y23.0642 
G01 X46.3811 Y23.2300 
G01 X46.5692 Y23.4181 
G01 X46.7350 Y23.6261 
G01 X46.8766 Y23.8513 
G01 X46.9920 Y24.0909 
G01 X47.0798 Y24.3420 
G01 X47.1390 Y24.6014 
G01 X47.1688 Y24.8657 
G01 X47.1688 Y25.1317 
G01 X47.1390 Y25.3960 
G01 X47.0798 Y25.6553 
G01 X46.9920 Y25.9064 
G01 X46.8766 Y26.1461 
G01 X46.7350 Y26.3713 
G01 X46.5692 Y26.5793 
G01 X46.3811 Y26.7674 
G01 X46.1731 Y26.9332 
G01 X45.9479 Y27.0747 
G01 X45.7083 Y27.1901 
G01 X45.4572 Y27.2780 
G01 X45.1978 Y27.3372 
G01 X44.9335 Y27.3670 
G01 X44.6675 Y27.3670 
G01 X44.4032 Y27.3372 
G01 X44.1439 Y27.2780 
G01 X43.8928 Y27.1901 
G01 X43.6531 Y27.0747 
G01 X43.4279 Y26.9332 
G01 X43.2199 Y26.7674 
G01 X43.0318 Y26.5793 
G01 X42.8660 Y26.3713 
G01 X42.7245 Y26.1461 
G01 X42.6091 Y25.9064 
G01 X42.5996 Y25.8794 
G01 X42.5902 Y25.9064 
G01 X42.4748 Y26.1461 
G01 X42.3332 Y26.3713 
G01 X42.1674 Y26.5793 
G01 X41.9793 Y26.7674 
G01 X41.7713 Y26.9332 
G01 X41.5461 Y27.0747 
G01 X41.3064 Y27.1901 
G01 X41.1353 Y27.2500 
G01 X41.1353 Y39.2820 
G01 X41.1986 Y39.3243 
G01 X41.3207 Y39.4464 
G01 X41.4166 Y39.5899 
G01 X41.4826 Y39.7494 
G01 X41.5163 Y39.9187 
G01 X41.5163 Y40.0913 
G01 X41.4826 Y40.2606 
G01 X41.4166 Y40.4201 
G01 X41.3207 Y40.5636 
G01 X41.1986 Y40.6857 
G01 X41.0551 Y40.7816 
G01 X40.9080 Y40.8425 
G01 X41.7490 Y41.6836 
G01 X41.8237 Y41.6687 
G01 X41.9963 Y41.6687 
G01 X42.1656 Y41.7024 
G01 X42.3251 Y41.7684 
G01 X42.4686 Y41.8643 
G01 X42.5907 Y41.9864 
G01 X42.6866 Y42.1299 
G01 X42.7526 Y42.2894 
G01 X42.7863 Y42.4587 
G01 X42.7863 Y42.6313 
G01 X42.7526 Y42.8006 
G01 X42.6866 Y42.9601 
G01 X42.5907 Y43.1036 
G01 X42.4686 Y43.2257 
G01 X42.3279 Y43.3197 
G01 X43.7270 Y43.3197 
G00 Z2.5400 
G00 X22.8113 Y43.5916 
G01 Z-0.1778 F254.00 
G01 X22.9604 Y43.3543 F508.00 
G01 X23.1352 Y43.1352 
G01 X23.3333 Y42.9370 
G01 X23.5525 Y42.7622 
G01 X23.7898 Y42.6131 
G01 X23.8179 Y42.5996 
G01 X23.7898 Y42.5861 
G01 X23.5525 Y42.4370 
G01 X23.3333 Y42.2622 
G01 X23.1352 Y42.0640 
G01 X22.9604 Y41.8449 
G01 X22.8113 Y41.6076 
G01 X22.6897 Y41.3551 
G01 X22.5971 Y41.0906 
G01 X22.5348 Y40.8173 
G01 X22.5034 Y40.5388 
G01 X22.5034 Y40.2586 
G01 X22.5348 Y39.9801 
G01 X22.5971 Y39.7068 
G01 X22.6897 Y39.4423 
G01 X22.8113 Y39.1898 
G01 X22.9110 Y39.0311 
G01 X14.3472 Y30.4673 
G01 X10.9509 Y30.4673 
G01 X10.9393 Y30.4846 
G01 X10.7996 Y30.6243 
G01 X10.6352 Y30.7341 
G01 X10.4527 Y30.8097 
G01 X10.2588 Y30.8483 
G01 X10.0612 Y30.8483 
G01 X9.8673 Y30.8097 
G01 X9.6848 Y30.7341 
G01 X9.5204 Y30.6243 
G01 X9.3807 Y30.4846 
G01 X9.3691 Y30.4673 
G01 X8.8287 Y30.4673 
G01 X8.7085 Y30.4434 
G01 X8.5952 Y30.3965 
G01 X8.4933 Y30.3284 
G01 X7.2233 Y29.0584 
G01 X7.1366 Y28.9717 
G01 X7.0685 Y28.8698 
G01 X7.0216 Y28.7565 
G01 X6.9977 Y28.6363 
G01 X6.9977 Y26.7292 
G01 X6.8647 Y26.8622 
G01 X6.6456 Y27.0370 
G01 X6.4083 Y27.1861 
G01 X6.3892 Y27.1953 
G01 X6.4943 Y27.3004 
G01 X6.6041 Y27.4648 
G01 X6.6797 Y27.6473 
G01 X6.7183 Y27.8412 
G01 X6.7183 Y28.0388 
G01 X6.6797 Y28.2326 
G01 X6.6041 Y28.4152 
G01 X6.4943 Y28.5796 
G01 X6.3546 Y28.7193 
G01 X6.3373 Y28.7309 
G01 X6.3373 Y43.8277 
G01 X22.6976 Y43.8277 
G01 X22.8113 Y43.5916 
G00 Z2.5400 
G00 X8.2504 Y27.7957 
G01 Z-0.1778 F254.00 
G01 X8.4148 Y27.6859 F508.00 
G01 X8.5973 Y27.6103 
G01 X8.7912 Y27.5717 
G01 X8.9888 Y27.5717 
G01 X9.0092 Y27.5758 
G01 X9.1331 Y27.4519 
G01 X8.9068 Y27.4002 
G01 X8.6422 Y27.3077 
G01 X8.3897 Y27.1861 
G01 X8.2423 Y27.0934 
G01 X8.2423 Y27.8038 
G01 X8.2504 Y27.7957 
G00 Z2.5400 
G00 X22.6897 Y28.1573 
G01 Z-0.1778 F254.00 
G01 X22.5971 Y27.8927 F508.00 
G01 X22.5348 Y27.6195 
G01 X22.5189 Y27.4782 
G01 X22.3804 Y27.4626 
G01 X22.1072 Y27.4002 
G01 X21.8426 Y27.3077 
G01 X21.5901 Y27.1861 
G01 X21.4236 Y27.0814 
G01 X21.3192 Y27.1858 
G01 X21.3233 Y27.2062 
G01 X21.3233 Y27.4038 
G01 X21.2847 Y27.5977 
G01 X21.2091 Y27.7802 
G01 X21.0993 Y27.9446 
G01 X21.0912 Y27.9527 
G01 X22.2863 Y27.9527 
G01 X22.4065 Y27.9766 
G01 X22.5198 Y28.0235 
G01 X22.6217 Y28.0916 
G01 X22.6919 Y28.1618 
G01 X22.6897 Y28.1573 
G00 Z2.5400 
G00 X22.7768 Y37.1368 
G01 Z-0.1778 F254.00 
G01 X22.6897 Y36.9558 F508.00 
G01 X22.5971 Y36.6913 
G01 X22.5348 Y36.4181 
G01 X22.5034 Y36.1395 
G01 X22.5034 Y35.8593 
G01 X22.5348 Y35.5808 
G01 X22.5971 Y35.3075 
G01 X22.6897 Y35.0430 
G01 X22.8113 Y34.7905 
G01 X22.9604 Y34.5532 
G01 X23.1352 Y34.3341 
G01 X23.3333 Y34.1359 
G01 X23.5525 Y33.9611 
G01 X23.7898 Y33.8120 
G01 X23.8152 Y33.7998 
G01 X23.7898 Y33.7875 
G01 X23.5525 Y33.6384 
G01 X23.3333 Y33.4637 
G01 X23.1352 Y33.2655 
G01 X22.9604 Y33.0464 
G01 X22.8113 Y32.8091 
G01 X22.6897 Y32.5566 
G01 X22.5971 Y32.2920 
G01 X22.5348 Y32.0188 
G01 X22.5034 Y31.7403 
G01 X22.5034 Y31.4600 
G01 X22.5348 Y31.1815 
G01 X22.5971 Y30.9083 
G01 X22.6897 Y30.6437 
G01 X22.8113 Y30.3912 
G01 X22.9463 Y30.1764 
G01 X21.9672 Y29.1973 
G01 X20.2587 Y29.1973 
G01 X20.1385 Y29.1734 
G01 X20.0252 Y29.1265 
G01 X19.9233 Y29.0584 
G01 X19.4272 Y28.5623 
G01 X13.4909 Y28.5623 
G01 X13.4793 Y28.5796 
G01 X13.3396 Y28.7193 
G01 X13.1752 Y28.8291 
G01 X12.9927 Y28.9047 
G01 X12.7988 Y28.9433 
G01 X12.6012 Y28.9433 
G01 X12.4073 Y28.9047 
G01 X12.2248 Y28.8291 
G01 X12.0604 Y28.7193 
G01 X11.9207 Y28.5796 
G01 X11.8109 Y28.4152 
G01 X11.7353 Y28.2326 
G01 X11.6967 Y28.0388 
G01 X11.6967 Y27.9273 
G01 X10.4178 Y27.9273 
G01 X9.8892 Y28.4558 
G01 X9.8933 Y28.4762 
G01 X9.8933 Y28.6738 
G01 X9.8547 Y28.8677 
G01 X9.8458 Y28.8892 
G01 X9.8673 Y28.8803 
G01 X10.0612 Y28.8417 
G01 X10.2588 Y28.8417 
G01 X10.4527 Y28.8803 
G01 X10.6352 Y28.9559 
G01 X10.7996 Y29.0657 
G01 X10.9393 Y29.2054 
G01 X10.9509 Y29.2227 
G01 X14.6663 Y29.2227 
G01 X14.7865 Y29.2466 
G01 X14.8998 Y29.2935 
G01 X15.0017 Y29.3616 
G01 X15.0884 Y29.4483 
G01 X22.7768 Y37.1368 
G00 Z2.5400 
G00 X17.4433 Y27.3077 
G01 Z-0.1778 F254.00 
G01 X17.1908 Y27.1861 F508.00 
G01 X16.9535 Y27.0370 
G01 X16.7344 Y26.8622 
G01 X16.5362 Y26.6640 
G01 X16.3615 Y26.4449 
G01 X16.2124 Y26.2076 
G01 X16.2001 Y26.1821 
G01 X16.1879 Y26.2076 
G01 X16.0388 Y26.4449 
G01 X15.8640 Y26.6640 
G01 X15.6658 Y26.8622 
G01 X15.4467 Y27.0370 
G01 X15.2094 Y27.1861 
G01 X14.9569 Y27.3077 
G01 X14.9282 Y27.3177 
G01 X17.4720 Y27.3177 
G01 X17.4433 Y27.3077 
G00 Z2.5400 
G00 X11.9622 Y26.4449 
G01 Z-0.1778 F254.00 
G01 X11.8131 Y26.2076 F508.00 
G01 X11.7996 Y26.1795 
G01 X11.7860 Y26.2076 
G01 X11.6369 Y26.4449 
G01 X11.4622 Y26.6640 
G01 X11.4435 Y26.6827 
G01 X11.8072 Y26.6827 
G01 X11.9990 Y26.4910 
G01 X11.9622 Y26.4449 
G00 Z2.5400 
G00 X22.9780 Y11.0669 
G01 Z-0.1778 F254.00 
G01 X22.9604 Y11.0449 F508.00 
G01 X22.8113 Y10.8076 
G01 X22.6897 Y10.5551 
G01 X22.5971 Y10.2905 
G01 X22.5348 Y10.0173 
G01 X22.5034 Y9.7388 
G01 X22.5034 Y9.4585 
G01 X22.5348 Y9.1800 
G01 X22.5971 Y8.9068 
G01 X22.6746 Y8.6855 
G01 X19.2824 Y12.0777 
